; G-Code generated by Simplify3D(TM) Version 2.1.2
; Dec 3, 2014 at 5:37:04 PM
; Settings Summary
;   processName,Process1
;   applyToModels,gearcover
;   printMaterial,ABS
;   printQuality,High
;   extruderName,Right Extruder,Left Extruder
;   extruderToolheadNumber,0,1
;   extruderDiameter,0.4,0.4
;   extruderAutoWidth,0,0
;   extruderWidth,0.4,0.4
;   extrusionMultiplier,1,1
;   extruderUseRetract,1,1
;   extruderRetractionDistance,1,1.2
;   extruderExtraRestartDistance,0,0
;   extruderRetractionZLift,0,0
;   extruderRetractionSpeed,1200,1200
;   extruderUseCoasting,0,0
;   extruderCoastingDistance,0.2,0.2
;   extruderUseWipe,0,1
;   extruderWipeDistance,5,7
;   primaryExtruder,1
;   layerHeight,0.25
;   topSolidLayers,3
;   bottomSolidLayers,3
;   perimeterOutlines,2
;   printPerimetersInsideOut,1
;   startPointOption,2
;   startPointOriginX,0
;   startPointOriginY,0
;   startPointOriginZ,300
;   sequentialIslands,0
;   spiralVaseMode,0
;   firstLayerHeightRatio,0.9
;   firstLayerUnderspeed,0.5
;   useRaft,1
;   raftLayers,3
;   raftOffset,3
;   raftSeparationDistance,0.14
;   raftInfill,85
;   disableRaftBaseLayers,0
;   useSkirt,1
;   skirtLayers,2
;   skirtOutlines,2
;   skirtOffset,4
;   infillExtruder,1
;   externalInfillPattern,Rectilinear
;   infillPercentage,20
;   outlineOverlapPercentage,23
;   minInfillLength,2.5
;   infillLayerInterval,1
;   randomInfillStartPoint,1
;   infillAngles,45,-45
;   generateSupport,1
;   supportExtruder,1
;   supportInfill,40
;   supportExtraInflation,0
;   supportLayerInterval,1
;   supportHorizontalPartOffset,0.3
;   supportUpperSeparationLayers,1
;   supportLowerSeparationLayers,1
;   supportGridSpacing,4
;   maxOverhangAngle,45
;   supportAngles,0
;   temperatureName,Right Extruder,Left Extruder,Heated Build Platform
;   temperatureNumber,0,1,0
;   temperatureSetpointCount,1,1,1
;   temperatureSetpointLayers,1,1,1
;   temperatureSetpointTemperatures,0,232,130
;   temperatureStabilizeAtStartup,1,1,1
;   temperatureHeatedBed,0,0,1
;   temperatureRelayBetweenLayers,1,1,1
;   temperatureRelayBetweenLoops,0,0,0
;   fanLayers,1
;   fanSpeeds,0
;   blipFanToFullPower,0
;   adjustSpeedForCooling,1
;   minSpeedLayerTime,15
;   minCoolingSpeedSlowdown,20
;   increaseFanForCooling,0
;   minFanLayerTime,45
;   maxCoolingFanSpeed,100
;   increaseFanForBridging,0
;   bridgingFanSpeed,100
;   use5D,1
;   relativeEdistances,1
;   allowEaxisZeroing,0
;   includeM10123,0
;   stickySupport,1
;   detectArcs,0
;   arcReplaceG2G3,0
;   arcRadialCompensation,1
;   gcodeXoffset,0
;   gcodeYoffset,0
;   gcodeZoffset,0
;   overrideMachineDefinition,1
;   machineTypeOverride,0
;   strokeXoverride,250
;   strokeYoverride,150
;   strokeZoverride,150
;   originOffsetXoverride,125
;   originOffsetYoverride,75
;   originOffsetZoverride,0
;   homeXdirOverride,1
;   homeYdirOverride,1
;   homeZdirOverride,-1
;   flipXoverride,1
;   flipYoverride,-1
;   flipZoverride,1
;   startingGcode,; **** Replicator 2X start.gcode ****,M73 P0 ; enable build progress,G162 X Y F3000 ; home XY maximum,G161 Z F1200 ; home Z minimum,G92 Z-5 ; set Z to -5,G1 Z0 ; move Z to 0,G161 Z F100 ; home Z slowly,M132 X Y Z A B ; recall home offsets,M135 T0 ; load right extruder offsets,G1 X-130 Y-75 Z30 F9000 ; move to wait position off table,G130 X20 Y20 Z20 A20 B20 ; lower stepper Vrefs while heating,M126 S[fan_speed_pwm],M140 S[bed0_temperature] T0,M134 T0 ; stabilize bed temperature,M104 S[extruder1_temperature] T1,M133 T1 ; stabilize extruder temperature,G130 X127 Y127 Z40 A127 B127 ; default stepper Vrefs,G92 A0 B0 ; zero extruders,M135 T1 ; load left extruder offsets,G1 Z0.4 ; position nozzle,G1 E25 F300 ; purge nozzle,G1 X-125 Y-70 Z0.15 F1200 ; slow wipe,G1 X-120 Y-65 Z0.5 F1200 ; lift,G92 A0 B0 ; zero extruders,M73 P1 ;@body (notify GPX body has started),; **** end of start.gcode ****
;   layerChangeGcode,
;   toolChangeGcode,
;   endingGcode,; **** Replicator 2X end.gcode ****,M73 P100 ; end build progress,G0 Z155 F1000 ; send Z axis to bottom of machine,M140 S0 T0 ; cool down HBP,M104 S0 T0 ; cool down right extruder,M104 S0 T1 ; cool down left extruder,M127 ; stop blower fan,G162 X Y F3000 ; home XY maximum,M18 ; disable stepper,M72 P1 ; play Ta-Da song,; **** end of end.gcode ****
;   createX3G,1
;   celebration,0
;   celebrationSong,Entertainer
;   postProcessing,
;   defaultSpeed,4800
;   outlineUnderspeed,0.5
;   supportUnderspeed,0.8
;   rapidXYspeed,9000
;   rapidZspeed,1200
;   minBridgingArea,50
;   bridgingExtrusionMultiplier,1
;   bridgingSpeedMultiplier,0.8
;   filamentDiameter,1.71
;   filamentPricePerKg,46
;   useMinPrintHeight,0
;   minPrintHeight,0
;   useMaxPrintHeight,0
;   maxPrintHeight,0
;   overlapRemoval,0
;   overlapRemovalPercentage,0.3
;   useDiaphragm,0
;   diaphragmLayerInterval,20
;   robustSlicing,1
;   mergeAllIntoSolid,0
;   onlyRetractWhenCrossingOutline,1
;   retractBetweenLayers,1
;   useRetractionMinTravel,0
;   retractionMinTravel,3
;   useRetractionOozeRate,0
;   retractionOozeRate,100
;   onlyWipeOutlines,1
G90 ; use absolute coordinates
M83 ; relative extrusion distances
G21 ; set units to millimeters
; **** Replicator 2X start.gcode ****
M73 P0 ; enable build progress
G162 X Y F3000 ; home XY maximum
G161 Z F1200 ; home Z minimum
G92 Z-5 ; set Z to -5
G1 Z0 ; move Z to 0
G161 Z F100 ; home Z slowly
M132 X Y Z A B ; recall home offsets
M135 T0 ; load right extruder offsets
G1 X-130 Y-75 Z30 F9000 ; move to wait position off table
G130 X20 Y20 Z20 A20 B20 ; lower stepper Vrefs while heating
M127
M140 S130 T0
M134 T0 ; stabilize bed temperature
M104 S232 T1
M133 T1 ; stabilize extruder temperature
G130 X127 Y127 Z40 A127 B127 ; default stepper Vrefs
G92 A0 B0 ; zero extruders
M135 T1 ; load left extruder offsets
G1 Z0.4 ; position nozzle
G1 E25 F300 ; purge nozzle
G1 X-125 Y-70 Z0.15 F1200 ; slow wipe
G1 X-120 Y-65 Z0.5 F1200 ; lift
G92 A0 B0 ; zero extruders
M73 P1 ;@body (notify GPX body has started)
; **** end of start.gcode ****
G1 E-1.2 F1200
; layer 1, Z = 0.45
M105
M105
M105
M135 T1
; tool H0.5 W0.4
G0 X-4.343 Y-25.767 F9000
G0 Z0.45 F1200
G1 E1.2 F360
G1 X-3.862 Y-26.093 E0.0506 F2400
G1 X-2.505 Y-26.813 E0.1338
G1 X-1.074 Y-27.384 E0.1341
G1 X0.413 Y-27.798 E0.1345
G1 X1.935 Y-28.045 E0.1342
G1 X3.136 Y-28.11 E0.1047
G1 X4.741 Y-28.945 E0.1576
G1 X7.458 Y-30.071 E0.2561
G1 X10.263 Y-30.955 E0.2561
G1 X13.131 Y-31.591 E0.2558
G1 X16.05 Y-31.976 E0.2564
G1 X18.986 Y-32.103 E0.2559
G1 X21.924 Y-31.976 E0.2561
G1 X24.842 Y-31.591 E0.2563
G1 X27.71 Y-30.955 E0.2559
G1 X30.517 Y-30.071 E0.2563
G1 X33.233 Y-28.945 E0.2561
G1 X35.841 Y-27.588 E0.256
G1 X38.32 Y-26.007 E0.2561
G1 X40.653 Y-24.218 E0.256
G1 X42.833 Y-22.221 E0.2575
G1 X44.868 Y-19.987 E0.2631
G1 X46.6 Y-17.729 E0.2479
G1 X48.18 Y-15.249 E0.2561
G1 X49.538 Y-12.64 E0.2562
G1 X50.663 Y-9.922 E0.2561
G1 X51.547 Y-7.118 E0.256
G1 X52.183 Y-4.249 E0.256
G1 X52.568 Y-1.332 E0.2562
G1 X52.695 Y1.606 E0.2561
G1 X52.568 Y4.543 E0.256
G1 X52.183 Y7.461 E0.2563
G1 X51.547 Y10.33 E0.2559
G1 X50.663 Y13.132 E0.2559
G1 X49.538 Y15.851 E0.2562
G1 X48.179 Y18.462 E0.2563
G1 X46.599 Y20.941 E0.2561
G1 X44.812 Y23.269 E0.2555
G1 X44.124 Y24.022 E0.0889
G1 X42.821 Y25.443 E0.1679
G1 X40.653 Y27.429 E0.256
G1 X38.32 Y29.218 E0.2561
G1 X35.842 Y30.798 E0.2559
G1 X33.233 Y32.157 E0.2562
G1 X30.515 Y33.282 E0.2563
G1 X27.71 Y34.166 E0.2561
G1 X24.842 Y34.802 E0.2559
G1 X21.926 Y35.186 E0.2561
G1 X18.986 Y35.315 E0.2563
G1 X16.048 Y35.186 E0.2561
G1 X13.131 Y34.802 E0.2562
G1 X10.263 Y34.166 E0.2558
G1 X7.46 Y33.283 E0.2559
G1 X4.741 Y32.157 E0.2562
G1 X2.747 Y31.119 E0.1958
G1 X0.964 Y32.486 E0.1956
G1 X-1.514 Y34.066 E0.2559
G1 X-4.126 Y35.425 E0.2564
G1 X-6.841 Y36.549 E0.2558
G1 X-9.645 Y37.434 E0.2561
G1 X-12.519 Y38.071 E0.2564
G1 X-15.433 Y38.454 E0.256
G1 X-18.37 Y38.583 E0.256
G1 X-21.308 Y38.454 E0.2561
G1 X-24.223 Y38.071 E0.256
G1 X-27.097 Y37.434 E0.2564
G1 X-29.9 Y36.549 E0.256
G1 X-32.616 Y35.425 E0.256
G1 X-35.227 Y34.066 E0.2563
G1 X-37.705 Y32.487 E0.2559
G1 X-40.038 Y30.697 E0.2561
G1 X-42.208 Y28.708 E0.2563
G1 X-44.193 Y26.541 E0.2559
G1 X-45.983 Y24.209 E0.256
G1 X-47.564 Y21.728 E0.2563
G1 X-48.921 Y19.119 E0.256
G1 X-50.047 Y16.404 E0.256
G1 X-50.931 Y13.597 E0.2562
G1 X-51.567 Y10.729 E0.2559
G1 X-51.952 Y7.811 E0.2563
G1 X-52.079 Y4.874 E0.256
G1 X-51.952 Y1.936 E0.2561
G1 X-51.567 Y-0.981 E0.2562
G1 X-50.931 Y-3.85 E0.256
G1 X-50.046 Y-6.656 E0.2562
G1 X-48.921 Y-9.372 E0.256
G1 X-47.564 Y-11.98 E0.256
G1 X-45.983 Y-14.461 E0.2563
G1 X-44.193 Y-16.793 E0.256
G1 X-42.208 Y-18.961 E0.256
G1 X-40.04 Y-20.948 E0.2562
G1 X-37.705 Y-22.74 E0.2563
G1 X-35.225 Y-24.319 E0.256
G1 X-32.618 Y-25.677 E0.256
G1 X-29.9 Y-26.803 E0.2562
G1 X-27.094 Y-27.687 E0.2561
G1 X-24.223 Y-28.323 E0.2562
G1 X-21.308 Y-28.707 E0.256
G1 X-18.37 Y-28.835 E0.2561
G1 X-15.433 Y-28.707 E0.256
G1 X-12.519 Y-28.323 E0.256
G1 X-9.647 Y-27.687 E0.2562
G1 X-6.841 Y-26.802 E0.2562
G1 X-4.343 Y-25.767 E0.2355
G0 X-4.297 Y-25.315 F9000
G1 X-3.656 Y-25.75 E0.0675 F2400
G1 X-2.337 Y-26.45 E0.1301
G1 X-0.946 Y-27.004 E0.1304
G1 X0.499 Y-27.406 E0.1307
G1 X1.978 Y-27.647 E0.1305
G1 X3.243 Y-27.716 E0.1104
G1 X4.91 Y-28.582 E0.1636
G1 X7.595 Y-29.695 E0.2531
G1 X10.367 Y-30.568 E0.2531
G1 X13.2 Y-31.197 E0.2528
G1 X16.085 Y-31.577 E0.2534
G1 X18.986 Y-31.703 E0.2529
G1 X21.889 Y-31.577 E0.2531
G1 X24.772 Y-31.197 E0.2533
G1 X27.607 Y-30.568 E0.2528
G1 X30.38 Y-29.694 E0.2532
G1 X33.064 Y-28.582 E0.2531
G1 X35.641 Y-27.241 E0.2529
G1 X38.091 Y-25.68 E0.253
G1 X40.396 Y-23.911 E0.253
G1 X42.55 Y-21.938 E0.2544
G1 X44.56 Y-19.73 E0.2601
G1 X46.272 Y-17.499 E0.2449
G1 X47.833 Y-15.048 E0.253
G1 X49.175 Y-12.47 E0.2531
G1 X50.287 Y-9.786 E0.2531
G1 X51.16 Y-7.015 E0.253
G1 X51.789 Y-4.179 E0.2529
G1 X52.169 Y-1.297 E0.2531
G1 X52.295 Y1.606 E0.2531
G1 X52.169 Y4.508 E0.253
G1 X51.789 Y7.391 E0.2533
G1 X51.16 Y10.226 E0.2529
G1 X50.287 Y12.996 E0.2529
G1 X49.176 Y15.682 E0.2531
G1 X47.832 Y18.261 E0.2533
G1 X46.271 Y20.712 E0.2531
G1 X44.506 Y23.012 E0.2525
G1 X43.829 Y23.752 E0.0874
G1 X42.538 Y25.16 E0.1663
G1 X40.396 Y27.122 E0.253
G1 X38.091 Y28.89 E0.253
G1 X35.642 Y30.451 E0.2528
G1 X33.064 Y31.794 E0.2531
G1 X30.378 Y32.906 E0.2532
G1 X27.607 Y33.779 E0.253
G1 X24.772 Y34.408 E0.2528
G1 X21.891 Y34.788 E0.2531
G1 X18.986 Y34.915 E0.2533
G1 X16.083 Y34.788 E0.2531
G1 X13.2 Y34.408 E0.2532
G1 X10.367 Y33.779 E0.2528
G1 X7.597 Y32.906 E0.2529
G1 X4.91 Y31.795 E0.2532
G1 X2.705 Y30.647 E0.2165
G1 X0.734 Y32.158 E0.2163
G1 X-1.714 Y33.719 E0.2529
G1 X-4.296 Y35.063 E0.2534
G1 X-6.978 Y36.173 E0.2528
G1 X-9.748 Y37.048 E0.253
G1 X-12.588 Y37.677 E0.2533
G1 X-15.468 Y38.056 E0.2529
G1 X-18.37 Y38.183 E0.253
G1 X-21.273 Y38.056 E0.2531
G1 X-24.153 Y37.677 E0.2529
G1 X-26.993 Y37.048 E0.2533
G1 X-29.763 Y36.173 E0.2529
G1 X-32.447 Y35.063 E0.253
G1 X-35.026 Y33.719 E0.2533
G1 X-37.475 Y32.159 E0.2529
G1 X-39.781 Y30.391 E0.253
G1 X-41.925 Y28.425 E0.2533
G1 X-43.887 Y26.284 E0.2529
G1 X-45.655 Y23.98 E0.2529
G1 X-47.218 Y21.528 E0.2532
G1 X-48.558 Y18.95 E0.253
G1 X-49.67 Y16.267 E0.253
G1 X-50.544 Y13.494 E0.2532
G1 X-51.173 Y10.659 E0.2528
G1 X-51.553 Y7.776 E0.2533
G1 X-51.679 Y4.874 E0.253
G1 X-51.553 Y1.971 E0.2531
G1 X-51.173 Y-0.911 E0.2531
G1 X-50.544 Y-3.747 E0.2529
G1 X-49.67 Y-6.519 E0.2532
G1 X-48.558 Y-9.202 E0.2529
G1 X-47.218 Y-11.78 E0.253
G1 X-45.655 Y-14.232 E0.2532
G1 X-43.887 Y-16.536 E0.2529
G1 X-41.925 Y-18.677 E0.2529
G1 X-39.782 Y-20.642 E0.2531
G1 X-37.475 Y-22.412 E0.2532
G1 X-35.025 Y-23.972 E0.253
G1 X-32.448 Y-25.314 E0.253
G1 X-29.763 Y-26.426 E0.2532
G1 X-26.991 Y-27.3 E0.2531
G1 X-24.153 Y-27.929 E0.2531
G1 X-21.273 Y-28.308 E0.2529
G1 X-18.37 Y-28.435 E0.2531
G1 X-15.468 Y-28.308 E0.253
G1 X-12.588 Y-27.929 E0.2529
G1 X-9.75 Y-27.3 E0.2531
G1 X-6.978 Y-26.426 E0.2532
G1 X-4.297 Y-25.315 E0.2527
; tool H0.5 W0.8
G0 X-6.24 Y-21.141 F9000
G1 X-4.018 Y-19.985 E0.4363 F600
G1 X-3.661 Y-19.757 E0.0737
G1 X-2.864 Y-20.599 E0.2018
G1 X-2.105 Y-21.243 E0.1735
G1 X-1.28 Y-21.803 E0.1736
G1 X-0.401 Y-22.269 E0.1733
G1 X0.526 Y-22.639 E0.1739
G1 X1.488 Y-22.907 E0.1739
G1 X2.474 Y-23.067 E0.1739
G1 X3.466 Y-23.121 E0.1731
G1 X4.35 Y-23.073 E0.1543
G1 X4.634 Y-23.254 E0.0586
G1 X6.856 Y-24.409 E0.4362
G1 X9.169 Y-25.368 E0.4362
G1 X11.558 Y-26.121 E0.4362
G1 X14.001 Y-26.662 E0.4357
G1 X16.486 Y-26.99 E0.4366
G1 X18.986 Y-27.098 E0.4358
G1 X21.488 Y-26.99 E0.4362
G1 X23.972 Y-26.662 E0.4364
G1 X26.415 Y-26.121 E0.4358
G1 X28.805 Y-25.368 E0.4364
G1 X31.118 Y-24.409 E0.4361
G1 X33.338 Y-23.254 E0.4359
G1 X35.45 Y-21.908 E0.4361
G1 X37.437 Y-20.384 E0.4362
G1 X39.289 Y-18.687 E0.4374
G1 X41.029 Y-16.777 E0.4501
G1 X42.5 Y-14.858 E0.4211
G1 X43.845 Y-12.746 E0.4362
G1 X45.002 Y-10.525 E0.4362
G1 X45.96 Y-8.211 E0.4361
G1 X46.713 Y-5.823 E0.4361
G1 X47.254 Y-3.379 E0.436
G1 X47.582 Y-0.896 E0.4362
G1 X47.69 Y1.606 E0.4362
G1 X47.582 Y4.107 E0.436
G1 X47.254 Y6.591 E0.4364
G1 X46.712 Y9.034 E0.4359
G1 X45.96 Y11.422 E0.436
G1 X45.002 Y13.736 E0.4363
G1 X43.845 Y15.959 E0.4364
G1 X42.499 Y18.07 E0.4362
G1 X40.977 Y20.054 E0.4356
G1 X40.436 Y20.646 E0.1396
G1 X39.283 Y21.904 E0.2972
G1 X37.437 Y23.595 E0.436
G1 X35.45 Y25.119 E0.4362
G1 X33.339 Y26.464 E0.4359
G1 X31.118 Y27.621 E0.4362
G1 X28.804 Y28.579 E0.4363
G1 X26.415 Y29.332 E0.4362
G1 X23.972 Y29.873 E0.4358
G1 X21.489 Y30.201 E0.4362
G1 X18.986 Y30.31 E0.4364
G1 X16.485 Y30.201 E0.436
G1 X14.001 Y29.873 E0.4364
G1 X11.558 Y29.331 E0.4357
G1 X9.17 Y28.579 E0.436
G1 X6.856 Y27.621 E0.4364
G1 X4.633 Y26.464 E0.4364
G1 X2.522 Y25.118 E0.4362
G1 X2.2 Y24.872 E0.0706
G1 X1.926 Y25.171 E0.0707
G1 X0.079 Y26.863 E0.4363
G1 X-1.907 Y28.386 E0.436
G1 X-4.017 Y29.732 E0.4359
G1 X-6.241 Y30.889 E0.4366
G1 X-8.553 Y31.846 E0.4358
G1 X-10.941 Y32.6 E0.4361
G1 X-13.387 Y33.142 E0.4364
G1 X-15.869 Y33.469 E0.436
G1 X-18.37 Y33.578 E0.4361
G1 X-20.872 Y33.469 E0.4362
G1 X-23.354 Y33.142 E0.436
G1 X-25.8 Y32.6 E0.4364
G1 X-28.188 Y31.847 E0.436
G1 X-30.501 Y30.889 E0.4361
G1 X-32.724 Y29.732 E0.4364
G1 X-34.835 Y28.387 E0.436
G1 X-36.822 Y26.863 E0.4361
G1 X-38.668 Y25.17 E0.4364
G1 X-40.359 Y23.324 E0.436
G1 X-41.883 Y21.338 E0.436
G1 X-43.23 Y19.226 E0.4363
G1 X-44.385 Y17.005 E0.4361
G1 X-45.344 Y14.692 E0.4361
G1 X-46.097 Y12.302 E0.4363
G1 X-46.638 Y9.859 E0.4359
G1 X-46.966 Y7.375 E0.4364
G1 X-47.074 Y4.874 E0.436
G1 X-46.966 Y2.372 E0.4363
G1 X-46.638 Y-0.111 E0.4362
G1 X-46.097 Y-2.555 E0.4361
G1 X-45.344 Y-4.944 E0.4362
G1 X-44.385 Y-7.257 E0.436
G1 X-43.23 Y-9.478 E0.4361
G1 X-41.883 Y-11.59 E0.4363
G1 X-40.359 Y-13.577 E0.436
G1 X-38.668 Y-15.422 E0.436
G1 X-36.822 Y-17.115 E0.4363
G1 X-34.835 Y-18.64 E0.4363
G1 X-32.723 Y-19.985 E0.4361
G1 X-30.502 Y-21.141 E0.436
G1 X-28.188 Y-22.1 E0.4363
G1 X-25.799 Y-22.853 E0.4362
G1 X-23.354 Y-23.395 E0.4362
G1 X-20.872 Y-23.721 E0.436
G1 X-18.37 Y-23.83 E0.4362
G1 X-15.869 Y-23.721 E0.4361
G1 X-13.387 Y-23.395 E0.436
G1 X-10.942 Y-22.853 E0.4362
G1 X-8.553 Y-22.1 E0.4363
G1 X-6.24 Y-21.141 E0.4361
G0 X-4.018 Y-19.985 F600
G0 X-3.661 Y-19.757 F600
G0 X-2.864 Y-20.599 F600
G0 X-2.105 Y-21.243 F600
G0 X-1.28 Y-21.803 F600
G0 X-0.467 Y-22.234 F600
G0 X10.373 Y-24.908 F9000
G1 X27.601 Y-24.908 E3.0006 F600
G1 X28.531 Y-24.615 E0.1698
G1 X30.78 Y-23.683 E0.424
G1 X32.818 Y-22.623 E0.4001
G1 X5.154 Y-22.623 E4.8182
G1 X5.034 Y-22.56 E0.0236
G1 X4.564 Y-22.26 E0.0972
G1 X3.466 Y-22.32 E0.1915
G1 X2.56 Y-22.27 E0.158
G1 X1.66 Y-22.124 E0.1587
G1 X0.782 Y-21.88 E0.1587
G1 X-0.064 Y-21.542 E0.1587
G1 X-0.867 Y-21.116 E0.1583
G1 X-1.62 Y-20.606 E0.1586
G1 X-1.936 Y-20.337 E0.0723
G1 X36.183 Y-20.337 E6.6394
G1 X36.922 Y-19.77 E0.1622
G1 X38.722 Y-18.122 E0.425
G1 X38.786 Y-18.051 E0.0167
G1 X-34.27 Y-18.051 E12.7243
G1 X-34.375 Y-17.984 E0.0218
G1 X-36.307 Y-16.501 E0.4242
G1 X-37.11 Y-15.765 E0.1897
G1 X40.796 Y-15.765 E13.5691
G1 X41.844 Y-14.399 E0.2999
G1 X42.43 Y-13.48 E0.1899
G1 X-39.363 Y-13.48 E14.246
G1 X-39.746 Y-13.062 E0.0987
G1 X-41.179 Y-11.194 E0.4101
G1 X43.752 Y-11.194 E14.7926
G1 X44.276 Y-10.186 E0.1979
