; G-Code generated by Simplify3D(TM) Version 2.1.2
; Dec 3, 2014 at 5:31:05 PM
; Settings Summary
;   processName,Process1
;   applyToModels,smoothrodhold,smoothrodhold(2),smoothrodhold(3),smoothrodhold(4),smoothrodhold(5),smoothrodhold(6)
;   printMaterial,ABS
;   printQuality,High
;   extruderName,Right Extruder,Left Extruder
;   extruderToolheadNumber,0,1
;   extruderDiameter,0.4,0.4
;   extruderAutoWidth,0,0
;   extruderWidth,0.4,0.4
;   extrusionMultiplier,1,1
;   extruderUseRetract,1,1
;   extruderRetractionDistance,1,1.2
;   extruderExtraRestartDistance,0,0
;   extruderRetractionZLift,0,0
;   extruderRetractionSpeed,1200,1200
;   extruderUseCoasting,0,0
;   extruderCoastingDistance,0.2,0.2
;   extruderUseWipe,0,1
;   extruderWipeDistance,5,7
;   primaryExtruder,1
;   layerHeight,0.25
;   topSolidLayers,3
;   bottomSolidLayers,3
;   perimeterOutlines,2
;   printPerimetersInsideOut,1
;   startPointOption,2
;   startPointOriginX,0
;   startPointOriginY,0
;   startPointOriginZ,300
;   sequentialIslands,0
;   spiralVaseMode,0
;   firstLayerHeightRatio,0.9
;   firstLayerUnderspeed,0.5
;   useRaft,1
;   raftLayers,3
;   raftOffset,3
;   raftSeparationDistance,0.14
;   raftInfill,85
;   disableRaftBaseLayers,0
;   useSkirt,1
;   skirtLayers,2
;   skirtOutlines,2
;   skirtOffset,4
;   infillExtruder,1
;   externalInfillPattern,Rectilinear
;   infillPercentage,20
;   outlineOverlapPercentage,23
;   minInfillLength,2.5
;   infillLayerInterval,1
;   randomInfillStartPoint,1
;   infillAngles,45,-45
;   generateSupport,1
;   supportExtruder,1
;   supportInfill,40
;   supportExtraInflation,0
;   supportLayerInterval,1
;   supportHorizontalPartOffset,0.3
;   supportUpperSeparationLayers,1
;   supportLowerSeparationLayers,1
;   supportGridSpacing,4
;   maxOverhangAngle,45
;   supportAngles,0
;   temperatureName,Right Extruder,Left Extruder,Heated Build Platform
;   temperatureNumber,0,1,0
;   temperatureSetpointCount,1,1,1
;   temperatureSetpointLayers,1,1,1
;   temperatureSetpointTemperatures,0,232,130
;   temperatureStabilizeAtStartup,1,1,1
;   temperatureHeatedBed,0,0,1
;   temperatureRelayBetweenLayers,1,1,1
;   temperatureRelayBetweenLoops,0,0,0
;   fanLayers,1
;   fanSpeeds,0
;   blipFanToFullPower,0
;   adjustSpeedForCooling,1
;   minSpeedLayerTime,15
;   minCoolingSpeedSlowdown,20
;   increaseFanForCooling,0
;   minFanLayerTime,45
;   maxCoolingFanSpeed,100
;   increaseFanForBridging,0
;   bridgingFanSpeed,100
;   use5D,1
;   relativeEdistances,1
;   allowEaxisZeroing,0
;   includeM10123,0
;   stickySupport,1
;   detectArcs,0
;   arcReplaceG2G3,0
;   arcRadialCompensation,1
;   gcodeXoffset,0
;   gcodeYoffset,0
;   gcodeZoffset,0
;   overrideMachineDefinition,1
;   machineTypeOverride,0
;   strokeXoverride,250
;   strokeYoverride,150
;   strokeZoverride,150
;   originOffsetXoverride,125
;   originOffsetYoverride,75
;   originOffsetZoverride,0
;   homeXdirOverride,1
;   homeYdirOverride,1
;   homeZdirOverride,-1
;   flipXoverride,1
;   flipYoverride,-1
;   flipZoverride,1
;   startingGcode,; **** Replicator 2X start.gcode ****,M73 P0 ; enable build progress,G162 X Y F3000 ; home XY maximum,G161 Z F1200 ; home Z minimum,G92 Z-5 ; set Z to -5,G1 Z0 ; move Z to 0,G161 Z F100 ; home Z slowly,M132 X Y Z A B ; recall home offsets,M135 T0 ; load right extruder offsets,G1 X-130 Y-75 Z30 F9000 ; move to wait position off table,G130 X20 Y20 Z20 A20 B20 ; lower stepper Vrefs while heating,M126 S[fan_speed_pwm],M140 S[bed0_temperature] T0,M134 T0 ; stabilize bed temperature,M104 S[extruder1_temperature] T1,M133 T1 ; stabilize extruder temperature,G130 X127 Y127 Z40 A127 B127 ; default stepper Vrefs,G92 A0 B0 ; zero extruders,M135 T1 ; load left extruder offsets,G1 Z0.4 ; position nozzle,G1 E25 F300 ; purge nozzle,G1 X-125 Y-70 Z0.15 F1200 ; slow wipe,G1 X-120 Y-65 Z0.5 F1200 ; lift,G92 A0 B0 ; zero extruders,M73 P1 ;@body (notify GPX body has started),; **** end of start.gcode ****
;   layerChangeGcode,
;   toolChangeGcode,
;   endingGcode,; **** Replicator 2X end.gcode ****,M73 P100 ; end build progress,G0 Z155 F1000 ; send Z axis to bottom of machine,M140 S0 T0 ; cool down HBP,M104 S0 T0 ; cool down right extruder,M104 S0 T1 ; cool down left extruder,M127 ; stop blower fan,G162 X Y F3000 ; home XY maximum,M18 ; disable stepper,M72 P1 ; play Ta-Da song,; **** end of end.gcode ****
;   createX3G,1
;   celebration,0
;   celebrationSong,Entertainer
;   postProcessing,
;   defaultSpeed,4800
;   outlineUnderspeed,0.5
;   supportUnderspeed,0.8
;   rapidXYspeed,9000
;   rapidZspeed,1200
;   minBridgingArea,50
;   bridgingExtrusionMultiplier,1
;   bridgingSpeedMultiplier,0.8
;   filamentDiameter,1.71
;   filamentPricePerKg,46
;   useMinPrintHeight,0
;   minPrintHeight,0
;   useMaxPrintHeight,0
;   maxPrintHeight,0
;   overlapRemoval,0
;   overlapRemovalPercentage,0.3
;   useDiaphragm,0
;   diaphragmLayerInterval,20
;   robustSlicing,1
;   mergeAllIntoSolid,0
;   onlyRetractWhenCrossingOutline,1
;   retractBetweenLayers,1
;   useRetractionMinTravel,0
;   retractionMinTravel,3
;   useRetractionOozeRate,0
;   retractionOozeRate,100
;   onlyWipeOutlines,1
G90 ; use absolute coordinates
M83 ; relative extrusion distances
G21 ; set units to millimeters
; **** Replicator 2X start.gcode ****
M73 P0 ; enable build progress
G162 X Y F3000 ; home XY maximum
G161 Z F1200 ; home Z minimum
G92 Z-5 ; set Z to -5
G1 Z0 ; move Z to 0
G161 Z F100 ; home Z slowly
M132 X Y Z A B ; recall home offsets
M135 T0 ; load right extruder offsets
G1 X-130 Y-75 Z30 F9000 ; move to wait position off table
G130 X20 Y20 Z20 A20 B20 ; lower stepper Vrefs while heating
M127
M140 S130 T0
M134 T0 ; stabilize bed temperature
M104 S232 T1
M133 T1 ; stabilize extruder temperature
G130 X127 Y127 Z40 A127 B127 ; default stepper Vrefs
G92 A0 B0 ; zero extruders
M135 T1 ; load left extruder offsets
G1 Z0.4 ; position nozzle
G1 E25 F300 ; purge nozzle
G1 X-125 Y-70 Z0.15 F1200 ; slow wipe
G1 X-120 Y-65 Z0.5 F1200 ; lift
G92 A0 B0 ; zero extruders
M73 P1 ;@body (notify GPX body has started)
; **** end of start.gcode ****
G1 E-1.2 F1200
; layer 1, Z = 0.45
M105
M105
M105
M135 T1
; tool H0.5 W0.4
G0 X19.57 Y4.736 F9000
G0 Z0.45 F1200
G1 E1.2 F360
G1 X19.719 Y5.009 E0.0271 F2400
G1 X20.399 Y6.837 E0.1698
G1 X20.81 Y8.731 E0.1687
G1 X20.925 Y10.323 E0.1391
G1 X20.925 Y16.014 E0.4956
G1 X20.81 Y17.607 E0.1391
G1 X20.399 Y19.5 E0.1687
G1 X20.241 Y19.927 E0.0397
G1 X20.832 Y21.516 E0.1476
G1 X21.242 Y23.409 E0.1687
G1 X21.357 Y25.002 E0.1391
G1 X21.357 Y30.692 E0.4956
G1 X21.242 Y32.285 E0.1391
G1 X20.832 Y34.178 E0.1687
G1 X20.172 Y35.953 E0.1649
G1 X20.656 Y37.256 E0.1211
G1 X21.067 Y39.149 E0.1687
G1 X21.182 Y40.742 E0.1391
G1 X21.182 Y46.433 E0.4956
G1 X21.067 Y48.025 E0.1391
G1 X20.656 Y49.919 E0.1687
G1 X19.976 Y51.747 E0.1698
G1 X19.043 Y53.454 E0.1695
G1 X17.881 Y55.007 E0.1689
G1 X16.507 Y56.381 E0.1692
G1 X14.95 Y57.549 E0.1696
G1 X13.24 Y58.481 E0.1696
G1 X11.418 Y59.161 E0.1693
G1 X9.52 Y59.573 E0.1691
G1 X7.927 Y59.687 E0.1391
G1 X-13.512 Y59.687 E1.8671
G1 X-15.108 Y59.573 E0.1393
G1 X-17.008 Y59.16 E0.1694
G1 X-18.827 Y58.48 E0.1691
G1 X-20.53 Y57.552 E0.1689
G1 X-22.09 Y56.385 E0.1697
G1 X-23.467 Y55.007 E0.1696
G1 X-24.628 Y53.454 E0.1689
G1 X-25.562 Y51.747 E0.1695
G1 X-26.239 Y49.926 E0.1692
G1 X-26.655 Y48.025 E0.1695
G1 X-26.767 Y46.424 E0.1398
G1 X-26.767 Y40.75 E0.4941
G1 X-26.655 Y39.149 E0.1398
G1 X-26.239 Y37.248 E0.1694
G1 X-25.582 Y35.482 E0.1642
G1 X-26.064 Y34.186 E0.1204
G1 X-26.48 Y32.285 E0.1695
G1 X-26.592 Y30.684 E0.1398
G1 X-26.592 Y25.01 E0.4941
G1 X-26.48 Y23.409 E0.1398
G1 X-26.064 Y21.508 E0.1695
G1 X-25.908 Y21.089 E0.0389
G1 X-26.496 Y19.508 E0.1469
G1 X-26.912 Y17.607 E0.1695
G1 X-27.024 Y16.006 E0.1398
G1 X-27.024 Y10.332 E0.4941
G1 X-26.912 Y8.731 E0.1398
G1 X-26.496 Y6.83 E0.1695
G1 X-26.359 Y6.46 E0.0344
G1 X-26.508 Y6.187 E0.0271
G1 X-27.185 Y4.366 E0.1691
G1 X-27.601 Y2.465 E0.1695
G1 X-27.713 Y0.864 E0.1398
G1 X-27.713 Y-4.81 E0.4941
G1 X-27.601 Y-6.411 E0.1398
G1 X-27.185 Y-8.312 E0.1695
G1 X-26.508 Y-10.132 E0.1691
G1 X-26.07 Y-10.934 E0.0795
G1 X-26.321 Y-11.609 E0.0627
G1 X-26.736 Y-13.509 E0.1694
G1 X-26.849 Y-15.11 E0.1398
G1 X-26.849 Y-20.785 E0.4941
G1 X-26.736 Y-22.386 E0.1398
G1 X-26.321 Y-24.287 E0.1694
G1 X-26.063 Y-24.98 E0.0644
G1 X-26.508 Y-25.794 E0.0808
G1 X-27.185 Y-27.614 E0.1692
G1 X-27.601 Y-29.515 E0.1695
G1 X-27.713 Y-31.116 E0.1398
G1 X-27.713 Y-36.79 E0.4941
G1 X-27.601 Y-38.391 E0.1398
G1 X-27.185 Y-40.292 E0.1695
G1 X-26.508 Y-42.113 E0.1692
G1 X-25.574 Y-43.82 E0.1695
G1 X-24.413 Y-45.373 E0.1689
G1 X-23.035 Y-46.75 E0.1696
G1 X-21.476 Y-47.918 E0.1697
G1 X-19.772 Y-48.846 E0.1689
G1 X-17.954 Y-49.526 E0.1691
G1 X-16.053 Y-49.938 E0.1694
G1 X-14.458 Y-50.053 E0.1393
G1 X6.981 Y-50.053 E1.867
G1 X8.574 Y-49.938 E0.1391
G1 X10.472 Y-49.527 E0.1691
G1 X12.294 Y-48.847 E0.1693
G1 X14.004 Y-47.915 E0.1696
G1 X15.562 Y-46.747 E0.1696
G1 X16.935 Y-45.373 E0.1692
G1 X18.097 Y-43.82 E0.1689
G1 X19.031 Y-42.113 E0.1695
G1 X19.71 Y-40.285 E0.1698
G1 X20.121 Y-38.391 E0.1687
G1 X20.236 Y-36.798 E0.1391
G1 X20.236 Y-31.108 E0.4956
G1 X20.121 Y-29.515 E0.1391
G1 X19.71 Y-27.622 E0.1687
G1 X19.45 Y-26.921 E0.0651
G1 X19.895 Y-26.107 E0.0808
G1 X20.575 Y-24.279 E0.1698
G1 X20.985 Y-22.386 E0.1687
G1 X21.1 Y-20.793 E0.1391
G1 X21.1 Y-15.102 E0.4956
G1 X20.985 Y-13.51 E0.1391
G1 X20.575 Y-11.616 E0.1687
G1 X19.895 Y-9.788 E0.1698
G1 X19.457 Y-8.987 E0.0796
G1 X19.71 Y-8.304 E0.0634
G1 X20.121 Y-6.411 E0.1687
G1 X20.236 Y-4.818 E0.1391
G1 X20.236 Y0.873 E0.4956
G1 X20.121 Y2.465 E0.1391
G1 X19.71 Y4.359 E0.1687
G1 X19.57 Y4.736 E0.0351
G0 X19.131 Y4.768 F9000
G1 X19.355 Y5.176 E0.0405 F2400
G1 X20.014 Y6.95 E0.1648
G1 X20.413 Y8.788 E0.1638
G1 X20.525 Y10.338 E0.1353
G1 X20.525 Y16 E0.4931
G1 X20.413 Y17.549 E0.1353
G1 X20.014 Y19.387 E0.1638
G1 X19.814 Y19.927 E0.0501
G1 X20.447 Y21.628 E0.1581
G1 X20.845 Y23.466 E0.1638
G1 X20.957 Y25.016 E0.1353
G1 X20.957 Y30.678 E0.4931
G1 X20.845 Y32.228 E0.1353
G1 X20.447 Y34.066 E0.1638
G1 X19.787 Y35.84 E0.1648
G1 X19.737 Y35.931 E0.0091
G1 X20.271 Y37.369 E0.1336
G1 X20.67 Y39.206 E0.1638
G1 X20.782 Y40.756 E0.1353
G1 X20.782 Y46.418 E0.4931
G1 X20.67 Y47.968 E0.1353
G1 X20.271 Y49.806 E0.1638
G1 X19.612 Y51.58 E0.1648
G1 X18.705 Y53.237 E0.1645
G1 X17.578 Y54.745 E0.1639
G1 X16.245 Y56.078 E0.1642
G1 X14.733 Y57.212 E0.1646
G1 X13.073 Y58.116 E0.1646
G1 X11.305 Y58.776 E0.1644
G1 X9.463 Y59.176 E0.1642
G1 X7.913 Y59.287 E0.1353
G1 X-13.498 Y59.287 E1.8646
G1 X-15.051 Y59.176 E0.1356
G1 X-16.895 Y58.775 E0.1644
G1 X-18.66 Y58.115 E0.1641
G1 X-20.313 Y57.214 E0.1639
G1 X-21.827 Y56.082 E0.1647
G1 X-23.164 Y54.745 E0.1646
G1 X-24.291 Y53.237 E0.1639
G1 X-25.197 Y51.58 E0.1645
G1 X-25.854 Y49.813 E0.1642
G1 X-26.258 Y47.968 E0.1645
G1 X-26.367 Y46.41 E0.136
G1 X-26.367 Y40.764 E0.4917
G1 X-26.258 Y39.206 E0.136
G1 X-25.854 Y37.361 E0.1645
G1 X-25.197 Y35.594 E0.1642
G1 X-25.147 Y35.503 E0.0091
G1 X-25.679 Y34.073 E0.1329
G1 X-26.083 Y32.228 E0.1645
G1 X-26.192 Y30.67 E0.136
G1 X-26.192 Y25.024 E0.4917
G1 X-26.083 Y23.466 E0.136
G1 X-25.679 Y21.621 E0.1645
G1 X-25.481 Y21.089 E0.0494
G1 X-26.111 Y19.395 E0.1574
G1 X-26.515 Y17.55 E0.1645
G1 X-26.624 Y15.992 E0.136
G1 X-26.624 Y10.346 E0.4917
G1 X-26.515 Y8.788 E0.136
G1 X-26.111 Y6.943 E0.1645
G1 X-25.92 Y6.428 E0.0478
G1 X-26.143 Y6.02 E0.0405
G1 X-26.8 Y4.253 E0.1642
G1 X-27.204 Y2.408 E0.1645
G1 X-27.313 Y0.85 E0.136
G1 X-27.313 Y-4.796 E0.4917
G1 X-27.204 Y-6.354 E0.136
G1 X-26.8 Y-8.199 E0.1645
G1 X-26.143 Y-9.966 E0.1642
G1 X-25.631 Y-10.902 E0.0929
G1 X-25.936 Y-11.722 E0.0762
G1 X-26.339 Y-13.566 E0.1645
G1 X-26.449 Y-15.125 E0.136
G1 X-26.449 Y-20.771 E0.4917
G1 X-26.339 Y-22.329 E0.136
G1 X-25.936 Y-24.174 E0.1645
G1 X-25.624 Y-25.012 E0.0779
G1 X-26.143 Y-25.96 E0.0941
G1 X-26.8 Y-27.727 E0.1642
G1 X-27.204 Y-29.572 E0.1645
G1 X-27.313 Y-31.13 E0.136
G1 X-27.313 Y-36.776 E0.4917
G1 X-27.204 Y-38.334 E0.136
G1 X-26.8 Y-40.179 E0.1645
G1 X-26.143 Y-41.946 E0.1642
G1 X-25.237 Y-43.603 E0.1645
G1 X-24.11 Y-45.111 E0.1639
G1 X-22.773 Y-46.447 E0.1646
G1 X-21.259 Y-47.58 E0.1647
G1 X-19.606 Y-48.481 E0.1639
G1 X-17.841 Y-49.141 E0.1641
G1 X-15.996 Y-49.542 E0.1644
G1 X-14.444 Y-49.653 E0.1356
G1 X6.967 Y-49.653 E1.8645
G1 X8.517 Y-49.542 E0.1353
G1 X10.359 Y-49.142 E0.1642
G1 X12.127 Y-48.482 E0.1643
G1 X13.787 Y-47.578 E0.1646
G1 X15.299 Y-46.444 E0.1646
G1 X16.632 Y-45.111 E0.1642
G1 X17.759 Y-43.603 E0.1639
G1 X18.666 Y-41.946 E0.1645
G1 X19.326 Y-40.172 E0.1648
G1 X19.724 Y-38.334 E0.1638
G1 X19.836 Y-36.784 E0.1353
G1 X19.836 Y-31.122 E0.4931
G1 X19.724 Y-29.572 E0.1353
G1 X19.326 Y-27.734 E0.1638
G1 X19.011 Y-26.889 E0.0785
G1 X19.53 Y-25.94 E0.0942
G1 X20.19 Y-24.166 E0.1648
G1 X20.588 Y-22.328 E0.1638
G1 X20.7 Y-20.779 E0.1353
G1 X20.7 Y-15.117 E0.4931
G1 X20.588 Y-13.567 E0.1353
G1 X20.19 Y-11.729 E0.1638
G1 X19.53 Y-9.955 E0.1648
G1 X19.018 Y-9.018 E0.0929
G1 X19.326 Y-8.191 E0.0768
G1 X19.724 Y-6.354 E0.1638
G1 X19.836 Y-4.804 E0.1353
G1 X19.836 Y0.858 E0.4931
G1 X19.724 Y2.408 E0.1353
G1 X19.326 Y4.246 E0.1638
G1 X19.131 Y4.768 E0.0485
; tool H0.5 W0.8
G0 X15.159 Y7.091 F9000
G1 X15.589 Y8.246 E0.2145 F600
G1 X15.848 Y9.444 E0.2135
G1 X15.925 Y10.503 E0.185
G1 X15.925 Y15.834 E0.9285
G1 X15.848 Y16.894 E0.185
G1 X15.589 Y18.091 E0.2135
G1 X15.159 Y19.246 E0.2145
G1 X14.636 Y20.202 E0.1898
G1 X15.001 Y20.69 E0.1062
G1 X15.591 Y21.77 E0.2142
G1 X16.021 Y22.924 E0.2145
G1 X16.28 Y24.122 E0.2135
G1 X16.357 Y25.181 E0.185
G1 X16.357 Y30.512 E0.9285
G1 X16.28 Y31.572 E0.185
G1 X16.021 Y32.77 E0.2135
G1 X15.591 Y33.924 E0.2145
G1 X15.001 Y35.003 E0.2142
G1 X14.38 Y35.834 E0.1807
G1 X14.826 Y36.431 E0.1298
G1 X15.416 Y37.51 E0.2142
G1 X15.846 Y38.665 E0.2146
G1 X16.105 Y39.862 E0.2135
G1 X16.182 Y40.922 E0.185
G1 X16.182 Y46.253 E0.9285
G1 X16.105 Y47.312 E0.185
G1 X15.846 Y48.51 E0.2135
G1 X15.416 Y49.665 E0.2145
G1 X14.826 Y50.744 E0.2142
G1 X14.092 Y51.726 E0.2135
G1 X13.223 Y52.594 E0.2139
G1 X12.239 Y53.332 E0.2142
G1 X11.159 Y53.921 E0.2143
G1 X10.007 Y54.351 E0.2142
G1 X8.807 Y54.611 E0.2139
G1 X7.747 Y54.687 E0.185
G1 X-13.333 Y54.687 E3.6715
G1 X-14.394 Y54.611 E0.1853
G1 X-15.595 Y54.35 E0.214
G1 X-16.745 Y53.92 E0.2138
G1 X-17.822 Y53.333 E0.2136
G1 X-18.807 Y52.596 E0.2143
G1 X-19.678 Y51.726 E0.2144
G1 X-20.412 Y50.744 E0.2135
G1 X-21.002 Y49.665 E0.2142
G1 X-21.43 Y48.514 E0.2139
G1 X-21.693 Y47.312 E0.2142
G1 X-21.767 Y46.249 E0.1857
G1 X-21.767 Y40.926 E0.9271
G1 X-21.693 Y39.862 E0.1857
G1 X-21.43 Y38.661 E0.2142
G1 X-21.002 Y37.51 E0.2139
G1 X-20.412 Y36.431 E0.2142
G1 X-19.79 Y35.6 E0.1807
G1 X-20.236 Y35.003 E0.1297
G1 X-20.827 Y33.924 E0.2142
G1 X-21.255 Y32.773 E0.2139
G1 X-21.517 Y31.572 E0.2142
G1 X-21.592 Y30.508 E0.1857
G1 X-21.592 Y25.185 E0.9271
G1 X-21.517 Y24.122 E0.1857
G1 X-21.255 Y22.92 E0.2142
G1 X-20.827 Y21.769 E0.2139
G1 X-20.304 Y20.813 E0.1898
G1 X-20.669 Y20.325 E0.1062
G1 X-21.259 Y19.246 E0.2142
G1 X-21.687 Y18.095 E0.2139
G1 X-21.95 Y16.894 E0.2142
G1 X-22.024 Y15.83 E0.1857
G1 X-22.024 Y10.507 E0.9271
G1 X-21.95 Y9.444 E0.1857
G1 X-21.687 Y8.242 E0.2142
G1 X-21.259 Y7.091 E0.2139
G1 X-20.698 Y6.066 E0.2036
G1 X-21.357 Y5.184 E0.1918
G1 X-21.948 Y4.105 E0.2142
G1 X-22.376 Y2.954 E0.2139
G1 X-22.638 Y1.752 E0.2142
G1 X-22.713 Y0.689 E0.1857
G1 X-22.713 Y-4.634 E0.9271
G1 X-22.638 Y-5.698 E0.1857
G1 X-22.376 Y-6.899 E0.2142
G1 X-21.948 Y-8.05 E0.2139
G1 X-21.357 Y-9.129 E0.2142
G1 X-20.623 Y-10.111 E0.2135
G1 X-20.258 Y-10.476 E0.09
G1 X-20.493 Y-10.791 E0.0684
G1 X-21.083 Y-11.87 E0.2142
G1 X-21.511 Y-13.021 E0.2139
G1 X-21.774 Y-14.223 E0.2142
G1 X-21.849 Y-15.286 E0.1857
G1 X-21.849 Y-20.609 E0.9271
G1 X-21.774 Y-21.673 E0.1857
G1 X-21.511 Y-22.874 E0.2142
G1 X-21.083 Y-24.025 E0.2138
G1 X-20.493 Y-25.104 E0.2142
G1 X-20.245 Y-25.436 E0.0723
G1 X-20.623 Y-25.815 E0.0933
G1 X-21.357 Y-26.797 E0.2135
G1 X-21.948 Y-27.876 E0.2142
G1 X-22.376 Y-29.027 E0.2139
G1 X-22.638 Y-30.228 E0.2142
G1 X-22.713 Y-31.292 E0.1857
G1 X-22.713 Y-36.615 E0.9271
