; G-Code generated by Simplify3D(TM) Version 2.1.2
; Dec 2, 2014 at 9:34:02 PM
; Settings Summary
;   processName,Process1
;   applyToModels,xcarrage
;   printMaterial,ABS
;   printQuality,High
;   extruderName,Right Extruder,Left Extruder
;   extruderToolheadNumber,0,1
;   extruderDiameter,0.4,0.4
;   extruderAutoWidth,0,0
;   extruderWidth,0.4,0.4
;   extrusionMultiplier,1,1
;   extruderUseRetract,1,1
;   extruderRetractionDistance,1,1.2
;   extruderExtraRestartDistance,0,0
;   extruderRetractionZLift,0,0
;   extruderRetractionSpeed,1200,1200
;   extruderUseCoasting,0,0
;   extruderCoastingDistance,0.2,0.2
;   extruderUseWipe,0,1
;   extruderWipeDistance,5,7
;   primaryExtruder,1
;   layerHeight,0.25
;   topSolidLayers,3
;   bottomSolidLayers,3
;   perimeterOutlines,2
;   printPerimetersInsideOut,1
;   startPointOption,2
;   startPointOriginX,0
;   startPointOriginY,0
;   startPointOriginZ,300
;   sequentialIslands,0
;   spiralVaseMode,0
;   firstLayerHeightRatio,0.9
;   firstLayerUnderspeed,0.5
;   useRaft,1
;   raftLayers,3
;   raftOffset,3
;   raftSeparationDistance,0.14
;   raftInfill,85
;   disableRaftBaseLayers,0
;   useSkirt,1
;   skirtLayers,2
;   skirtOutlines,2
;   skirtOffset,4
;   infillExtruder,1
;   externalInfillPattern,Rectilinear
;   infillPercentage,20
;   outlineOverlapPercentage,23
;   minInfillLength,2.5
;   infillLayerInterval,1
;   randomInfillStartPoint,1
;   infillAngles,45,-45
;   generateSupport,1
;   supportExtruder,1
;   supportInfill,40
;   supportExtraInflation,0
;   supportLayerInterval,1
;   supportHorizontalPartOffset,0.3
;   supportUpperSeparationLayers,1
;   supportLowerSeparationLayers,1
;   supportGridSpacing,4
;   maxOverhangAngle,45
;   supportAngles,0
;   temperatureName,Right Extruder,Left Extruder,Heated Build Platform
;   temperatureNumber,0,1,0
;   temperatureSetpointCount,1,1,1
;   temperatureSetpointLayers,1,1,1
;   temperatureSetpointTemperatures,0,232,130
;   temperatureStabilizeAtStartup,1,1,1
;   temperatureHeatedBed,0,0,1
;   temperatureRelayBetweenLayers,1,1,1
;   temperatureRelayBetweenLoops,0,0,0
;   fanLayers,1
;   fanSpeeds,0
;   blipFanToFullPower,0
;   adjustSpeedForCooling,1
;   minSpeedLayerTime,15
;   minCoolingSpeedSlowdown,20
;   increaseFanForCooling,0
;   minFanLayerTime,45
;   maxCoolingFanSpeed,100
;   increaseFanForBridging,0
;   bridgingFanSpeed,100
;   use5D,1
;   relativeEdistances,1
;   allowEaxisZeroing,0
;   includeM10123,0
;   stickySupport,1
;   detectArcs,0
;   arcReplaceG2G3,0
;   arcRadialCompensation,1
;   gcodeXoffset,0
;   gcodeYoffset,0
;   gcodeZoffset,0
;   overrideMachineDefinition,1
;   machineTypeOverride,0
;   strokeXoverride,250
;   strokeYoverride,150
;   strokeZoverride,150
;   originOffsetXoverride,125
;   originOffsetYoverride,75
;   originOffsetZoverride,0
;   homeXdirOverride,1
;   homeYdirOverride,1
;   homeZdirOverride,-1
;   flipXoverride,1
;   flipYoverride,-1
;   flipZoverride,1
;   startingGcode,; **** Replicator 2X start.gcode ****,M73 P0 ; enable build progress,G162 X Y F3000 ; home XY maximum,G161 Z F1200 ; home Z minimum,G92 Z-5 ; set Z to -5,G1 Z0 ; move Z to 0,G161 Z F100 ; home Z slowly,M132 X Y Z A B ; recall home offsets,M135 T0 ; load right extruder offsets,G1 X-130 Y-75 Z30 F9000 ; move to wait position off table,G130 X20 Y20 Z20 A20 B20 ; lower stepper Vrefs while heating,M126 S[fan_speed_pwm],M140 S[bed0_temperature] T0,M134 T0 ; stabilize bed temperature,M104 S[extruder1_temperature] T1,M133 T1 ; stabilize extruder temperature,G130 X127 Y127 Z40 A127 B127 ; default stepper Vrefs,G92 A0 B0 ; zero extruders,M135 T1 ; load left extruder offsets,G1 Z0.4 ; position nozzle,G1 E25 F300 ; purge nozzle,G1 X-125 Y-70 Z0.15 F1200 ; slow wipe,G1 X-120 Y-65 Z0.5 F1200 ; lift,G92 A0 B0 ; zero extruders,M73 P1 ;@body (notify GPX body has started),; **** end of start.gcode ****
;   layerChangeGcode,
;   toolChangeGcode,
;   endingGcode,; **** Replicator 2X end.gcode ****,M73 P100 ; end build progress,G0 Z155 F1000 ; send Z axis to bottom of machine,M140 S0 T0 ; cool down HBP,M104 S0 T0 ; cool down right extruder,M104 S0 T1 ; cool down left extruder,M127 ; stop blower fan,G162 X Y F3000 ; home XY maximum,M18 ; disable stepper,M72 P1 ; play Ta-Da song,; **** end of end.gcode ****
;   createX3G,1
;   celebration,0
;   celebrationSong,Entertainer
;   postProcessing,
;   defaultSpeed,4800
;   outlineUnderspeed,0.5
;   supportUnderspeed,0.8
;   rapidXYspeed,9000
;   rapidZspeed,1200
;   minBridgingArea,50
;   bridgingExtrusionMultiplier,1
;   bridgingSpeedMultiplier,0.8
;   filamentDiameter,1.71
;   filamentPricePerKg,46
;   useMinPrintHeight,0
;   minPrintHeight,0
;   useMaxPrintHeight,0
;   maxPrintHeight,0
;   overlapRemoval,0
;   overlapRemovalPercentage,0.3
;   useDiaphragm,0
;   diaphragmLayerInterval,20
;   robustSlicing,1
;   mergeAllIntoSolid,0
;   onlyRetractWhenCrossingOutline,1
;   retractBetweenLayers,1
;   useRetractionMinTravel,0
;   retractionMinTravel,3
;   useRetractionOozeRate,0
;   retractionOozeRate,100
;   onlyWipeOutlines,1
G90 ; use absolute coordinates
M83 ; relative extrusion distances
G21 ; set units to millimeters
; **** Replicator 2X start.gcode ****
M73 P0 ; enable build progress
G162 X Y F3000 ; home XY maximum
G161 Z F1200 ; home Z minimum
G92 Z-5 ; set Z to -5
G1 Z0 ; move Z to 0
G161 Z F100 ; home Z slowly
M132 X Y Z A B ; recall home offsets
M135 T0 ; load right extruder offsets
G1 X-130 Y-75 Z30 F9000 ; move to wait position off table
G130 X20 Y20 Z20 A20 B20 ; lower stepper Vrefs while heating
M127
M140 S130 T0
M134 T0 ; stabilize bed temperature
M104 S232 T1
M133 T1 ; stabilize extruder temperature
G130 X127 Y127 Z40 A127 B127 ; default stepper Vrefs
G92 A0 B0 ; zero extruders
M135 T1 ; load left extruder offsets
G1 Z0.4 ; position nozzle
G1 E25 F300 ; purge nozzle
G1 X-125 Y-70 Z0.15 F1200 ; slow wipe
G1 X-120 Y-65 Z0.5 F1200 ; lift
G92 A0 B0 ; zero extruders
M73 P1 ;@body (notify GPX body has started)
; **** end of start.gcode ****
G1 E-1.2 F1200
; layer 1, Z = 0.45
M105
M105
M105
M135 T1
; tool H0.5 W0.4
G0 X26.62 Y-9.342 F9000
G0 Z0.45 F1200
G1 E1.2 F360
G1 X35.793 Y-0.17 E1.1296 F2400
G1 X36.747 Y0.932 E0.1269
G1 X37.721 Y2.447 E0.1568
G1 X38.469 Y4.085 E0.1568
G1 X38.977 Y5.814 E0.1569
G1 X39.233 Y7.597 E0.1569
G1 X39.233 Y9.398 E0.1568
G1 X38.976 Y11.181 E0.1569
G1 X38.469 Y12.909 E0.1568
G1 X37.721 Y14.547 E0.1568
G1 X36.747 Y16.063 E0.1569
G1 X35.792 Y17.165 E0.127
G1 X23.287 Y29.67 E1.5402
G1 X22.185 Y30.625 E0.127
G1 X20.67 Y31.599 E0.1569
G1 X19.032 Y32.347 E0.1568
G1 X17.317 Y32.85 E0.1556
G1 X15.529 Y33.111 E0.1574
G1 X13.719 Y33.111 E0.1576
G1 X11.936 Y32.854 E0.1569
G1 X10.208 Y32.347 E0.1569
G1 X8.57 Y31.599 E0.1568
G1 X7.054 Y30.625 E0.1569
G1 X5.953 Y29.67 E0.1269
G1 X5.28 Y28.998 E0.0828
G1 X5.28 Y29.554 E0.0484
G1 X5.758 Y30.707 E0.1086
G1 X6.206 Y32.13 E0.13
G1 X6.529 Y33.586 E0.1299
G1 X6.724 Y35.067 E0.1301
G1 X6.789 Y36.558 E0.13
G1 X6.724 Y38.049 E0.13
G1 X6.529 Y39.53 E0.1301
G1 X6.206 Y40.986 E0.1299
G1 X5.758 Y42.41 E0.1299
G1 X5.186 Y43.789 E0.13
G1 X4.497 Y45.113 E0.13
G1 X3.695 Y46.372 E0.13
G1 X2.787 Y47.555 E0.1299
G1 X1.778 Y48.656 E0.13
G1 X0.678 Y49.665 E0.13
G1 X-0.506 Y50.573 E0.1299
G1 X-1.765 Y51.375 E0.13
G1 X-3.089 Y52.064 E0.13
G1 X-4.468 Y52.636 E0.13
G1 X-5.891 Y53.084 E0.1299
G1 X-7.348 Y53.407 E0.1299
G1 X-8.829 Y53.602 E0.1301
G1 X-10.32 Y53.667 E0.1299
G1 X-11.81 Y53.602 E0.13
G1 X-13.291 Y53.407 E0.1301
G1 X-14.748 Y53.084 E0.1299
G1 X-16.171 Y52.636 E0.1299
G1 X-17.55 Y52.064 E0.13
G1 X-18.874 Y51.375 E0.13
G1 X-20.133 Y50.573 E0.13
G1 X-21.317 Y49.665 E0.1299
G1 X-22.418 Y48.656 E0.13
G1 X-23.426 Y47.555 E0.13
G1 X-24.334 Y46.372 E0.1299
G1 X-25.137 Y45.113 E0.13
G1 X-25.826 Y43.789 E0.13
G1 X-26.397 Y42.41 E0.13
G1 X-26.846 Y40.986 E0.1299
G1 X-27.169 Y39.53 E0.1299
G1 X-27.364 Y38.049 E0.1301
G1 X-27.429 Y36.558 E0.13
G1 X-27.404 Y35.986 E0.0498
G1 X-44.42 Y35.986 E1.4818
G1 X-44.42 Y-23.042 E5.1405
G1 X-16.92 Y-23.042 E2.3949
G1 X-16.92 Y-27.661 E0.4023
G1 X2.197 Y-46.778 E2.3544
G1 X2.717 Y-47.298 E0.064
G1 X4.839 Y-48.926 E0.2329
G1 X7.898 Y-50.193 E0.2884
G1 X10.551 Y-50.542 E0.2331
G1 X42.108 Y-50.542 E2.7482
G1 X42.108 Y-9.342 E3.5879
G1 X26.62 Y-9.342 E1.3488
G0 X25.655 Y-9.742 F9000
G1 X35.5 Y0.103 E1.2125 F2400
G1 X36.426 Y1.172 E0.1232
G1 X37.369 Y2.639 E0.1519
G1 X38.093 Y4.226 E0.1519
G1 X38.585 Y5.899 E0.1519
G1 X38.833 Y7.626 E0.1519
G1 X38.833 Y9.369 E0.1519
G1 X38.585 Y11.096 E0.1519
G1 X38.093 Y12.769 E0.1519
G1 X37.369 Y14.355 E0.1519
G1 X36.426 Y15.822 E0.1519
G1 X35.5 Y16.892 E0.1232
G1 X23.014 Y29.377 E1.5377
G1 X21.945 Y30.304 E0.1232
G1 X20.477 Y31.247 E0.1519
G1 X18.891 Y31.971 E0.1518
G1 X17.232 Y32.458 E0.1506
G1 X15.5 Y32.711 E0.1524
G1 X13.748 Y32.711 E0.1526
G1 X12.021 Y32.462 E0.1519
G1 X10.348 Y31.971 E0.1519
G1 X8.762 Y31.247 E0.1519
G1 X7.294 Y30.304 E0.1519
G1 X6.225 Y29.377 E0.1232
G1 X4.88 Y28.032 E0.1656
G1 X4.88 Y29.634 E0.1395
G1 X5.382 Y30.843 E0.114
G1 X5.82 Y32.233 E0.1269
G1 X6.135 Y33.656 E0.1269
G1 X6.326 Y35.102 E0.127
G1 X6.389 Y36.558 E0.1269
G1 X6.326 Y38.014 E0.1269
G1 X6.135 Y39.46 E0.127
G1 X5.82 Y40.883 E0.1269
G1 X5.382 Y42.273 E0.1269
G1 X4.824 Y43.62 E0.127
G1 X4.15 Y44.913 E0.1269
G1 X3.367 Y46.142 E0.127
G1 X2.48 Y47.298 E0.1269
G1 X1.495 Y48.373 E0.127
G1 X0.42 Y49.358 E0.127
G1 X-0.736 Y50.245 E0.1269
G1 X-1.965 Y51.028 E0.127
G1 X-3.258 Y51.701 E0.1269
G1 X-4.605 Y52.259 E0.127
G1 X-5.995 Y52.697 E0.1269
G1 X-7.418 Y53.013 E0.1269
G1 X-8.864 Y53.203 E0.127
G1 X-10.32 Y53.267 E0.1269
G1 X-11.776 Y53.203 E0.1269
G1 X-13.222 Y53.013 E0.127
G1 X-14.644 Y52.697 E0.1269
G1 X-16.034 Y52.259 E0.1269
G1 X-17.381 Y51.701 E0.127
G1 X-18.674 Y51.028 E0.127
G1 X-19.904 Y50.245 E0.127
G1 X-21.06 Y49.358 E0.1269
G1 X-22.135 Y48.373 E0.127
G1 X-23.119 Y47.298 E0.127
G1 X-24.006 Y46.142 E0.1269
G1 X-24.79 Y44.913 E0.127
G1 X-25.463 Y43.62 E0.1269
G1 X-26.021 Y42.273 E0.127
G1 X-26.459 Y40.883 E0.1269
G1 X-26.775 Y39.46 E0.1269
G1 X-26.965 Y38.014 E0.127
G1 X-27.028 Y36.558 E0.1269
G1 X-26.986 Y35.586 E0.0847
G1 X-44.02 Y35.586 E1.4834
G1 X-44.02 Y-22.642 E5.0709
G1 X-16.52 Y-22.642 E2.3949
G1 X-16.52 Y-27.495 E0.4227
G1 X2.48 Y-46.495 E2.3399
G1 X2.981 Y-46.996 E0.0618
G1 X5.04 Y-48.576 E0.226
G1 X8.002 Y-49.803 E0.2792
G1 X10.577 Y-50.142 E0.2262
G1 X41.708 Y-50.142 E2.7111
G1 X41.708 Y-9.742 E3.5183
G1 X25.655 Y-9.742 E1.3981
; tool H0.5 W0.8
G0 X23.328 Y-14.342 F9000
G1 X18.939 Y-9.952 E1.0812 F600
G1 X32.131 Y3.239 E3.2494
G1 X32.734 Y3.936 E0.1605
G1 X33.321 Y4.85 E0.1891
G1 X33.772 Y5.837 E0.1891
G1 X34.078 Y6.879 E0.1892
G1 X34.233 Y7.954 E0.1891
G1 X34.233 Y9.04 E0.1892
G1 X34.078 Y10.115 E0.1891
G1 X33.772 Y11.157 E0.1891
G1 X33.321 Y12.145 E0.1891
G1 X32.734 Y13.059 E0.1892
G1 X32.131 Y13.755 E0.1605
G1 X26.334 Y19.552 E1.4279
G1 X15.82 Y9.038 E2.5898
G1 X15.3 Y9.177 E0.0938
G1 X15.16 Y9.697 E0.0938
G1 X25.674 Y20.211 E2.5898
G1 X19.878 Y26.008 E1.4279
G1 X19.181 Y26.612 E0.1605
G1 X18.267 Y27.199 E0.1892
G1 X17.28 Y27.65 E0.1891
G1 X16.247 Y27.953 E0.1874
G1 X15.167 Y28.111 E0.1901
G1 X14.077 Y28.111 E0.1899
G1 X13.002 Y27.956 E0.1892
G1 X11.96 Y27.65 E0.1891
G1 X10.972 Y27.199 E0.1892
G1 X10.058 Y26.612 E0.1892
G1 X9.362 Y26.008 E0.1605
G1 X0.28 Y16.927 E2.2369
G1 X0.28 Y30.731 E2.4043
G1 X0.651 Y31.443 E0.1397
G1 X1.055 Y32.418 E0.1839
G1 X1.372 Y33.425 E0.1839
G1 X1.601 Y34.456 E0.1839
G1 X1.739 Y35.503 E0.184
G1 X1.785 Y36.558 E0.1839
G1 X1.739 Y37.613 E0.1839
G1 X1.601 Y38.66 E0.184
G1 X1.372 Y39.691 E0.1839
G1 X1.055 Y40.698 E0.1839
G1 X0.651 Y41.674 E0.1839
G1 X0.163 Y42.61 E0.1839
G1 X-0.404 Y43.501 E0.1839
G1 X-1.047 Y44.338 E0.1839
G1 X-1.761 Y45.117 E0.184
G1 X-2.539 Y45.831 E0.1839
G1 X-3.377 Y46.473 E0.1839
G1 X-4.267 Y47.041 E0.184
G1 X-5.204 Y47.528 E0.1839
G1 X-6.18 Y47.933 E0.1839
G1 X-7.187 Y48.25 E0.1839
G1 X-8.217 Y48.479 E0.1839
G1 X-9.265 Y48.616 E0.184
G1 X-10.32 Y48.662 E0.1839
G1 X-11.374 Y48.616 E0.1839
G1 X-12.422 Y48.479 E0.184
G1 X-13.453 Y48.25 E0.1839
G1 X-14.46 Y47.933 E0.1839
G1 X-15.435 Y47.528 E0.1839
G1 X-16.372 Y47.041 E0.184
G1 X-17.263 Y46.473 E0.1839
G1 X-18.1 Y45.831 E0.1839
G1 X-18.879 Y45.117 E0.1839
G1 X-19.592 Y44.338 E0.184
G1 X-20.235 Y43.501 E0.1838
G1 X-20.802 Y42.61 E0.184
G1 X-21.29 Y41.674 E0.1839
G1 X-21.694 Y40.698 E0.1839
G1 X-22.012 Y39.691 E0.1839
G1 X-22.24 Y38.66 E0.1839
G1 X-22.378 Y37.613 E0.184
G1 X-22.424 Y36.558 E0.1839
G1 X-22.378 Y35.503 E0.1839
G1 X-22.24 Y34.456 E0.184
G1 X-22.012 Y33.425 E0.1839
G1 X-21.694 Y32.418 E0.1839
G1 X-21.32 Y31.514 E0.1704
G1 X-21.32 Y31.322 E0.0335
G1 X-21.32 Y31.322 E0
G1 X-21.32 Y9.676 E3.7701
G1 X-21.334 Y9.346 E0.0575
G1 X-21.362 Y9.13 E0.038
G1 X-21.41 Y8.911 E0.039
G1 X-21.474 Y8.706 E0.0374
G1 X-21.554 Y8.514 E0.0363
G1 X-21.659 Y8.31 E0.04
G1 X-21.775 Y8.128 E0.0376
G1 X-21.907 Y7.955 E0.0378
G1 X-22.056 Y7.793 E0.0383
G1 X-22.218 Y7.646 E0.0382
G1 X-22.391 Y7.513 E0.038
G1 X-22.574 Y7.396 E0.0379
G1 X-22.77 Y7.295 E0.0385
G1 X-22.967 Y7.213 E0.0371
G1 X-23.179 Y7.147 E0.0388
G1 X-23.381 Y7.102 E0.036
G1 X-23.6 Y7.073 E0.0385
G1 X-23.824 Y7.063 E0.039
G1 X-24.035 Y7.073 E0.0368
G1 X-24.257 Y7.102 E0.039
G1 X-24.464 Y7.148 E0.0369
G1 X-24.673 Y7.214 E0.0382
G1 X-24.874 Y7.297 E0.038
G1 X-25.07 Y7.399 E0.0385
G1 X-25.158 Y7.455 E0.0181
G1 X-25.248 Y7.512 E0.0185
G1 X-25.423 Y7.647 E0.0386
G1 X-25.584 Y7.794 E0.0379
G1 X-25.731 Y7.954 E0.0379
G1 X-25.863 Y8.127 E0.0379
G1 X-25.982 Y8.314 E0.0385
G1 X-26.031 Y8.408 E0.0186
G1 X-26.079 Y8.5 E0.018
G1 X-26.164 Y8.705 E0.0386
G1 X-26.23 Y8.916 E0.0385
G1 X-26.27 Y9.093 E0.0316
G1 X-26.305 Y9.347 E0.0447
G1 X-26.319 Y9.638 E0.0508
G1 X-26.32 Y30.986 E3.7182
G1 X-39.42 Y30.986 E2.2816
G1 X-39.42 Y-18.042 E8.5393
G1 X-20.424 Y-18.042 E3.3084
G1 X-20.415 Y-8.545 E1.6541
G1 X-11.92 Y-8.543 E1.4796
G1 X-11.92 Y-25.59 E2.9691
G1 X5.732 Y-43.241 E4.3478
G1 X5.732 Y-43.241 E0
G1 X6.02 Y-43.53 E0.071
G1 X7.36 Y-44.558 E0.2942
G1 X9.203 Y-45.321 E0.3474
G1 X10.879 Y-45.542 E0.2944
G1 X37.108 Y-45.542 E4.5685
G1 X37.108 Y-32.442 E2.2817
G1 X15.78 Y-32.442 E3.7148
G1 X15.474 Y-32.429 E0.0533
G1 X15.253 Y-32.4 E0.0389
G1 X15.029 Y-32.351 E0.0399
G1 X14.827 Y-32.287 E0.037
G1 X14.626 Y-32.204 E0.0379
G1 X14.432 Y-32.103 E0.0379
G1 X14.249 Y-31.986 E0.0379
G1 X14.076 Y-31.854 E0.0379
G1 X13.916 Y-31.707 E0.0379
G1 X13.768 Y-31.546 E0.0379
G1 X13.636 Y-31.373 E0.0379
G1 X13.519 Y-31.19 E0.0379
G1 X13.418 Y-30.997 E0.0379
G1 X13.335 Y-30.795 E0.0379
G1 X13.27 Y-30.588 E0.0379
G1 X13.223 Y-30.375 E0.0379
G1 X13.194 Y-30.159 E0.0379
G1 X13.185 Y-29.942 E0.0379
G1 X13.194 Y-29.724 E0.0379
G1 X13.223 Y-29.509 E0.0379
G1 X13.27 Y-29.296 E0.0379
G1 X13.335 Y-29.088 E0.0379
G1 X13.418 Y-28.887 E0.0379
G1 X13.519 Y-28.694 E0.0379
G1 X13.636 Y-28.51 E0.0379
G1 X13.769 Y-28.338 E0.0379
G1 X13.911 Y-28.182 E0.0368
G1 X14.078 Y-28.028 E0.0395
G1 X14.249 Y-27.898 E0.0374
G1 X14.432 Y-27.781 E0.0379
G1 X14.626 Y-27.68 E0.0379
G1 X14.827 Y-27.597 E0.0379
G1 X15.034 Y-27.531 E0.0379
G1 X15.247 Y-27.484 E0.0379
G1 X15.451 Y-27.457 E0.0359
G1 X15.761 Y-27.443 E0.0539
G1 X37.108 Y-27.442 E3.7182
G1 X37.108 Y-14.342 E2.2816
G1 X23.328 Y-14.342 E2.4001
G0 X18.939 Y-9.952 F600
G0 X19.499 Y-9.392 F600
G0 X26.396 Y18.358 F9000
G1 X26.334 Y18.421 E0.0154 F600
G1 X26.271 Y18.358 E0.0154
G1 X26.396 Y18.358 E0.0218
G1 X28.682 Y16.072 E0.563
G1 X23.985 Y16.072 E0.8181
G1 X21.7 Y13.787 E0.563
G1 X30.968 Y13.787 E1.6143
G1 X31.545 Y13.21 E0.1421
G1 X32.092 Y12.578 E0.1456
G1 X32.617 Y11.761 E0.1692
G1 X32.736 Y11.501 E0.0498
G1 X19.414 Y11.501 E2.3203
G1 X17.128 Y9.215 E0.563
G1 X33.399 Y9.215 E2.834
G1 X33.433 Y8.983 E0.0408
G1 X33.433 Y8.012 E0.1692
G1 X33.295 Y7.05 E0.1692
G1 X33.259 Y6.929 E0.0219
G1 X-21.837 Y6.929 E9.5962
G0 X-20.544 Y9.215 F9000
G1 X14.461 Y9.215 E6.0969 F600
G1 X14.268 Y9.936 E0.1301
G1 X15.832 Y11.501 E0.3853
G1 X-20.52 Y11.501 E6.3315
G1 X-20.52 Y13.787 E0.3981
G1 X18.118 Y13.787 E6.7297
G1 X20.404 Y16.072 E0.563
G1 X0.557 Y16.072 E3.4567
G1 X2.843 Y18.358 E0.563
G1 X22.69 Y18.358 E3.4567
G1 X24.543 Y20.211 E0.4565
