; G-Code generated by Simplify3D(TM) Version 2.1.2
; Dec 3, 2014 at 9:01:52 PM
; Settings Summary
;   processName,Process1
;   applyToModels,gearcover
;   printMaterial,ABS
;   printQuality,High
;   extruderName,Right Extruder,Left Extruder
;   extruderToolheadNumber,0,1
;   extruderDiameter,0.4,0.4
;   extruderAutoWidth,0,0
;   extruderWidth,0.4,0.4
;   extrusionMultiplier,1,1
;   extruderUseRetract,1,1
;   extruderRetractionDistance,1,1.2
;   extruderExtraRestartDistance,0,0
;   extruderRetractionZLift,0,0
;   extruderRetractionSpeed,1200,1200
;   extruderUseCoasting,0,0
;   extruderCoastingDistance,0.2,0.2
;   extruderUseWipe,0,1
;   extruderWipeDistance,5,7
;   primaryExtruder,1
;   layerHeight,0.25
;   topSolidLayers,3
;   bottomSolidLayers,3
;   perimeterOutlines,2
;   printPerimetersInsideOut,1
;   startPointOption,2
;   startPointOriginX,0
;   startPointOriginY,0
;   startPointOriginZ,300
;   sequentialIslands,0
;   spiralVaseMode,0
;   firstLayerHeightRatio,0.9
;   firstLayerUnderspeed,0.5
;   useRaft,1
;   raftLayers,3
;   raftOffset,3
;   raftSeparationDistance,0.14
;   raftInfill,85
;   disableRaftBaseLayers,0
;   useSkirt,1
;   skirtLayers,2
;   skirtOutlines,2
;   skirtOffset,4
;   infillExtruder,1
;   externalInfillPattern,Rectilinear
;   infillPercentage,20
;   outlineOverlapPercentage,23
;   minInfillLength,2.5
;   infillLayerInterval,1
;   randomInfillStartPoint,1
;   infillAngles,45,-45
;   generateSupport,1
;   supportExtruder,1
;   supportInfill,40
;   supportExtraInflation,0
;   supportLayerInterval,1
;   supportHorizontalPartOffset,0.3
;   supportUpperSeparationLayers,1
;   supportLowerSeparationLayers,1
;   supportGridSpacing,4
;   maxOverhangAngle,45
;   supportAngles,0
;   temperatureName,Right Extruder,Left Extruder,Heated Build Platform
;   temperatureNumber,0,1,0
;   temperatureSetpointCount,1,1,1
;   temperatureSetpointLayers,1,1,1
;   temperatureSetpointTemperatures,0,232,130
;   temperatureStabilizeAtStartup,1,1,1
;   temperatureHeatedBed,0,0,1
;   temperatureRelayBetweenLayers,1,1,1
;   temperatureRelayBetweenLoops,0,0,0
;   fanLayers,1
;   fanSpeeds,0
;   blipFanToFullPower,0
;   adjustSpeedForCooling,1
;   minSpeedLayerTime,15
;   minCoolingSpeedSlowdown,20
;   increaseFanForCooling,0
;   minFanLayerTime,45
;   maxCoolingFanSpeed,100
;   increaseFanForBridging,0
;   bridgingFanSpeed,100
;   use5D,1
;   relativeEdistances,1
;   allowEaxisZeroing,0
;   includeM10123,0
;   stickySupport,1
;   detectArcs,0
;   arcReplaceG2G3,0
;   arcRadialCompensation,1
;   gcodeXoffset,0
;   gcodeYoffset,0
;   gcodeZoffset,0
;   overrideMachineDefinition,1
;   machineTypeOverride,0
;   strokeXoverride,250
;   strokeYoverride,150
;   strokeZoverride,150
;   originOffsetXoverride,125
;   originOffsetYoverride,75
;   originOffsetZoverride,0
;   homeXdirOverride,1
;   homeYdirOverride,1
;   homeZdirOverride,-1
;   flipXoverride,1
;   flipYoverride,-1
;   flipZoverride,1
;   startingGcode,; **** Replicator 2X start.gcode ****,M73 P0 ; enable build progress,G162 X Y F3000 ; home XY maximum,G161 Z F1200 ; home Z minimum,G92 Z-5 ; set Z to -5,G1 Z0 ; move Z to 0,G161 Z F100 ; home Z slowly,M132 X Y Z A B ; recall home offsets,M135 T0 ; load right extruder offsets,G1 X-130 Y-75 Z30 F9000 ; move to wait position off table,G130 X20 Y20 Z20 A20 B20 ; lower stepper Vrefs while heating,M126 S[fan_speed_pwm],M140 S[bed0_temperature] T0,M134 T0 ; stabilize bed temperature,M104 S[extruder1_temperature] T1,M133 T1 ; stabilize extruder temperature,G130 X127 Y127 Z40 A127 B127 ; default stepper Vrefs,G92 A0 B0 ; zero extruders,M135 T1 ; load left extruder offsets,G1 Z0.4 ; position nozzle,G1 E25 F300 ; purge nozzle,G1 X-125 Y-70 Z0.15 F1200 ; slow wipe,G1 X-120 Y-65 Z0.5 F1200 ; lift,G92 A0 B0 ; zero extruders,M73 P1 ;@body (notify GPX body has started),; **** end of start.gcode ****
;   layerChangeGcode,
;   toolChangeGcode,
;   endingGcode,; **** Replicator 2X end.gcode ****,M73 P100 ; end build progress,G0 Z155 F1000 ; send Z axis to bottom of machine,M140 S0 T0 ; cool down HBP,M104 S0 T0 ; cool down right extruder,M104 S0 T1 ; cool down left extruder,M127 ; stop blower fan,G162 X Y F3000 ; home XY maximum,M18 ; disable stepper,M72 P1 ; play Ta-Da song,; **** end of end.gcode ****
;   createX3G,1
;   celebration,0
;   celebrationSong,Entertainer
;   postProcessing,
;   defaultSpeed,4800
;   outlineUnderspeed,0.5
;   supportUnderspeed,0.8
;   rapidXYspeed,9000
;   rapidZspeed,1200
;   minBridgingArea,50
;   bridgingExtrusionMultiplier,1
;   bridgingSpeedMultiplier,0.8
;   filamentDiameter,1.71
;   filamentPricePerKg,46
;   useMinPrintHeight,0
;   minPrintHeight,0
;   useMaxPrintHeight,0
;   maxPrintHeight,0
;   overlapRemoval,0
;   overlapRemovalPercentage,0.3
;   useDiaphragm,0
;   diaphragmLayerInterval,20
;   robustSlicing,1
;   mergeAllIntoSolid,0
;   onlyRetractWhenCrossingOutline,1
;   retractBetweenLayers,1
;   useRetractionMinTravel,0
;   retractionMinTravel,3
;   useRetractionOozeRate,0
;   retractionOozeRate,100
;   onlyWipeOutlines,1
G90 ; use absolute coordinates
M83 ; relative extrusion distances
G21 ; set units to millimeters
; **** Replicator 2X start.gcode ****
M73 P0 ; enable build progress
G162 X Y F3000 ; home XY maximum
G161 Z F1200 ; home Z minimum
G92 Z-5 ; set Z to -5
G1 Z0 ; move Z to 0
G161 Z F100 ; home Z slowly
M132 X Y Z A B ; recall home offsets
M135 T0 ; load right extruder offsets
G1 X-130 Y-75 Z30 F9000 ; move to wait position off table
G130 X20 Y20 Z20 A20 B20 ; lower stepper Vrefs while heating
M127
M140 S130 T0
M134 T0 ; stabilize bed temperature
M104 S232 T1
M133 T1 ; stabilize extruder temperature
G130 X127 Y127 Z40 A127 B127 ; default stepper Vrefs
G92 A0 B0 ; zero extruders
M135 T1 ; load left extruder offsets
G1 Z0.4 ; position nozzle
G1 E25 F300 ; purge nozzle
G1 X-125 Y-70 Z0.15 F1200 ; slow wipe
G1 X-120 Y-65 Z0.5 F1200 ; lift
G92 A0 B0 ; zero extruders
M73 P1 ;@body (notify GPX body has started)
; **** end of start.gcode ****
G1 E-1.2 F1200
; layer 1, Z = 0.45
M105
M105
M105
M135 T1
; tool H0.5 W0.4
G0 X27.362 Y-6.597 F9000
G0 Z0.45 F1200
G1 E1.2 F360
G1 X27.688 Y-6.116 E0.0506 F2400
G1 X28.409 Y-4.759 E0.1338
G1 X28.979 Y-3.328 E0.1341
G1 X29.393 Y-1.84 E0.1345
G1 X29.64 Y-0.319 E0.1343
G1 X29.706 Y0.882 E0.1047
G1 X30.541 Y2.487 E0.1576
G1 X31.666 Y5.204 E0.2561
G1 X32.55 Y8.009 E0.2561
G1 X33.186 Y10.877 E0.2558
G1 X33.571 Y13.796 E0.2564
G1 X33.698 Y16.732 E0.2559
G1 X33.571 Y19.67 E0.2561
G1 X33.186 Y22.588 E0.2563
G1 X32.55 Y25.456 E0.2559
G1 X31.666 Y28.263 E0.2563
G1 X30.54 Y30.98 E0.2561
G1 X29.183 Y33.587 E0.256
G1 X27.604 Y36.064 E0.2559
G1 X25.874 Y38.322 E0.2476
G1 X23.836 Y40.559 E0.2636
G1 X21.658 Y42.555 E0.2573
G1 X19.325 Y44.345 E0.2561
G1 X16.844 Y45.926 E0.2562
G1 X14.235 Y47.284 E0.2562
G1 X11.518 Y48.409 E0.2561
G1 X8.714 Y49.293 E0.256
G1 X5.844 Y49.929 E0.256
G1 X2.928 Y50.314 E0.2562
G1 X-0.011 Y50.441 E0.2561
G1 X-2.948 Y50.314 E0.256
G1 X-5.866 Y49.929 E0.2563
G1 X-8.734 Y49.293 E0.2559
G1 X-11.537 Y48.409 E0.2559
G1 X-14.255 Y47.285 E0.2562
G1 X-16.866 Y45.925 E0.2563
G1 X-19.346 Y44.345 E0.2561
G1 X-21.678 Y42.555 E0.256
G1 X-23.845 Y40.569 E0.256
G1 X-25.299 Y38.984 E0.1873
G1 X-25.837 Y38.395 E0.0695
G1 X-27.623 Y36.066 E0.2556
G1 X-29.202 Y33.589 E0.2559
G1 X-30.561 Y30.979 E0.2562
G1 X-31.687 Y28.261 E0.2563
G1 X-32.571 Y25.456 E0.2561
G1 X-33.207 Y22.588 E0.2559
G1 X-33.591 Y19.672 E0.2561
G1 X-33.72 Y16.732 E0.2563
G1 X-33.591 Y13.794 E0.2561
G1 X-33.207 Y10.877 E0.2562
G1 X-32.57 Y8.009 E0.2558
G1 X-31.687 Y5.206 E0.2559
G1 X-30.562 Y2.487 E0.2562
G1 X-29.524 Y0.493 E0.1958
G1 X-30.891 Y-1.29 E0.1956
G1 X-32.471 Y-3.768 E0.256
G1 X-33.83 Y-6.38 E0.2564
G1 X-34.954 Y-9.095 E0.2558
G1 X-35.839 Y-11.899 E0.2561
G1 X-36.476 Y-14.772 E0.2564
G1 X-36.859 Y-17.687 E0.256
G1 X-36.988 Y-20.624 E0.256
G1 X-36.859 Y-23.562 E0.2561
G1 X-36.476 Y-26.476 E0.256
G1 X-35.839 Y-29.35 E0.2564
G1 X-34.954 Y-32.154 E0.256
G1 X-33.83 Y-34.87 E0.256
G1 X-32.471 Y-37.481 E0.2563
G1 X-30.891 Y-39.959 E0.2559
G1 X-29.102 Y-42.292 E0.2561
G1 X-27.113 Y-44.462 E0.2563
G1 X-24.946 Y-46.447 E0.2559
G1 X-22.614 Y-48.237 E0.256
G1 X-20.133 Y-49.818 E0.2563
G1 X-17.524 Y-51.175 E0.256
G1 X-14.808 Y-52.301 E0.256
G1 X-12.002 Y-53.185 E0.2563
G1 X-9.134 Y-53.821 E0.2559
G1 X-6.216 Y-54.206 E0.2563
G1 X-3.279 Y-54.333 E0.256
G1 X-0.34 Y-54.206 E0.2561
G1 X2.576 Y-53.821 E0.2562
G1 X5.446 Y-53.185 E0.256
G1 X8.252 Y-52.3 E0.2562
G1 X10.967 Y-51.175 E0.256
G1 X13.575 Y-49.818 E0.256
G1 X16.057 Y-48.237 E0.2563
G1 X18.389 Y-46.447 E0.256
G1 X20.556 Y-44.462 E0.256
G1 X22.544 Y-42.294 E0.2562
G1 X24.335 Y-39.959 E0.2563
G1 X25.914 Y-37.479 E0.256
G1 X27.272 Y-34.872 E0.256
G1 X28.398 Y-32.154 E0.2562
G1 X29.282 Y-29.348 E0.2561
G1 X29.919 Y-26.476 E0.2562
G1 X30.302 Y-23.562 E0.256
G1 X30.431 Y-20.624 E0.2561
G1 X30.302 Y-17.687 E0.256
G1 X29.919 Y-14.772 E0.256
G1 X29.282 Y-11.901 E0.2562
G1 X28.398 Y-9.095 E0.2562
G1 X27.362 Y-6.597 E0.2355
G0 X26.91 Y-6.551 F9000
G1 X27.345 Y-5.91 E0.0675 F2400
G1 X28.045 Y-4.591 E0.13
G1 X28.599 Y-3.2 E0.1303
G1 X29.002 Y-1.754 E0.1307
G1 X29.242 Y-0.276 E0.1305
G1 X29.311 Y0.989 E0.1103
G1 X30.178 Y2.656 E0.1636
G1 X31.29 Y5.341 E0.2531
G1 X32.163 Y8.113 E0.2531
G1 X32.792 Y10.946 E0.2528
G1 X33.172 Y13.831 E0.2534
G1 X33.298 Y16.732 E0.2529
G1 X33.172 Y19.635 E0.2531
G1 X32.792 Y22.518 E0.2533
G1 X32.164 Y25.353 E0.2528
G1 X31.29 Y28.126 E0.2532
G1 X30.177 Y30.81 E0.2531
G1 X28.836 Y33.387 E0.2529
G1 X27.276 Y35.835 E0.2528
G1 X25.567 Y38.065 E0.2447
G1 X23.553 Y40.277 E0.2605
G1 X21.4 Y42.248 E0.2542
G1 X19.095 Y44.017 E0.253
G1 X16.644 Y45.579 E0.2531
G1 X14.066 Y46.921 E0.2531
G1 X11.381 Y48.033 E0.2531
G1 X8.61 Y48.906 E0.253
G1 X5.774 Y49.535 E0.2529
G1 X2.893 Y49.915 E0.2531
G1 X-0.011 Y50.041 E0.2531
G1 X-2.913 Y49.915 E0.253
G1 X-5.796 Y49.535 E0.2533
G1 X-8.631 Y48.906 E0.2529
G1 X-11.4 Y48.033 E0.2529
G1 X-14.086 Y46.922 E0.2531
G1 X-16.666 Y45.578 E0.2533
G1 X-19.116 Y44.017 E0.2531
G1 X-21.421 Y42.248 E0.2529
G1 X-23.562 Y40.286 E0.253
G1 X-25.004 Y38.714 E0.1857
G1 X-25.53 Y38.138 E0.068
G1 X-27.295 Y35.837 E0.2526
G1 X-28.856 Y33.388 E0.2528
G1 X-30.198 Y30.81 E0.2531
G1 X-31.311 Y28.124 E0.2532
G1 X-32.184 Y25.353 E0.253
G1 X-32.812 Y22.518 E0.2528
G1 X-33.192 Y19.637 E0.2531
G1 X-33.319 Y16.732 E0.2533
G1 X-33.192 Y13.829 E0.2531
G1 X-32.812 Y10.946 E0.2532
G1 X-32.184 Y8.113 E0.2528
G1 X-31.311 Y5.343 E0.2529
G1 X-30.199 Y2.656 E0.2532
G1 X-29.051 Y0.451 E0.2165
G1 X-30.563 Y-1.52 E0.2163
G1 X-32.124 Y-3.968 E0.2529
G1 X-33.467 Y-6.55 E0.2534
G1 X-34.578 Y-9.232 E0.2528
G1 X-35.452 Y-12.002 E0.253
G1 X-36.082 Y-14.842 E0.2533
G1 X-36.46 Y-17.721 E0.2529
G1 X-36.587 Y-20.624 E0.253
G1 X-36.46 Y-23.527 E0.2531
G1 X-36.082 Y-26.407 E0.2529
G1 X-35.452 Y-29.247 E0.2533
G1 X-34.578 Y-32.017 E0.253
G1 X-33.467 Y-34.701 E0.253
G1 X-32.124 Y-37.28 E0.2533
G1 X-30.563 Y-39.729 E0.2529
G1 X-28.795 Y-42.035 E0.253
G1 X-26.83 Y-44.179 E0.2533
G1 X-24.689 Y-46.14 E0.2529
G1 X-22.384 Y-47.909 E0.2529
G1 X-19.932 Y-49.471 E0.2532
G1 X-17.355 Y-50.812 E0.253
G1 X-14.671 Y-51.924 E0.253
G1 X-11.898 Y-52.798 E0.2532
G1 X-9.064 Y-53.427 E0.2528
G1 X-6.181 Y-53.807 E0.2533
G1 X-3.279 Y-53.933 E0.253
G1 X-0.375 Y-53.807 E0.2531
G1 X2.507 Y-53.427 E0.2531
G1 X5.342 Y-52.798 E0.2529
G1 X8.115 Y-51.924 E0.2532
G1 X10.798 Y-50.812 E0.2529
G1 X13.375 Y-49.471 E0.253
G1 X15.827 Y-47.909 E0.2532
G1 X18.131 Y-46.14 E0.2529
G1 X20.273 Y-44.179 E0.2529
G1 X22.237 Y-42.036 E0.2531
G1 X24.007 Y-39.729 E0.2532
G1 X25.568 Y-37.279 E0.253
G1 X26.909 Y-34.702 E0.253
G1 X28.022 Y-32.017 E0.2532
G1 X28.896 Y-29.245 E0.2531
G1 X29.524 Y-26.407 E0.2531
G1 X29.903 Y-23.527 E0.2529
G1 X30.03 Y-20.624 E0.2531
G1 X29.903 Y-17.722 E0.253
G1 X29.524 Y-14.842 E0.2529
G1 X28.896 Y-12.004 E0.2531
G1 X28.022 Y-9.232 E0.2532
G1 X26.91 Y-6.551 E0.2527
; tool H0.5 W0.8
G0 X22.736 Y-8.494 F9000
G1 X21.58 Y-6.272 E0.4362 F600
G1 X21.353 Y-5.915 E0.0737
G1 X22.194 Y-5.118 E0.2019
G1 X22.839 Y-4.359 E0.1735
G1 X23.398 Y-3.534 E0.1737
G1 X23.865 Y-2.655 E0.1733
G1 X24.234 Y-1.728 E0.1738
G1 X24.502 Y-0.766 E0.1739
G1 X24.662 Y0.22 E0.1739
G1 X24.716 Y1.212 E0.173
G1 X24.668 Y2.096 E0.1543
G1 X24.849 Y2.38 E0.0586
G1 X26.005 Y4.602 E0.4362
G1 X26.963 Y6.916 E0.4362
G1 X27.716 Y9.304 E0.4362
G1 X28.258 Y11.747 E0.4357
G1 X28.585 Y14.232 E0.4366
G1 X28.694 Y16.732 E0.4358
G1 X28.585 Y19.234 E0.4362
G1 X28.258 Y21.718 E0.4364
G1 X27.716 Y24.161 E0.4358
G1 X26.963 Y26.551 E0.4364
G1 X26.004 Y28.864 E0.4361
G1 X24.849 Y31.084 E0.4359
G1 X23.504 Y33.195 E0.4359
G1 X22.035 Y35.112 E0.4206
G1 X20.292 Y37.025 E0.4508
G1 X18.441 Y38.721 E0.4373
G1 X16.454 Y40.246 E0.4362
G1 X14.341 Y41.592 E0.4363
G1 X12.12 Y42.748 E0.4362
G1 X9.807 Y43.706 E0.4361
G1 X7.419 Y44.459 E0.4361
G1 X4.974 Y45 E0.436
G1 X2.492 Y45.328 E0.4362
G1 X-0.011 Y45.436 E0.4362
G1 X-2.512 Y45.328 E0.436
G1 X-4.996 Y45 E0.4364
G1 X-7.439 Y44.459 E0.4359
G1 X-9.826 Y43.706 E0.436
G1 X-12.141 Y42.748 E0.4363
G1 X-14.363 Y41.591 E0.4364
G1 X-16.475 Y40.245 E0.4362
G1 X-18.461 Y38.721 E0.436
G1 X-20.307 Y37.03 E0.436
G1 X-21.611 Y35.608 E0.336
G1 X-22.001 Y35.181 E0.1007
G1 X-23.523 Y33.196 E0.4357
G1 X-24.869 Y31.085 E0.436
G1 X-26.026 Y28.864 E0.4362
G1 X-26.984 Y26.55 E0.4363
G1 X-27.736 Y24.161 E0.4362
G1 X-28.278 Y21.718 E0.4358
G1 X-28.605 Y19.235 E0.4362
G1 X-28.715 Y16.732 E0.4364
G1 X-28.605 Y14.231 E0.436
G1 X-28.278 Y11.747 E0.4364
G1 X-27.736 Y9.304 E0.4357
G1 X-26.984 Y6.917 E0.436
G1 X-26.026 Y4.602 E0.4363
G1 X-24.869 Y2.379 E0.4364
G1 X-23.523 Y0.268 E0.4361
G1 X-23.276 Y-0.054 E0.0706
G1 X-23.575 Y-0.328 E0.0707
G1 X-25.268 Y-2.174 E0.4362
G1 X-26.791 Y-4.161 E0.436
G1 X-28.137 Y-6.271 E0.4359
G1 X-29.294 Y-8.495 E0.4366
G1 X-30.251 Y-10.807 E0.4359
G1 X-31.005 Y-13.195 E0.4361
G1 X-31.547 Y-15.641 E0.4364
G1 X-31.873 Y-18.123 E0.436
G1 X-31.983 Y-20.624 E0.4361
G1 X-31.873 Y-23.126 E0.4362
G1 X-31.547 Y-25.608 E0.436
G1 X-31.005 Y-28.054 E0.4364
G1 X-30.251 Y-30.442 E0.436
G1 X-29.294 Y-32.755 E0.4361
G1 X-28.137 Y-34.978 E0.4364
G1 X-26.791 Y-37.089 E0.436
G1 X-25.268 Y-39.075 E0.4361
G1 X-23.575 Y-40.922 E0.4364
G1 X-21.729 Y-42.613 E0.436
G1 X-19.743 Y-44.137 E0.436
G1 X-17.63 Y-45.484 E0.4363
G1 X-15.409 Y-46.639 E0.4361
G1 X-13.097 Y-47.598 E0.4361
G1 X-10.707 Y-48.351 E0.4363
G1 X-8.264 Y-48.892 E0.4359
G1 X-5.78 Y-49.22 E0.4364
G1 X-3.279 Y-49.328 E0.436
G1 X-0.776 Y-49.22 E0.4363
G1 X1.706 Y-48.892 E0.4362
G1 X4.151 Y-48.351 E0.436
G1 X6.54 Y-47.598 E0.4363
G1 X8.852 Y-46.639 E0.436
G1 X11.073 Y-45.484 E0.4361
G1 X13.186 Y-44.137 E0.4363
G1 X15.172 Y-42.613 E0.4361
G1 X17.018 Y-40.922 E0.436
G1 X18.71 Y-39.076 E0.4363
G1 X20.235 Y-37.089 E0.4363
G1 X21.58 Y-34.977 E0.4361
G1 X22.736 Y-32.756 E0.4361
G1 X23.695 Y-30.442 E0.4363
G1 X24.448 Y-28.053 E0.4362
G1 X24.99 Y-25.608 E0.4362
G1 X25.316 Y-23.126 E0.436
G1 X25.426 Y-20.624 E0.4362
G1 X25.316 Y-18.123 E0.4361
G1 X24.99 Y-15.641 E0.436
G1 X24.448 Y-13.196 E0.4362
G1 X23.695 Y-10.807 E0.4363
G1 X22.736 Y-8.494 E0.4361
G0 X21.58 Y-6.272 F600
G0 X21.353 Y-5.915 F600
G0 X22.194 Y-5.118 F600
G0 X22.839 Y-4.359 F600
G0 X23.398 Y-3.534 F600
G0 X23.83 Y-2.721 F600
G0 X-4.261 Y44.29 F9000
G1 X-2.442 Y44.53 E0.3196 F600
G1 X-0.011 Y44.636 E0.4239
G1 X2.422 Y44.53 E0.4241
G1 X4.24 Y44.29 E0.3194
G1 X-4.261 Y44.29 E1.4806
G1 X-4.857 Y44.212 E0.1047
G1 X-7.232 Y43.685 E0.4238
G1 X-9.553 Y42.953 E0.4238
G1 X-11.803 Y42.023 E0.4241
G1 X-11.837 Y42.005 E0.0068
G1 X11.816 Y42.005 E4.1197
G1 X13.941 Y40.898 E0.4173
G1 X15.792 Y39.719 E0.3823
G1 X-15.813 Y39.719 E5.5047
G1 X-16.016 Y39.59 E0.0419
G1 X-17.946 Y38.108 E0.4239
G1 X-18.683 Y37.433 E0.1739
G1 X18.663 Y37.433 E6.5045
G1 X19.725 Y36.46 E0.251
G1 X20.92 Y35.147 E0.3092
G1 X-20.947 Y35.147 E7.2922
G1 X-21.021 Y35.067 E0.0189
G1 X-21.387 Y34.667 E0.0945
G1 X-22.771 Y32.862 E0.3962
G1 X22.751 Y32.862 E7.9287
G1 X22.848 Y32.736 E0.0276
G1 X24.155 Y30.684 E0.4238
G1 X24.212 Y30.576 E0.0212
G1 X-24.232 Y30.576 E8.4375
G1 X-25.3 Y28.526 E0.4027
G1 X-25.397 Y28.29 E0.0444
