; G-Code generated by Simplify3D(TM) Version 2.1.2
; Dec 2, 2014 at 8:14:43 PM
; Settings Summary
;   processName,Process1
;   applyToModels,yleftidler,yrightidler
;   printMaterial,ABS
;   printQuality,High
;   extruderName,Right Extruder,Left Extruder
;   extruderToolheadNumber,0,1
;   extruderDiameter,0.4,0.4
;   extruderAutoWidth,0,0
;   extruderWidth,0.4,0.4
;   extrusionMultiplier,1,1
;   extruderUseRetract,1,1
;   extruderRetractionDistance,1,1.2
;   extruderExtraRestartDistance,0,0
;   extruderRetractionZLift,0,0
;   extruderRetractionSpeed,1200,1200
;   extruderUseCoasting,0,0
;   extruderCoastingDistance,0.2,0.2
;   extruderUseWipe,0,1
;   extruderWipeDistance,5,7
;   primaryExtruder,1
;   layerHeight,0.25
;   topSolidLayers,3
;   bottomSolidLayers,3
;   perimeterOutlines,2
;   printPerimetersInsideOut,1
;   startPointOption,2
;   startPointOriginX,0
;   startPointOriginY,0
;   startPointOriginZ,300
;   sequentialIslands,0
;   spiralVaseMode,0
;   firstLayerHeightRatio,0.9
;   firstLayerUnderspeed,0.5
;   useRaft,1
;   raftLayers,3
;   raftOffset,3
;   raftSeparationDistance,0.14
;   raftInfill,85
;   disableRaftBaseLayers,0
;   useSkirt,1
;   skirtLayers,2
;   skirtOutlines,2
;   skirtOffset,4
;   infillExtruder,1
;   externalInfillPattern,Rectilinear
;   infillPercentage,20
;   outlineOverlapPercentage,23
;   minInfillLength,2.5
;   infillLayerInterval,1
;   randomInfillStartPoint,1
;   infillAngles,45,-45
;   generateSupport,1
;   supportExtruder,1
;   supportInfill,40
;   supportExtraInflation,0
;   supportLayerInterval,1
;   supportHorizontalPartOffset,0.3
;   supportUpperSeparationLayers,1
;   supportLowerSeparationLayers,1
;   supportGridSpacing,4
;   maxOverhangAngle,45
;   supportAngles,0
;   temperatureName,Right Extruder,Left Extruder,Heated Build Platform
;   temperatureNumber,0,1,0
;   temperatureSetpointCount,1,1,1
;   temperatureSetpointLayers,1,1,1
;   temperatureSetpointTemperatures,0,232,130
;   temperatureStabilizeAtStartup,1,1,1
;   temperatureHeatedBed,0,0,1
;   temperatureRelayBetweenLayers,1,1,1
;   temperatureRelayBetweenLoops,0,0,0
;   fanLayers,1
;   fanSpeeds,0
;   blipFanToFullPower,0
;   adjustSpeedForCooling,1
;   minSpeedLayerTime,15
;   minCoolingSpeedSlowdown,20
;   increaseFanForCooling,0
;   minFanLayerTime,45
;   maxCoolingFanSpeed,100
;   increaseFanForBridging,0
;   bridgingFanSpeed,100
;   use5D,1
;   relativeEdistances,1
;   allowEaxisZeroing,0
;   includeM10123,0
;   stickySupport,1
;   detectArcs,0
;   arcReplaceG2G3,0
;   arcRadialCompensation,1
;   gcodeXoffset,0
;   gcodeYoffset,0
;   gcodeZoffset,0
;   overrideMachineDefinition,1
;   machineTypeOverride,0
;   strokeXoverride,250
;   strokeYoverride,150
;   strokeZoverride,150
;   originOffsetXoverride,125
;   originOffsetYoverride,75
;   originOffsetZoverride,0
;   homeXdirOverride,1
;   homeYdirOverride,1
;   homeZdirOverride,-1
;   flipXoverride,1
;   flipYoverride,-1
;   flipZoverride,1
;   startingGcode,; **** Replicator 2X start.gcode ****,M73 P0 ; enable build progress,G162 X Y F3000 ; home XY maximum,G161 Z F1200 ; home Z minimum,G92 Z-5 ; set Z to -5,G1 Z0 ; move Z to 0,G161 Z F100 ; home Z slowly,M132 X Y Z A B ; recall home offsets,M135 T0 ; load right extruder offsets,G1 X-130 Y-75 Z30 F9000 ; move to wait position off table,G130 X20 Y20 Z20 A20 B20 ; lower stepper Vrefs while heating,M126 S[fan_speed_pwm],M140 S[bed0_temperature] T0,M134 T0 ; stabilize bed temperature,M104 S[extruder1_temperature] T1,M133 T1 ; stabilize extruder temperature,G130 X127 Y127 Z40 A127 B127 ; default stepper Vrefs,G92 A0 B0 ; zero extruders,M135 T1 ; load left extruder offsets,G1 Z0.4 ; position nozzle,G1 E25 F300 ; purge nozzle,G1 X-125 Y-70 Z0.15 F1200 ; slow wipe,G1 X-120 Y-65 Z0.5 F1200 ; lift,G92 A0 B0 ; zero extruders,M73 P1 ;@body (notify GPX body has started),; **** end of start.gcode ****
;   layerChangeGcode,
;   toolChangeGcode,
;   endingGcode,; **** Replicator 2X end.gcode ****,M73 P100 ; end build progress,G0 Z155 F1000 ; send Z axis to bottom of machine,M140 S0 T0 ; cool down HBP,M104 S0 T0 ; cool down right extruder,M104 S0 T1 ; cool down left extruder,M127 ; stop blower fan,G162 X Y F3000 ; home XY maximum,M18 ; disable stepper,M72 P1 ; play Ta-Da song,; **** end of end.gcode ****
;   createX3G,1
;   celebration,0
;   celebrationSong,Entertainer
;   postProcessing,
;   defaultSpeed,4800
;   outlineUnderspeed,0.5
;   supportUnderspeed,0.8
;   rapidXYspeed,9000
;   rapidZspeed,1200
;   minBridgingArea,50
;   bridgingExtrusionMultiplier,1
;   bridgingSpeedMultiplier,0.8
;   filamentDiameter,1.71
;   filamentPricePerKg,46
;   useMinPrintHeight,0
;   minPrintHeight,0
;   useMaxPrintHeight,0
;   maxPrintHeight,0
;   overlapRemoval,0
;   overlapRemovalPercentage,0.3
;   useDiaphragm,0
;   diaphragmLayerInterval,20
;   robustSlicing,1
;   mergeAllIntoSolid,0
;   onlyRetractWhenCrossingOutline,1
;   retractBetweenLayers,1
;   useRetractionMinTravel,0
;   retractionMinTravel,3
;   useRetractionOozeRate,0
;   retractionOozeRate,100
;   onlyWipeOutlines,1
G90 ; use absolute coordinates
M83 ; relative extrusion distances
G21 ; set units to millimeters
; **** Replicator 2X start.gcode ****
M73 P0 ; enable build progress
G162 X Y F3000 ; home XY maximum
G161 Z F1200 ; home Z minimum
G92 Z-5 ; set Z to -5
G1 Z0 ; move Z to 0
G161 Z F100 ; home Z slowly
M132 X Y Z A B ; recall home offsets
M135 T0 ; load right extruder offsets
G1 X-130 Y-75 Z30 F9000 ; move to wait position off table
G130 X20 Y20 Z20 A20 B20 ; lower stepper Vrefs while heating
M127
M140 S130 T0
M134 T0 ; stabilize bed temperature
M104 S232 T1
M133 T1 ; stabilize extruder temperature
G130 X127 Y127 Z40 A127 B127 ; default stepper Vrefs
G92 A0 B0 ; zero extruders
M135 T1 ; load left extruder offsets
G1 Z0.4 ; position nozzle
G1 E25 F300 ; purge nozzle
G1 X-125 Y-70 Z0.15 F1200 ; slow wipe
G1 X-120 Y-65 Z0.5 F1200 ; lift
G92 A0 B0 ; zero extruders
M73 P1 ;@body (notify GPX body has started)
; **** end of start.gcode ****
G1 E-1.2 F1200
; layer 1, Z = 0.45
M105
M105
M105
M135 T1
; tool H0.5 W0.4
G0 X0.085 Y-34.826 F9000
G0 Z0.45 F1200
G1 E1.2 F360
G1 X1.203 Y-35.406 E0.1096 F2400
G1 X2.487 Y-35.938 E0.1211
G1 X3.827 Y-36.36 E0.1223
G1 X5.199 Y-36.665 E0.1224
G1 X6.593 Y-36.848 E0.1225
G1 X7.997 Y-36.909 E0.1223
G1 X9.4 Y-36.848 E0.1223
G1 X10.795 Y-36.665 E0.1225
G1 X12.167 Y-36.36 E0.1224
G1 X13.506 Y-35.938 E0.1223
G1 X14.805 Y-35.4 E0.1224
G1 X16.052 Y-34.751 E0.1224
G1 X17.237 Y-33.996 E0.1224
G1 X18.351 Y-33.141 E0.1223
G1 X19.388 Y-32.191 E0.1224
G1 X20.337 Y-31.155 E0.1224
G1 X21.14 Y-30.109 E0.1148
G1 X35.871 Y-7.885 E2.322
G1 X36.448 Y-6.98 E0.0935
G1 X37.097 Y-5.733 E0.1224
G1 X37.635 Y-4.434 E0.1224
G1 X38.057 Y-3.095 E0.1223
G1 X38.361 Y-1.723 E0.1224
G1 X38.545 Y-0.329 E0.1225
G1 X38.606 Y1.075 E0.1223
G1 X38.545 Y2.478 E0.1223
G1 X38.361 Y3.873 E0.1225
G1 X38.057 Y5.245 E0.1224
G1 X37.635 Y6.584 E0.1223
G1 X37.097 Y7.883 E0.1224
G1 X36.448 Y9.129 E0.1224
G1 X35.871 Y10.035 E0.0935
G1 X21.14 Y32.259 E2.322
G1 X20.337 Y33.304 E0.1148
G1 X19.388 Y34.341 E0.1224
G1 X18.351 Y35.29 E0.1224
G1 X17.233 Y36.148 E0.1227
G1 X16.042 Y36.906 E0.123
G1 X14.805 Y37.55 E0.1214
G1 X13.506 Y38.088 E0.1224
G1 X12.167 Y38.51 E0.1223
G1 X10.795 Y38.814 E0.1224
G1 X9.401 Y38.998 E0.1225
G1 X7.997 Y39.059 E0.1223
G1 X6.593 Y38.998 E0.1223
G1 X5.199 Y38.814 E0.1225
G1 X3.827 Y38.51 E0.1224
G1 X2.487 Y38.088 E0.1223
G1 X1.189 Y37.55 E0.1224
G1 X0.085 Y36.975 E0.1084
G1 X-1.019 Y37.55 E0.1084
G1 X-2.307 Y38.083 E0.1214
G1 X-3.652 Y38.509 E0.1229
G1 X-5.029 Y38.814 E0.1228
G1 X-6.423 Y38.998 E0.1225
G1 X-7.827 Y39.059 E0.1223
G1 X-9.23 Y38.998 E0.1223
G1 X-10.625 Y38.814 E0.1225
G1 X-11.997 Y38.51 E0.1224
G1 X-13.326 Y38.091 E0.1214
G1 X-14.63 Y37.552 E0.1229
G1 X-15.882 Y36.901 E0.1228
G1 X-17.067 Y36.146 E0.1224
G1 X-18.181 Y35.29 E0.1223
G1 X-19.218 Y34.341 E0.1224
G1 X-20.167 Y33.304 E0.1224
G1 X-20.97 Y32.259 E0.1148
G1 X-35.701 Y10.035 E2.322
G1 X-36.278 Y9.129 E0.0935
G1 X-36.927 Y7.883 E0.1224
G1 X-37.465 Y6.584 E0.1224
G1 X-37.887 Y5.245 E0.1223
G1 X-38.191 Y3.873 E0.1224
G1 X-38.375 Y2.479 E0.1225
G1 X-38.436 Y1.075 E0.1223
G1 X-38.375 Y-0.329 E0.1223
G1 X-38.191 Y-1.723 E0.1225
G1 X-37.887 Y-3.095 E0.1224
G1 X-37.465 Y-4.435 E0.1223
G1 X-36.927 Y-5.733 E0.1224
G1 X-36.278 Y-6.98 E0.1224
G1 X-35.701 Y-7.885 E0.0935
G1 X-20.97 Y-30.109 E2.322
G1 X-20.167 Y-31.155 E0.1148
G1 X-19.218 Y-32.191 E0.1224
G1 X-18.181 Y-33.141 E0.1224
G1 X-17.067 Y-33.996 E0.1223
G1 X-15.882 Y-34.751 E0.1224
G1 X-14.635 Y-35.4 E0.1224
G1 X-13.336 Y-35.938 E0.1224
G1 X-11.997 Y-36.36 E0.1223
G1 X-10.625 Y-36.664 E0.1224
G1 X-9.23 Y-36.848 E0.1225
G1 X-7.827 Y-36.909 E0.1223
G1 X-6.423 Y-36.848 E0.1223
G1 X-5.029 Y-36.664 E0.1225
G1 X-3.657 Y-36.36 E0.1224
G1 X-2.317 Y-35.938 E0.1223
G1 X-1.037 Y-35.408 E0.1207
G1 X0.085 Y-34.826 E0.1101
G0 X0.021 Y-34.409 F9000
G1 X0.085 Y-34.368 E0.0066 F2400
G1 X0.148 Y-34.407 E0.0065
G1 X1.372 Y-35.043 E0.1201
G1 X2.624 Y-35.562 E0.1181
G1 X3.931 Y-35.973 E0.1193
G1 X5.269 Y-36.27 E0.1193
G1 X6.628 Y-36.449 E0.1194
G1 X7.997 Y-36.509 E0.1193
G1 X9.366 Y-36.449 E0.1193
G1 X10.725 Y-36.27 E0.1194
G1 X12.063 Y-35.973 E0.1194
G1 X13.37 Y-35.562 E0.1193
G1 X14.636 Y-35.037 E0.1193
G1 X15.851 Y-34.404 E0.1194
G1 X17.007 Y-33.668 E0.1193
G1 X18.094 Y-32.834 E0.1193
G1 X19.105 Y-31.908 E0.1194
G1 X20.031 Y-30.897 E0.1194
G1 X20.814 Y-29.876 E0.1121
G1 X35.536 Y-7.667 E2.3204
G1 X36.101 Y-6.78 E0.0916
G1 X36.734 Y-5.564 E0.1194
G1 X37.258 Y-4.298 E0.1193
G1 X37.67 Y-2.991 E0.1193
G1 X37.967 Y-1.653 E0.1194
G1 X38.146 Y-0.294 E0.1194
G1 X38.206 Y1.075 E0.1193
G1 X38.146 Y2.444 E0.1193
G1 X37.967 Y3.803 E0.1194
G1 X37.67 Y5.141 E0.1194
G1 X37.258 Y6.447 E0.1193
G1 X36.734 Y7.713 E0.1193
G1 X36.101 Y8.929 E0.1194
G1 X35.536 Y9.817 E0.0916
G1 X20.814 Y32.026 E2.3205
G1 X20.031 Y33.047 E0.1121
G1 X19.105 Y34.058 E0.1194
G1 X18.094 Y34.984 E0.1194
G1 X17.004 Y35.82 E0.1197
G1 X15.842 Y36.559 E0.1199
G1 X14.636 Y37.187 E0.1184
G1 X13.37 Y37.711 E0.1193
G1 X12.063 Y38.123 E0.1193
G1 X10.725 Y38.42 E0.1193
G1 X9.366 Y38.599 E0.1194
G1 X7.997 Y38.659 E0.1193
G1 X6.628 Y38.599 E0.1193
G1 X5.269 Y38.42 E0.1194
G1 X3.931 Y38.123 E0.1194
G1 X2.624 Y37.711 E0.1193
G1 X1.358 Y37.187 E0.1193
G1 X0.143 Y36.554 E0.1194
G1 X0.085 Y36.518 E0.0059
G1 X0.028 Y36.554 E0.0059
G1 X-1.188 Y37.187 E0.1194
G1 X-2.444 Y37.707 E0.1184
G1 X-3.756 Y38.122 E0.1198
G1 X-5.099 Y38.42 E0.1197
G1 X-6.458 Y38.599 E0.1194
G1 X-7.827 Y38.659 E0.1193
G1 X-9.195 Y38.599 E0.1193
G1 X-10.555 Y38.42 E0.1194
G1 X-11.893 Y38.123 E0.1193
G1 X-13.189 Y37.715 E0.1183
G1 X-14.461 Y37.189 E0.1199
G1 X-15.681 Y36.554 E0.1198
G1 X-16.837 Y35.818 E0.1193
G1 X-17.924 Y34.984 E0.1193
G1 X-18.935 Y34.058 E0.1194
G1 X-19.861 Y33.047 E0.1194
G1 X-20.644 Y32.026 E0.1121
G1 X-35.366 Y9.817 E2.3205
G1 X-35.931 Y8.929 E0.0916
G1 X-36.564 Y7.714 E0.1194
G1 X-37.088 Y6.447 E0.1193
G1 X-37.5 Y5.141 E0.1193
G1 X-37.797 Y3.803 E0.1193
G1 X-37.976 Y2.444 E0.1194
G1 X-38.036 Y1.075 E0.1193
G1 X-37.976 Y-0.294 E0.1193
G1 X-37.797 Y-1.653 E0.1194
G1 X-37.5 Y-2.991 E0.1193
G1 X-37.088 Y-4.298 E0.1193
G1 X-36.564 Y-5.564 E0.1193
G1 X-35.931 Y-6.779 E0.1194
G1 X-35.366 Y-7.667 E0.0916
G1 X-20.644 Y-29.876 E2.3205
G1 X-19.861 Y-30.897 E0.1121
G1 X-18.935 Y-31.908 E0.1193
G1 X-17.924 Y-32.834 E0.1194
G1 X-16.837 Y-33.668 E0.1193
G1 X-15.681 Y-34.404 E0.1193
G1 X-14.465 Y-35.037 E0.1194
G1 X-13.199 Y-35.562 E0.1193
G1 X-11.893 Y-35.973 E0.1193
G1 X-10.555 Y-36.27 E0.1194
G1 X-9.195 Y-36.449 E0.1194
G1 X-7.827 Y-36.509 E0.1193
G1 X-6.458 Y-36.449 E0.1193
G1 X-5.099 Y-36.27 E0.1194
G1 X-3.761 Y-35.973 E0.1194
G1 X-2.454 Y-35.562 E0.1193
G1 X-1.206 Y-35.045 E0.1176
G1 X0.021 Y-34.409 E0.1204
; tool H0.5 W0.8
G0 X-2.278 Y-30.419 F9000
G1 X-1.458 Y-29.896 E0.1695 F600
G1 X-0.689 Y-29.307 E0.1687
G1 X0.085 Y-28.597 E0.1829
G1 X0.859 Y-29.307 E0.1829
G1 X1.628 Y-29.896 E0.1687
G1 X2.447 Y-30.418 E0.1693
G1 X3.315 Y-30.869 E0.1702
G1 X4.199 Y-31.235 E0.1667
G1 X5.123 Y-31.526 E0.1687
G1 X6.069 Y-31.736 E0.1687
G1 X7.029 Y-31.862 E0.1688
G1 X7.997 Y-31.904 E0.1687
G1 X8.964 Y-31.862 E0.1687
G1 X9.925 Y-31.736 E0.1688
G1 X10.871 Y-31.526 E0.1687
G1 X11.795 Y-31.235 E0.1687
G1 X12.69 Y-30.864 E0.1687
G1 X13.549 Y-30.417 E0.1688
G1 X14.366 Y-29.896 E0.1687
G1 X15.135 Y-29.307 E0.1687
G1 X15.849 Y-28.652 E0.1687
G1 X16.503 Y-27.938 E0.1688
G1 X17.068 Y-27.202 E0.1614
G1 X31.679 Y-5.16 E4.606
G1 X32.114 Y-4.477 E0.1409
G1 X32.561 Y-3.618 E0.1688
G1 X32.932 Y-2.723 E0.1687
G1 X33.223 Y-1.799 E0.1686
G1 X33.433 Y-0.853 E0.1688
G1 X33.559 Y0.107 E0.1688
G1 X33.601 Y1.075 E0.1687
G1 X33.559 Y2.042 E0.1687
G1 X33.433 Y3.003 E0.1688
G1 X33.223 Y3.949 E0.1688
G1 X32.932 Y4.873 E0.1687
G1 X32.561 Y5.768 E0.1687
G1 X32.114 Y6.627 E0.1688
G1 X31.678 Y7.31 E0.1411
G1 X17.068 Y29.352 E4.6059
G1 X16.504 Y30.088 E0.1614
G1 X15.849 Y30.802 E0.1688
G1 X15.135 Y31.456 E0.1687
G1 X14.364 Y32.047 E0.1691
G1 X13.542 Y32.571 E0.1698
G1 X12.69 Y33.014 E0.1673
G1 X11.795 Y33.385 E0.1687
G1 X10.871 Y33.676 E0.1687
G1 X9.925 Y33.886 E0.1687
G1 X8.965 Y34.012 E0.1688
G1 X7.997 Y34.054 E0.1687
G1 X7.029 Y34.012 E0.1687
G1 X6.069 Y33.886 E0.1688
G1 X5.123 Y33.676 E0.1688
G1 X4.199 Y33.385 E0.1687
G1 X3.304 Y33.014 E0.1687
G1 X2.445 Y32.567 E0.1687
G1 X1.628 Y32.046 E0.1688
G1 X0.859 Y31.456 E0.1687
G1 X0.085 Y30.747 E0.1829
G1 X-0.689 Y31.456 E0.1829
G1 X-1.458 Y32.046 E0.1687
G1 X-2.275 Y32.567 E0.1688
G1 X-3.134 Y33.014 E0.1687
G1 X-4.021 Y33.381 E0.1672
G1 X-4.95 Y33.675 E0.1698
G1 X-5.898 Y33.886 E0.1691
G1 X-6.859 Y34.012 E0.1688
G1 X-7.827 Y34.054 E0.1687
G1 X-8.794 Y34.012 E0.1687
G1 X-9.755 Y33.886 E0.1688
G1 X-10.701 Y33.676 E0.1688
G1 X-11.616 Y33.387 E0.1672
G1 X-12.518 Y33.015 E0.1698
G1 X-13.379 Y32.567 E0.1692
G1 X-14.196 Y32.046 E0.1687
G1 X-14.964 Y31.457 E0.1687
G1 X-15.679 Y30.802 E0.1688
G1 X-16.333 Y30.088 E0.1687
G1 X-16.898 Y29.352 E0.1614
G1 X-31.508 Y7.31 E4.6059
G1 X-31.944 Y6.627 E0.1411
G1 X-32.391 Y5.768 E0.1687
G1 X-32.762 Y4.873 E0.1687
G1 X-33.053 Y3.949 E0.1687
G1 X-33.263 Y3.003 E0.1687
G1 X-33.389 Y2.043 E0.1688
G1 X-33.431 Y1.075 E0.1687
G1 X-33.389 Y0.107 E0.1687
G1 X-33.263 Y-0.853 E0.1688
G1 X-33.053 Y-1.799 E0.1687
G1 X-32.762 Y-2.723 E0.1687
G1 X-32.391 Y-3.618 E0.1687
G1 X-31.944 Y-4.477 E0.1687
G1 X-31.508 Y-5.16 E0.1411
G1 X-16.898 Y-27.202 E4.6059
G1 X-16.333 Y-27.938 E0.1614
G1 X-15.679 Y-28.652 E0.1687
G1 X-14.964 Y-29.307 E0.1688
G1 X-14.196 Y-29.896 E0.1687
G1 X-13.379 Y-30.417 E0.1687
G1 X-12.52 Y-30.864 E0.1688
G1 X-11.625 Y-31.235 E0.1687
G1 X-10.701 Y-31.526 E0.1687
G1 X-9.755 Y-31.736 E0.1687
G1 X-8.794 Y-31.862 E0.1688
G1 X-7.827 Y-31.904 E0.1687
G1 X-6.859 Y-31.862 E0.1687
G1 X-5.898 Y-31.736 E0.1688
G1 X-4.953 Y-31.526 E0.1688
G1 X-4.029 Y-31.235 E0.1686
G1 X-3.148 Y-30.87 E0.166
G1 X-2.278 Y-30.419 E0.1707
G0 X-1.458 Y-29.896 F600
G0 X-0.689 Y-29.307 F600
G0 X0.085 Y-28.597 F600
G0 X0.859 Y-29.307 F600
G0 X1.628 Y-29.896 F600
G0 X2.447 Y-30.418 F600
G0 X3.315 Y-30.869 F600
G0 X3.352 Y-30.884 F600
G0 X-12.993 Y-29.714 F9000
G1 X-2.661 Y-29.714 E1.7995 F600
G1 X-1.917 Y-29.24 E0.1537
G1 X-1.204 Y-28.693 E0.1565
G1 X0.085 Y-27.512 E0.3045
G1 X1.374 Y-28.693 E0.3045
G1 X2.087 Y-29.24 E0.1566
G1 X2.831 Y-29.714 E0.1537
G1 X13.163 Y-29.714 E1.7995
G1 X13.907 Y-29.24 E0.1537
G1 X14.62 Y-28.693 E0.1565
G1 X15.283 Y-28.086 E0.1566
G1 X15.885 Y-27.429 E0.1552
G1 X-15.715 Y-27.429 E5.5038
G1 X-15.72 Y-27.423 E0.0013
G1 X-16.246 Y-26.737 E0.1505
G1 X-17.303 Y-25.143 E0.3332
G1 X17.473 Y-25.143 E6.057
G1 X18.988 Y-22.857 E0.4776
G1 X-18.818 Y-22.857 E6.5848
G1 X-20.333 Y-20.572 E0.4776
G1 X20.503 Y-20.572 E7.1125
G1 X22.018 Y-18.286 E0.4776
G1 X-21.848 Y-18.286 E7.6403
G1 X-23.363 Y-16 E0.4776
G1 X23.533 Y-16 E8.1681
G1 X25.049 Y-13.714 E0.4776
G1 X-24.878 Y-13.714 E8.6959
G1 X-26.394 Y-11.429 E0.4776
G1 X26.564 Y-11.429 E9.2236
G1 X28.079 Y-9.143 E0.4776
G1 X-27.909 Y-9.143 E9.7514
G1 X-29.424 Y-6.857 E0.4776
G1 X29.594 Y-6.857 E10.2792
G1 X31.008 Y-4.724 E0.4458
G1 X31.105 Y-4.572 E0.0314
