; G-Code generated by Simplify3D(TM) Version 2.1.2
; Dec 4, 2014 at 3:18:57 PM
; Settings Summary
;   processName,Cyclone
;   applyToModels,Ylm8uuHolder(4),Ylm8uuHolder(3),Ylm8uuHolder(2),ynutholder,Ylm8uuHolder
;   printMaterial,ABS
;   printQuality,High
;   extruderName,Right Extruder,Left Extruder
;   extruderToolheadNumber,0,1
;   extruderDiameter,0.4,0.4
;   extruderAutoWidth,0,0
;   extruderWidth,0.4,0.4
;   extrusionMultiplier,1,1
;   extruderUseRetract,1,1
;   extruderRetractionDistance,1,1.2
;   extruderExtraRestartDistance,0,0
;   extruderRetractionZLift,0,0
;   extruderRetractionSpeed,1200,1200
;   extruderUseCoasting,0,0
;   extruderCoastingDistance,0.2,0.2
;   extruderUseWipe,0,1
;   extruderWipeDistance,5,7
;   primaryExtruder,1
;   layerHeight,0.25
;   topSolidLayers,3
;   bottomSolidLayers,3
;   perimeterOutlines,2
;   printPerimetersInsideOut,1
;   startPointOption,2
;   startPointOriginX,0
;   startPointOriginY,0
;   startPointOriginZ,300
;   sequentialIslands,0
;   spiralVaseMode,0
;   firstLayerHeightRatio,0.9
;   firstLayerUnderspeed,0.5
;   useRaft,1
;   raftLayers,3
;   raftOffset,3
;   raftSeparationDistance,0.14
;   raftInfill,85
;   disableRaftBaseLayers,0
;   useSkirt,1
;   skirtLayers,2
;   skirtOutlines,2
;   skirtOffset,4
;   infillExtruder,1
;   externalInfillPattern,Rectilinear
;   infillPercentage,20
;   outlineOverlapPercentage,23
;   minInfillLength,2.5
;   infillLayerInterval,1
;   randomInfillStartPoint,1
;   infillAngles,45,-45
;   generateSupport,0
;   supportExtruder,1
;   supportInfill,40
;   supportExtraInflation,0
;   supportLayerInterval,1
;   supportHorizontalPartOffset,0.3
;   supportUpperSeparationLayers,1
;   supportLowerSeparationLayers,1
;   supportGridSpacing,4
;   maxOverhangAngle,45
;   supportAngles,0
;   temperatureName,Right Extruder,Left Extruder,Heated Build Platform
;   temperatureNumber,0,1,0
;   temperatureSetpointCount,1,1,1
;   temperatureSetpointLayers,1,1,1
;   temperatureSetpointTemperatures,0,232,130
;   temperatureStabilizeAtStartup,1,1,1
;   temperatureHeatedBed,0,0,1
;   temperatureRelayBetweenLayers,1,1,1
;   temperatureRelayBetweenLoops,0,0,0
;   fanLayers,1
;   fanSpeeds,0
;   blipFanToFullPower,0
;   adjustSpeedForCooling,1
;   minSpeedLayerTime,15
;   minCoolingSpeedSlowdown,20
;   increaseFanForCooling,0
;   minFanLayerTime,45
;   maxCoolingFanSpeed,100
;   increaseFanForBridging,0
;   bridgingFanSpeed,100
;   use5D,1
;   relativeEdistances,1
;   allowEaxisZeroing,0
;   includeM10123,0
;   stickySupport,1
;   detectArcs,0
;   arcReplaceG2G3,0
;   arcRadialCompensation,1
;   gcodeXoffset,0
;   gcodeYoffset,0
;   gcodeZoffset,0
;   overrideMachineDefinition,1
;   machineTypeOverride,0
;   strokeXoverride,250
;   strokeYoverride,150
;   strokeZoverride,150
;   originOffsetXoverride,125
;   originOffsetYoverride,75
;   originOffsetZoverride,0
;   homeXdirOverride,1
;   homeYdirOverride,1
;   homeZdirOverride,-1
;   flipXoverride,1
;   flipYoverride,-1
;   flipZoverride,1
;   startingGcode,; **** Replicator 2X start.gcode ****,M73 P0 ; enable build progress,G162 X Y F3000 ; home XY maximum,G161 Z F1200 ; home Z minimum,G92 Z-5 ; set Z to -5,G1 Z0 ; move Z to 0,G161 Z F100 ; home Z slowly,M132 X Y Z A B ; recall home offsets,M135 T0 ; load right extruder offsets,G1 X-130 Y-75 Z30 F9000 ; move to wait position off table,G130 X20 Y20 Z20 A20 B20 ; lower stepper Vrefs while heating,M126 S[fan_speed_pwm],M140 S[bed0_temperature] T0,M134 T0 ; stabilize bed temperature,M104 S[extruder1_temperature] T1,M133 T1 ; stabilize extruder temperature,G130 X127 Y127 Z40 A127 B127 ; default stepper Vrefs,G92 A0 B0 ; zero extruders,M135 T1 ; load left extruder offsets,G1 Z0.4 ; position nozzle,G1 E25 F300 ; purge nozzle,G1 X-125 Y-70 Z0.15 F1200 ; slow wipe,G1 X-120 Y-65 Z0.5 F1200 ; lift,G92 A0 B0 ; zero extruders,M73 P1 ;@body (notify GPX body has started),; **** end of start.gcode ****
;   layerChangeGcode,
;   toolChangeGcode,
;   endingGcode,; **** Replicator 2X end.gcode ****,M73 P100 ; end build progress,G0 Z155 F1000 ; send Z axis to bottom of machine,M140 S0 T0 ; cool down HBP,M104 S0 T0 ; cool down right extruder,M104 S0 T1 ; cool down left extruder,M127 ; stop blower fan,G162 X Y F3000 ; home XY maximum,M18 ; disable stepper,M72 P1 ; play Ta-Da song,; **** end of end.gcode ****
;   createX3G,1
;   celebration,0
;   celebrationSong,Entertainer
;   postProcessing,
;   defaultSpeed,4800
;   outlineUnderspeed,0.5
;   supportUnderspeed,0.8
;   rapidXYspeed,9000
;   rapidZspeed,1200
;   minBridgingArea,50
;   bridgingExtrusionMultiplier,1
;   bridgingSpeedMultiplier,0.8
;   filamentDiameter,1.71
;   filamentPricePerKg,46
;   useMinPrintHeight,0
;   minPrintHeight,0
;   useMaxPrintHeight,0
;   maxPrintHeight,0
;   overlapRemoval,0
;   overlapRemovalPercentage,0.3
;   useDiaphragm,0
;   diaphragmLayerInterval,20
;   robustSlicing,1
;   mergeAllIntoSolid,0
;   onlyRetractWhenCrossingOutline,1
;   retractBetweenLayers,1
;   useRetractionMinTravel,0
;   retractionMinTravel,3
;   useRetractionOozeRate,0
;   retractionOozeRate,100
;   onlyWipeOutlines,1
G90 ; use absolute coordinates
M83 ; relative extrusion distances
G21 ; set units to millimeters
; **** Replicator 2X start.gcode ****
M73 P0 ; enable build progress
G162 X Y F3000 ; home XY maximum
G161 Z F1200 ; home Z minimum
G92 Z-5 ; set Z to -5
G1 Z0 ; move Z to 0
G161 Z F100 ; home Z slowly
M132 X Y Z A B ; recall home offsets
M135 T0 ; load right extruder offsets
G1 X-130 Y-75 Z30 F9000 ; move to wait position off table
G130 X20 Y20 Z20 A20 B20 ; lower stepper Vrefs while heating
M127
M140 S130 T0
M134 T0 ; stabilize bed temperature
M104 S232 T1
M133 T1 ; stabilize extruder temperature
G130 X127 Y127 Z40 A127 B127 ; default stepper Vrefs
G92 A0 B0 ; zero extruders
M135 T1 ; load left extruder offsets
G1 Z0.4 ; position nozzle
G1 E25 F300 ; purge nozzle
G1 X-125 Y-70 Z0.15 F1200 ; slow wipe
G1 X-120 Y-65 Z0.5 F1200 ; lift
G92 A0 B0 ; zero extruders
M73 P1 ;@body (notify GPX body has started)
; **** end of start.gcode ****
G1 E-1.2 F1200
; layer 1, Z = 0.45
M105
M105
M105
M135 T1
; tool H0.5 W0.4
G0 X-5.5 Y-25.106 F9000
G0 Z0.45 F1200
G1 E1.2 F360
G1 X6.651 Y-25.106 E1.0581 F2400
G1 X6.651 Y-32.736 E0.6645
G1 X15.274 Y-41.359 E1.0621
G1 X43.242 Y-41.359 E2.4355
G1 X57.584 Y-29.34 E1.6296
G1 X58.522 Y-28.479 E0.1109
G1 X59.488 Y-27.416 E0.1252
G1 X60.365 Y-26.276 E0.1252
G1 X61.153 Y-25.034 E0.1281
G1 X61.812 Y-23.757 E0.1251
G1 X62.365 Y-22.423 E0.1258
G1 X62.796 Y-21.043 E0.1259
G1 X63.114 Y-19.622 E0.1268
G1 X63.298 Y-18.174 E0.1271
G1 X63.36 Y-16.736 E0.1254
G1 X63.294 Y-15.298 E0.1253
G1 X63.105 Y-13.851 E0.1271
G1 X62.784 Y-12.431 E0.1268
G1 X62.35 Y-11.053 E0.1258
G1 X61.794 Y-9.725 E0.1254
G1 X61.132 Y-8.448 E0.1253
G1 X60.335 Y-7.201 E0.1288
G1 X59.455 Y-6.065 E0.1251
G1 X58.493 Y-5.012 E0.1242
G1 X57.579 Y-4.175 E0.108
G1 X51.468 Y0.946 E0.6943
G1 X56.315 Y5.008 E0.5507
G1 X57.253 Y5.869 E0.1109
G1 X58.219 Y6.932 E0.1252
G1 X59.096 Y8.073 E0.1252
G1 X59.884 Y9.314 E0.1281
G1 X60.543 Y10.591 E0.1251
G1 X61.097 Y11.925 E0.1258
G1 X61.528 Y13.305 E0.1258
G1 X61.845 Y14.726 E0.1268
G1 X62.03 Y16.174 E0.1271
G1 X62.091 Y17.612 E0.1254
G1 X62.026 Y19.049 E0.1253
G1 X61.837 Y20.497 E0.1271
G1 X61.516 Y21.917 E0.1268
G1 X61.081 Y23.295 E0.1258
G1 X60.525 Y24.623 E0.1254
G1 X59.863 Y25.901 E0.1253
G1 X59.067 Y27.147 E0.1288
G1 X58.187 Y28.283 E0.1251
G1 X57.225 Y29.336 E0.1242
G1 X56.31 Y30.173 E0.108
G1 X41.973 Y42.189 E1.6291
G1 X14.006 Y42.189 E2.4356
G1 X5.382 Y33.565 E1.0621
G1 X5.382 Y26.092 E0.6508
G1 X-5.079 Y26.092 E0.911
G1 X-5.079 Y34.327 E0.7171
G1 X-13.703 Y42.95 E1.0621
G1 X-41.67 Y42.95 E2.4355
G1 X-56.012 Y30.931 E1.6296
G1 X-56.95 Y30.07 E0.1109
G1 X-57.916 Y29.006 E0.1252
G1 X-58.793 Y27.866 E0.1252
G1 X-59.581 Y26.624 E0.1281
G1 X-60.24 Y25.347 E0.1251
G1 X-60.794 Y24.014 E0.1258
G1 X-61.224 Y22.634 E0.1258
G1 X-61.542 Y21.213 E0.1268
G1 X-61.726 Y19.765 E0.1271
G1 X-61.788 Y18.327 E0.1254
G1 X-61.722 Y16.889 E0.1253
G1 X-61.534 Y15.442 E0.1271
G1 X-61.212 Y14.022 E0.1268
G1 X-60.778 Y12.644 E0.1258
G1 X-60.222 Y11.315 E0.1254
G1 X-59.56 Y10.038 E0.1253
G1 X-58.763 Y8.792 E0.1288
G1 X-57.883 Y7.656 E0.1251
G1 X-56.921 Y6.603 E0.1242
G1 X-56.007 Y5.766 E0.108
G1 X-50.069 Y0.789 E0.6747
G1 X-56.433 Y-4.543 E0.723
G1 X-57.37 Y-5.404 E0.1109
G1 X-58.337 Y-6.468 E0.1252
G1 X-59.213 Y-7.608 E0.1252
G1 X-60.002 Y-8.85 E0.1281
G1 X-60.661 Y-10.127 E0.1251
G1 X-61.214 Y-11.461 E0.1257
G1 X-61.645 Y-12.84 E0.1259
G1 X-61.962 Y-14.261 E0.1268
G1 X-62.147 Y-15.709 E0.1271
G1 X-62.209 Y-17.148 E0.1254
G1 X-62.143 Y-18.585 E0.1253
G1 X-61.954 Y-20.032 E0.1271
G1 X-61.633 Y-21.452 E0.1268
G1 X-61.198 Y-22.83 E0.1258
G1 X-60.642 Y-24.159 E0.1254
G1 X-59.98 Y-25.436 E0.1253
G1 X-59.184 Y-26.683 E0.1289
G1 X-58.304 Y-27.818 E0.1251
G1 X-57.342 Y-28.871 E0.1242
G1 X-56.427 Y-29.708 E0.108
G1 X-42.09 Y-41.724 E1.6291
G1 X-14.123 Y-41.724 E2.4356
G1 X-5.5 Y-33.101 E1.0621
G1 X-5.5 Y-25.106 E0.6962
G0 X-5.9 Y-24.706 F9000
G1 X7.051 Y-24.706 E1.1278 F2400
G1 X7.051 Y-32.57 E0.6849
G1 X15.44 Y-40.959 E1.0332
G1 X43.096 Y-40.959 E2.4084
G1 X57.32 Y-29.04 E1.6161
G1 X58.238 Y-28.197 E0.1085
G1 X59.181 Y-27.159 E0.1222
G1 X60.037 Y-26.046 E0.1222
G1 X60.806 Y-24.834 E0.125
G1 X61.449 Y-23.588 E0.1221
G1 X61.989 Y-22.286 E0.1227
G1 X62.41 Y-20.94 E0.1228
G1 X62.719 Y-19.553 E0.1237
G1 X62.899 Y-18.14 E0.124
G1 X62.959 Y-16.736 E0.1224
G1 X62.895 Y-15.334 E0.1223
G1 X62.711 Y-13.921 E0.124
G1 X62.398 Y-12.536 E0.1237
G1 X61.974 Y-11.191 E0.1228
G1 X61.431 Y-9.894 E0.1224
G1 X60.785 Y-8.648 E0.1223
G1 X60.008 Y-7.432 E0.1257
G1 X59.149 Y-6.323 E0.1221
G1 X58.21 Y-5.295 E0.1212
G1 X57.315 Y-4.476 E0.1056
G1 X50.846 Y0.946 E0.7351
G1 X56.051 Y5.308 E0.5915
G1 X56.969 Y6.151 E0.1085
G1 X57.912 Y7.189 E0.1222
G1 X58.768 Y8.302 E0.1222
G1 X59.537 Y9.514 E0.125
G1 X60.18 Y10.76 E0.1221
G1 X60.72 Y12.062 E0.1227
G1 X61.141 Y13.408 E0.1228
G1 X61.45 Y14.795 E0.1237
G1 X61.631 Y16.208 E0.1241
G1 X61.691 Y17.612 E0.1224
G1 X61.627 Y19.014 E0.1223
G1 X61.443 Y20.427 E0.124
G1 X61.129 Y21.812 E0.1237
G1 X60.705 Y23.157 E0.1228
G1 X60.162 Y24.454 E0.1224
G1 X59.516 Y25.7 E0.1223
G1 X58.739 Y26.917 E0.1257
G1 X57.88 Y28.025 E0.1221
G1 X56.941 Y29.053 E0.1212
G1 X56.047 Y29.872 E0.1056
G1 X41.828 Y41.789 E1.6156
G1 X14.171 Y41.789 E2.4085
G1 X5.782 Y33.4 E1.0332
G1 X5.782 Y25.692 E0.6712
G1 X-5.479 Y25.692 E0.9807
G1 X-5.479 Y34.161 E0.7375
G1 X-13.868 Y42.55 E1.0332
G1 X-41.524 Y42.55 E2.4084
G1 X-55.748 Y30.63 E1.6162
G1 X-56.666 Y29.788 E0.1085
G1 X-57.609 Y28.75 E0.1221
G1 X-58.465 Y27.637 E0.1222
G1 X-59.234 Y26.425 E0.125
G1 X-59.877 Y25.179 E0.1221
G1 X-60.417 Y23.877 E0.1227
G1 X-60.838 Y22.531 E0.1228
G1 X-61.147 Y21.144 E0.1237
G1 X-61.328 Y19.731 E0.1241
G1 X-61.388 Y18.327 E0.1224
G1 X-61.324 Y16.924 E0.1223
G1 X-61.139 Y15.512 E0.124
G1 X-60.826 Y14.127 E0.1237
G1 X-60.402 Y12.782 E0.1228
G1 X-59.859 Y11.485 E0.1224
G1 X-59.213 Y10.239 E0.1222
G1 X-58.436 Y9.022 E0.1257
G1 X-57.577 Y7.914 E0.1221
G1 X-56.638 Y6.886 E0.1212
G1 X-55.743 Y6.067 E0.1057
G1 X-49.447 Y0.789 E0.7155
G1 X-56.169 Y-4.844 E0.7638
G1 X-57.086 Y-5.687 E0.1085
G1 X-58.03 Y-6.725 E0.1221
G1 X-58.885 Y-7.837 E0.1222
G1 X-59.655 Y-9.049 E0.125
G1 X-60.298 Y-10.296 E0.1221
G1 X-60.838 Y-11.597 E0.1227
G1 X-61.258 Y-12.943 E0.1228
G1 X-61.568 Y-14.33 E0.1237
G1 X-61.748 Y-15.743 E0.1241
G1 X-61.808 Y-17.147 E0.1224
G1 X-61.744 Y-18.55 E0.1223
G1 X-61.56 Y-19.962 E0.124
G1 X-61.246 Y-21.348 E0.1237
G1 X-60.822 Y-22.692 E0.1228
G1 X-60.28 Y-23.989 E0.1224
G1 X-59.634 Y-25.236 E0.1222
G1 X-58.857 Y-26.452 E0.1257
G1 X-57.998 Y-27.56 E0.1221
G1 X-57.059 Y-28.588 E0.1212
G1 X-56.164 Y-29.408 E0.1057
G1 X-41.945 Y-41.324 E1.6156
G1 X-14.289 Y-41.324 E2.4085
G1 X-5.9 Y-32.935 E1.0332
G1 X-5.9 Y-24.706 E0.7166
; tool H0.5 W0.8
G0 X-9.677 Y-20.106 F9000
G1 X9.611 Y-20.106 E3.3595 F600
G1 X10.399 Y-20.056 E0.1375
G1 X11.651 Y-19.783 E0.2231
G1 X11.651 Y-30.665 E1.8952
G1 X17.346 Y-36.359 E1.4027
G1 X41.424 Y-36.359 E4.1937
G1 X54.285 Y-25.581 E2.9228
G1 X54.973 Y-24.95 E0.1626
G1 X55.649 Y-24.205 E0.1752
G1 X56.264 Y-23.406 E0.1756
G1 X56.812 Y-22.542 E0.1782
G1 X57.273 Y-21.649 E0.1752
G1 X57.66 Y-20.716 E0.1759
G1 X57.962 Y-19.751 E0.1761
G1 X58.183 Y-18.76 E0.1769
G1 X58.312 Y-17.75 E0.1772
G1 X58.355 Y-16.743 E0.1756
G1 X58.309 Y-15.737 E0.1755
G1 X58.178 Y-14.728 E0.1772
G1 X57.953 Y-13.737 E0.1769
G1 X57.649 Y-12.774 E0.176
G1 X57.26 Y-11.843 E0.1756
G1 X56.797 Y-10.949 E0.1754
G1 X56.244 Y-10.084 E0.1789
G1 X55.627 Y-9.288 E0.1754
G1 X54.952 Y-8.55 E0.1742
G1 X54.283 Y-7.937 E0.1581
G1 X43.684 Y0.946 E2.4087
G1 X53.017 Y8.767 E2.1208
G1 X53.704 Y9.399 E0.1626
G1 X54.381 Y10.143 E0.1752
G1 X54.995 Y10.942 E0.1756
G1 X55.543 Y11.806 E0.1781
G1 X56.005 Y12.7 E0.1752
G1 X56.392 Y13.633 E0.1759
G1 X56.693 Y14.597 E0.176
G1 X56.914 Y15.589 E0.1769
G1 X57.043 Y16.598 E0.1772
G1 X57.086 Y17.605 E0.1757
G1 X57.04 Y18.611 E0.1754
G1 X56.909 Y19.62 E0.1772
G1 X56.685 Y20.611 E0.1769
G1 X56.381 Y21.574 E0.176
G1 X55.992 Y22.505 E0.1756
G1 X55.528 Y23.399 E0.1754
G1 X54.975 Y24.264 E0.1788
G1 X54.358 Y25.06 E0.1754
G1 X53.684 Y25.799 E0.1742
G1 X53.014 Y26.411 E0.1581
G1 X40.155 Y37.189 E2.9223
G1 X16.077 Y37.189 E4.1937
G1 X10.382 Y31.494 E1.4027
G1 X10.382 Y21.039 E1.8209
G1 X9.644 Y21.092 E0.1289
G1 X-10.079 Y21.092 E3.4352
G1 X-10.079 Y32.256 E1.9444
G1 X-15.774 Y37.95 E1.4027
G1 X-39.852 Y37.95 E4.1937
G1 X-52.714 Y27.172 E2.9228
G1 X-53.401 Y26.54 E0.1626
G1 X-54.078 Y25.796 E0.1752
G1 X-54.692 Y24.997 E0.1756
G1 X-55.24 Y24.133 E0.1782
G1 X-55.701 Y23.239 E0.1752
G1 X-56.089 Y22.306 E0.1759
G1 X-56.39 Y21.342 E0.176
G1 X-56.611 Y20.35 E0.1769
G1 X-56.74 Y19.341 E0.1771
G1 X-56.783 Y18.334 E0.1757
G1 X-56.737 Y17.327 E0.1754
G1 X-56.606 Y16.319 E0.1772
G1 X-56.382 Y15.328 E0.1769
G1 X-56.077 Y14.364 E0.176
G1 X-55.688 Y13.434 E0.1756
G1 X-55.225 Y12.54 E0.1754
G1 X-54.672 Y11.675 E0.1788
G1 X-54.055 Y10.879 E0.1754
G1 X-53.38 Y10.14 E0.1742
G1 X-52.711 Y9.527 E0.1581
G1 X-42.285 Y0.789 E2.3694
G1 X-53.134 Y-8.302 E2.4654
G1 X-53.822 Y-8.934 E0.1626
G1 X-54.498 Y-9.678 E0.1752
G1 X-55.113 Y-10.477 E0.1756
G1 X-55.661 Y-11.341 E0.1782
G1 X-56.122 Y-12.235 E0.1752
G1 X-56.509 Y-13.168 E0.1759
G1 X-56.81 Y-14.133 E0.176
G1 X-57.032 Y-15.124 E0.1769
G1 X-57.161 Y-16.133 E0.1771
G1 X-57.204 Y-17.141 E0.1757
G1 X-57.158 Y-18.147 E0.1754
G1 X-57.026 Y-19.155 E0.1772
G1 X-56.802 Y-20.146 E0.1769
G1 X-56.498 Y-21.11 E0.176
G1 X-56.109 Y-22.04 E0.1756
G1 X-55.645 Y-22.934 E0.1754
G1 X-55.093 Y-23.799 E0.1788
G1 X-54.476 Y-24.595 E0.1754
G1 X-53.801 Y-25.334 E0.1742
G1 X-53.132 Y-25.947 E0.1581
G1 X-40.272 Y-36.724 E2.9223
G1 X-16.194 Y-36.724 E4.1937
G1 X-10.5 Y-31.029 E1.4027
G1 X-10.5 Y-20.05 E1.9122
G1 X-9.677 Y-20.106 E0.1435
G0 X-2.677 Y-20.106 F600
G0 X12.451 Y-20.824 F9000
G1 X12.451 Y-23.11 E0.3981 F600
G1 X55.483 Y-23.11 E7.4949
G1 X55.035 Y-23.691 E0.1278
G1 X54.405 Y-24.385 E0.1632
G1 X53.758 Y-24.98 E0.1531
G1 X53.261 Y-25.396 E0.1128
G1 X12.451 Y-25.396 E7.108
G1 X12.451 Y-27.681 E0.3981
G1 X50.534 Y-27.681 E6.6329
G1 X47.806 Y-29.967 E0.6198
G1 X12.451 Y-29.967 E6.1579
G1 X12.451 Y-30.333 E0.0638
G1 X14.37 Y-32.253 E0.4728
G1 X45.079 Y-32.253 E5.3485
G1 X42.351 Y-34.538 E0.6198
G1 X16.656 Y-34.538 E4.4753
G0 X11.182 Y20.319 F9000
G1 X55.931 Y20.319 E7.7939 F600
G1 X55.912 Y20.402 E0.0148
G1 X55.629 Y21.299 E0.1639
G1 X55.266 Y22.166 E0.1636
G1 X55.039 Y22.604 E0.0861
G1 X11.182 Y22.604 E7.6386
G1 X11.182 Y24.89 E0.3981
G1 X53.43 Y24.89 E7.3584
G1 X53.117 Y25.233 E0.0808
G1 X52.487 Y25.81 E0.1488
G1 X50.857 Y27.176 E0.3705
G1 X11.182 Y27.176 E6.9102
G1 X11.182 Y29.462 E0.3981
G1 X48.129 Y29.462 E6.4352
G1 X45.402 Y31.747 E0.6198
G1 X11.767 Y31.747 E5.8583
G1 X14.052 Y34.033 E0.563
G1 X42.675 Y34.033 E4.9852
G1 X39.948 Y36.319 E0.6198
G1 X16.338 Y36.319 E4.1121
G1 X16.408 Y36.389 E0.0172
G1 X39.864 Y36.389 E4.0853
G1 X39.948 Y36.319 E0.019
G0 X-15.274 Y36.319 F9000
G1 X-16.105 Y37.15 E0.2048 F600
G1 X-39.561 Y37.15 E4.0853
