; G-Code generated by Simplify3D(TM) Version 2.1.2
; Dec 3, 2014 at 4:48:36 PM
; Settings Summary
;   processName,Process1
;   applyToModels,zcarraigetop
;   printMaterial,ABS
;   printQuality,High
;   extruderName,Right Extruder,Left Extruder
;   extruderToolheadNumber,0,1
;   extruderDiameter,0.4,0.4
;   extruderAutoWidth,0,0
;   extruderWidth,0.4,0.4
;   extrusionMultiplier,1,1
;   extruderUseRetract,1,1
;   extruderRetractionDistance,1,1.2
;   extruderExtraRestartDistance,0,0
;   extruderRetractionZLift,0,0
;   extruderRetractionSpeed,1200,1200
;   extruderUseCoasting,0,0
;   extruderCoastingDistance,0.2,0.2
;   extruderUseWipe,0,1
;   extruderWipeDistance,5,7
;   primaryExtruder,1
;   layerHeight,0.25
;   topSolidLayers,3
;   bottomSolidLayers,3
;   perimeterOutlines,2
;   printPerimetersInsideOut,1
;   startPointOption,2
;   startPointOriginX,0
;   startPointOriginY,0
;   startPointOriginZ,300
;   sequentialIslands,0
;   spiralVaseMode,0
;   firstLayerHeightRatio,0.9
;   firstLayerUnderspeed,0.5
;   useRaft,1
;   raftLayers,3
;   raftOffset,3
;   raftSeparationDistance,0.14
;   raftInfill,85
;   disableRaftBaseLayers,0
;   useSkirt,1
;   skirtLayers,2
;   skirtOutlines,2
;   skirtOffset,4
;   infillExtruder,1
;   externalInfillPattern,Rectilinear
;   infillPercentage,20
;   outlineOverlapPercentage,23
;   minInfillLength,2.5
;   infillLayerInterval,1
;   randomInfillStartPoint,1
;   infillAngles,45,-45
;   generateSupport,0
;   supportExtruder,1
;   supportInfill,40
;   supportExtraInflation,0
;   supportLayerInterval,1
;   supportHorizontalPartOffset,0.3
;   supportUpperSeparationLayers,1
;   supportLowerSeparationLayers,1
;   supportGridSpacing,4
;   maxOverhangAngle,45
;   supportAngles,0
;   temperatureName,Right Extruder,Left Extruder,Heated Build Platform
;   temperatureNumber,0,1,0
;   temperatureSetpointCount,1,1,1
;   temperatureSetpointLayers,1,1,1
;   temperatureSetpointTemperatures,0,232,130
;   temperatureStabilizeAtStartup,1,1,1
;   temperatureHeatedBed,0,0,1
;   temperatureRelayBetweenLayers,1,1,1
;   temperatureRelayBetweenLoops,0,0,0
;   fanLayers,1
;   fanSpeeds,0
;   blipFanToFullPower,0
;   adjustSpeedForCooling,1
;   minSpeedLayerTime,15
;   minCoolingSpeedSlowdown,20
;   increaseFanForCooling,0
;   minFanLayerTime,45
;   maxCoolingFanSpeed,100
;   increaseFanForBridging,0
;   bridgingFanSpeed,100
;   use5D,1
;   relativeEdistances,1
;   allowEaxisZeroing,0
;   includeM10123,0
;   stickySupport,1
;   detectArcs,0
;   arcReplaceG2G3,0
;   arcRadialCompensation,1
;   gcodeXoffset,0
;   gcodeYoffset,0
;   gcodeZoffset,0
;   overrideMachineDefinition,1
;   machineTypeOverride,0
;   strokeXoverride,250
;   strokeYoverride,150
;   strokeZoverride,150
;   originOffsetXoverride,125
;   originOffsetYoverride,75
;   originOffsetZoverride,0
;   homeXdirOverride,1
;   homeYdirOverride,1
;   homeZdirOverride,-1
;   flipXoverride,1
;   flipYoverride,-1
;   flipZoverride,1
;   startingGcode,; **** Replicator 2X start.gcode ****,M73 P0 ; enable build progress,G162 X Y F3000 ; home XY maximum,G161 Z F1200 ; home Z minimum,G92 Z-5 ; set Z to -5,G1 Z0 ; move Z to 0,G161 Z F100 ; home Z slowly,M132 X Y Z A B ; recall home offsets,M135 T0 ; load right extruder offsets,G1 X-130 Y-75 Z30 F9000 ; move to wait position off table,G130 X20 Y20 Z20 A20 B20 ; lower stepper Vrefs while heating,M126 S[fan_speed_pwm],M140 S[bed0_temperature] T0,M134 T0 ; stabilize bed temperature,M104 S[extruder1_temperature] T1,M133 T1 ; stabilize extruder temperature,G130 X127 Y127 Z40 A127 B127 ; default stepper Vrefs,G92 A0 B0 ; zero extruders,M135 T1 ; load left extruder offsets,G1 Z0.4 ; position nozzle,G1 E25 F300 ; purge nozzle,G1 X-125 Y-70 Z0.15 F1200 ; slow wipe,G1 X-120 Y-65 Z0.5 F1200 ; lift,G92 A0 B0 ; zero extruders,M73 P1 ;@body (notify GPX body has started),; **** end of start.gcode ****
;   layerChangeGcode,
;   toolChangeGcode,
;   endingGcode,; **** Replicator 2X end.gcode ****,M73 P100 ; end build progress,G0 Z155 F1000 ; send Z axis to bottom of machine,M140 S0 T0 ; cool down HBP,M104 S0 T0 ; cool down right extruder,M104 S0 T1 ; cool down left extruder,M127 ; stop blower fan,G162 X Y F3000 ; home XY maximum,M18 ; disable stepper,M72 P1 ; play Ta-Da song,; **** end of end.gcode ****
;   createX3G,1
;   celebration,0
;   celebrationSong,Entertainer
;   postProcessing,
;   defaultSpeed,4800
;   outlineUnderspeed,0.5
;   supportUnderspeed,0.8
;   rapidXYspeed,9000
;   rapidZspeed,1200
;   minBridgingArea,50
;   bridgingExtrusionMultiplier,1
;   bridgingSpeedMultiplier,0.8
;   filamentDiameter,1.71
;   filamentPricePerKg,46
;   useMinPrintHeight,0
;   minPrintHeight,0
;   useMaxPrintHeight,0
;   maxPrintHeight,0
;   overlapRemoval,0
;   overlapRemovalPercentage,0.3
;   useDiaphragm,0
;   diaphragmLayerInterval,20
;   robustSlicing,1
;   mergeAllIntoSolid,0
;   onlyRetractWhenCrossingOutline,1
;   retractBetweenLayers,1
;   useRetractionMinTravel,0
;   retractionMinTravel,3
;   useRetractionOozeRate,0
;   retractionOozeRate,100
;   onlyWipeOutlines,1
G90 ; use absolute coordinates
M83 ; relative extrusion distances
G21 ; set units to millimeters
; **** Replicator 2X start.gcode ****
M73 P0 ; enable build progress
G162 X Y F3000 ; home XY maximum
G161 Z F1200 ; home Z minimum
G92 Z-5 ; set Z to -5
G1 Z0 ; move Z to 0
G161 Z F100 ; home Z slowly
M132 X Y Z A B ; recall home offsets
M135 T0 ; load right extruder offsets
G1 X-130 Y-75 Z30 F9000 ; move to wait position off table
G130 X20 Y20 Z20 A20 B20 ; lower stepper Vrefs while heating
M127
M140 S130 T0
M134 T0 ; stabilize bed temperature
M104 S232 T1
M133 T1 ; stabilize extruder temperature
G130 X127 Y127 Z40 A127 B127 ; default stepper Vrefs
G92 A0 B0 ; zero extruders
M135 T1 ; load left extruder offsets
G1 Z0.4 ; position nozzle
G1 E25 F300 ; purge nozzle
G1 X-125 Y-70 Z0.15 F1200 ; slow wipe
G1 X-120 Y-65 Z0.5 F1200 ; lift
G92 A0 B0 ; zero extruders
M73 P1 ;@body (notify GPX body has started)
; **** end of start.gcode ****
G1 E-1.2 F1200
; layer 1, Z = 0.45
M105
M105
M105
M135 T1
; tool H0.5 W0.4
G0 X-7.997 Y-37.923 F9000
G0 Z0.45 F1200
G1 E1.2 F360
G1 X2.657 Y-39.386 E0.9365 F2400
G1 X2.657 Y-54.017 E1.2741
G1 X41.857 Y-54.017 E3.4138
G1 X41.857 Y-38.445 E1.3561
G1 X45.602 Y-36.683 E0.3604
G1 X50.19 Y-33.772 E0.4732
G1 X54.377 Y-30.308 E0.4732
G1 X58.097 Y-26.348 E0.4732
G1 X61.291 Y-21.951 E0.4733
G1 X63.909 Y-17.19 E0.4732
G1 X65.909 Y-12.138 E0.4732
G1 X67.261 Y-6.873 E0.4733
G1 X67.941 Y-1.482 E0.4733
G1 X67.941 Y3.949 E0.473
G1 X67.261 Y9.341 E0.4733
G1 X65.909 Y14.605 E0.4733
G1 X63.909 Y19.657 E0.4732
G1 X61.291 Y24.419 E0.4732
G1 X58.097 Y28.815 E0.4733
G1 X54.377 Y32.775 E0.4732
G1 X50.19 Y36.239 E0.4732
G1 X45.602 Y39.151 E0.4732
G1 X40.687 Y41.464 E0.4731
G1 X35.519 Y43.143 E0.4732
G1 X30.181 Y44.161 E0.4733
G1 X24.757 Y44.502 E0.4732
G1 X19.585 Y44.177 E0.4513
G1 X-7.995 Y40.39 E2.4243
G1 X-9.681 Y40.939 E0.1545
G1 X-12.195 Y41.418 E0.2229
G1 X-14.741 Y41.577 E0.2222
G1 X-17.289 Y41.418 E0.2223
G1 X-19.803 Y40.939 E0.2229
G1 X-22.234 Y40.148 E0.2226
G1 X-24.543 Y39.061 E0.2223
G1 X-26.438 Y37.858 E0.1955
G1 X-67.994 Y32.152 E3.6529
G1 X-69.582 Y31.804 E0.1416
G1 X-71.401 Y31.128 E0.169
G1 X-73.11 Y30.193 E0.1696
G1 X-74.664 Y29.03 E0.169
G1 X-76.039 Y27.656 E0.1693
G1 X-77.202 Y26.102 E0.169
G1 X-78.136 Y24.393 E0.1696
G1 X-78.815 Y22.569 E0.1694
G1 X-79.23 Y20.664 E0.1698
G1 X-79.342 Y19.07 E0.1392
G1 X-79.341 Y-16.611 E3.1073
G1 X-79.228 Y-18.215 E0.14
G1 X-78.807 Y-20.121 E0.17
G1 X-78.136 Y-21.925 E0.1676
G1 X-77.202 Y-23.634 E0.1696
G1 X-76.039 Y-25.188 E0.169
G1 X-74.669 Y-26.558 E0.1688
G1 X-73.103 Y-27.733 E0.1705
G1 X-71.386 Y-28.665 E0.1701
G1 X-69.582 Y-29.339 E0.1677
G1 X-67.986 Y-29.686 E0.1423
G1 X-26.438 Y-35.39 E3.6522
G1 X-24.543 Y-36.594 E0.1955
G1 X-22.234 Y-37.68 E0.2223
G1 X-19.803 Y-38.471 E0.2226
G1 X-17.289 Y-38.95 E0.2229
G1 X-14.741 Y-39.109 E0.2223
G1 X-12.195 Y-38.95 E0.2222
G1 X-9.681 Y-38.471 E0.2229
G1 X-7.997 Y-37.923 E0.1543
G0 X-8.033 Y-37.514 F9000
G1 X3.057 Y-39.037 E0.9749 F2400
G1 X3.057 Y-53.617 E1.2697
G1 X41.457 Y-53.617 E3.3441
G1 X41.457 Y-38.191 E1.3433
G1 X45.409 Y-36.332 E0.3803
G1 X49.955 Y-33.447 E0.4688
G1 X54.102 Y-30.016 E0.4688
G1 X57.788 Y-26.092 E0.4688
G1 X60.952 Y-21.736 E0.4689
G1 X63.546 Y-17.019 E0.4688
G1 X65.528 Y-12.014 E0.4688
G1 X66.867 Y-6.798 E0.4689
G1 X67.541 Y-1.457 E0.4689
G1 X67.541 Y3.924 E0.4686
G1 X66.867 Y9.266 E0.4689
G1 X65.528 Y14.481 E0.4689
G1 X63.546 Y19.487 E0.4688
G1 X60.952 Y24.204 E0.4688
G1 X57.788 Y28.56 E0.4689
G1 X54.102 Y32.483 E0.4688
G1 X49.955 Y35.915 E0.4688
G1 X45.409 Y38.799 E0.4688
G1 X40.539 Y41.091 E0.4687
G1 X35.419 Y42.755 E0.4688
G1 X30.13 Y43.764 E0.4689
G1 X24.757 Y44.101 E0.4689
G1 X19.625 Y43.779 E0.4478
G1 X-8.031 Y39.981 E2.431
G1 X-9.781 Y40.551 E0.1602
G1 X-12.245 Y41.02 E0.2185
G1 X-14.741 Y41.176 E0.2178
G1 X-17.239 Y41.02 E0.2179
G1 X-19.703 Y40.551 E0.2185
G1 X-22.086 Y39.775 E0.2182
G1 X-24.35 Y38.71 E0.2179
G1 X-26.298 Y37.473 E0.2009
G1 X-67.924 Y31.758 E3.6591
G1 X-69.469 Y31.42 E0.1378
G1 X-71.234 Y30.763 E0.164
G1 X-72.893 Y29.856 E0.1646
G1 X-74.401 Y28.727 E0.164
G1 X-75.736 Y27.393 E0.1643
G1 X-76.864 Y25.885 E0.1641
G1 X-77.772 Y24.226 E0.1646
G1 X-78.43 Y22.456 E0.1644
G1 X-78.833 Y20.607 E0.1648
G1 X-78.942 Y19.056 E0.1355
G1 X-78.941 Y-16.597 E3.1049
G1 X-78.831 Y-18.157 E0.1362
G1 X-78.423 Y-20.007 E0.165
G1 X-77.772 Y-21.758 E0.1627
G1 X-76.864 Y-23.417 E0.1646
G1 X-75.736 Y-24.925 E0.1641
G1 X-74.406 Y-26.255 E0.1638
G1 X-72.887 Y-27.396 E0.1654
G1 X-71.22 Y-28.3 E0.1651
G1 X-69.469 Y-28.954 E0.1628
G1 X-67.916 Y-29.292 E0.1384
G1 X-26.298 Y-35.006 E3.6584
G1 X-24.35 Y-36.242 E0.2009
G1 X-22.086 Y-37.308 E0.2179
G1 X-19.703 Y-38.083 E0.2182
G1 X-17.239 Y-38.553 E0.2185
G1 X-14.741 Y-38.709 E0.2179
G1 X-12.245 Y-38.553 E0.2178
G1 X-9.781 Y-38.083 E0.2185
G1 X-8.033 Y-37.514 E0.1601
; tool H0.5 W0.8
G0 X-9.095 Y-33.023 F9000
G1 X-8.607 Y-32.792 E0.0941 F600
G1 X7.657 Y-35.025 E2.8593
G1 X7.657 Y-49.017 E2.4369
G1 X36.857 Y-49.017 E5.0858
G1 X36.857 Y-34.983 E2.4443
G1 X38.842 Y-34.338 E0.3635
G1 X43.189 Y-32.293 E0.8367
G1 X47.246 Y-29.719 E0.8368
G1 X50.947 Y-26.656 E0.8368
G1 X54.237 Y-23.154 E0.8368
G1 X57.061 Y-19.266 E0.8369
G1 X59.376 Y-15.056 E0.8368
G1 X61.145 Y-10.589 E0.8369
G1 X62.34 Y-5.935 E0.8369
G1 X62.941 Y-1.168 E0.8369
G1 X62.941 Y3.635 E0.8366
G1 X62.34 Y8.403 E0.8369
G1 X61.145 Y13.057 E0.8369
G1 X59.376 Y17.524 E0.8369
G1 X57.061 Y21.734 E0.8368
G1 X54.237 Y25.621 E0.8369
G1 X50.947 Y29.123 E0.8368
G1 X47.246 Y32.186 E0.8368
G1 X43.189 Y34.76 E0.8369
G1 X38.842 Y36.806 E0.8367
G1 X34.273 Y38.291 E0.8368
G1 X29.553 Y39.191 E0.8369
G1 X24.757 Y39.492 E0.8369
G1 X20.083 Y39.199 E0.8158
G1 X-8.605 Y35.259 E5.0435
G1 X-9.096 Y35.49 E0.0945
G1 X-10.928 Y36.087 E0.3355
G1 X-12.822 Y36.447 E0.3358
G1 X-14.742 Y36.567 E0.3351
G1 X-16.663 Y36.447 E0.3352
G1 X-18.557 Y36.087 E0.3358
G1 X-20.388 Y35.49 E0.3355
G1 X-22.13 Y34.671 E0.3352
G1 X-23.754 Y33.639 E0.3353
G1 X-24.421 Y33.088 E0.1507
G1 X-67.118 Y27.226 E7.5063
G1 X-68.169 Y26.995 E0.1874
G1 X-69.319 Y26.568 E0.2137
G1 X-70.399 Y25.977 E0.2144
G1 X-71.381 Y25.242 E0.2138
G1 X-72.25 Y24.373 E0.214
G1 X-72.986 Y23.391 E0.2137
G1 X-73.576 Y22.311 E0.2144
G1 X-74.005 Y21.158 E0.2141
G1 X-74.267 Y19.953 E0.2148
G1 X-74.342 Y18.894 E0.1849
G1 X-74.341 Y-16.436 E6.1535
G1 X-74.267 Y-17.497 E0.1852
G1 X-74 Y-18.703 E0.2153
G1 X-73.576 Y-19.843 E0.2118
G1 X-72.986 Y-20.923 E0.2144
G1 X-72.25 Y-21.906 E0.2138
G1 X-71.384 Y-22.772 E0.2134
G1 X-70.396 Y-23.514 E0.2152
G1 X-69.309 Y-24.103 E0.2154
G1 X-68.169 Y-24.53 E0.2119
G1 X-67.114 Y-24.759 E0.188
G1 X-24.422 Y-30.62 E7.5056
G1 X-23.754 Y-31.172 E0.1507
G1 X-22.129 Y-32.204 E0.3353
G1 X-20.388 Y-33.023 E0.3352
G1 X-18.557 Y-33.619 E0.3355
G1 X-16.663 Y-33.98 E0.3358
G1 X-14.742 Y-34.1 E0.3352
G1 X-12.822 Y-33.98 E0.3351
G1 X-10.928 Y-33.619 E0.3358
G1 X-9.095 Y-33.023 E0.3356
G0 X-8.607 Y-32.792 F600
G0 X-2.207 Y-33.671 F600
G0 X-0.363 Y-33.117 F9000
G1 X-8.733 Y-31.968 E1.4715 F600
G1 X-9.391 Y-32.277 E0.1267
G1 X-11.127 Y-32.843 E0.3181
G1 X-12.567 Y-33.117 E0.2552
G1 X-16.918 Y-33.117 E0.7579
G0 X8.457 Y-46.831 F9000
G1 X36.057 Y-46.831 E4.8071 F600
G1 X36.057 Y-44.545 E0.3981
G1 X8.457 Y-44.545 E4.8071
G1 X8.457 Y-42.26 E0.3981
G1 X36.057 Y-42.26 E4.8071
G1 X36.057 Y-39.974 E0.3981
G1 X8.457 Y-39.974 E4.8071
G1 X8.457 Y-37.688 E0.3981
G1 X36.057 Y-37.688 E4.8071
G1 X36.057 Y-35.402 E0.3981
G1 X8.457 Y-35.402 E4.8071
G1 X8.457 Y-34.328 E0.1872
G1 X-0.363 Y-33.117 E1.5506
G1 X39.559 Y-33.117 E6.9532
G1 X42.802 Y-31.59 E0.6244
G1 X43.999 Y-30.831 E0.2468
G1 X-22.799 Y-30.831 E11.6343
G1 X-23.283 Y-30.523 E0.1
G1 X-24.087 Y-29.859 E0.1816
G1 X-33.653 Y-28.545 E1.6818
G1 X47.409 Y-28.545 E14.1187
G1 X50.171 Y-26.26 E0.6245
G1 X-50.301 Y-26.26 E17.4994
G1 X-66.949 Y-23.974 E2.9268
G1 X52.369 Y-23.974 E20.7818
G1 X53.619 Y-22.643 E0.3181
G1 X54.313 Y-21.688 E0.2055
G1 X-71.336 Y-21.688 E21.8845
G1 X-71.644 Y-21.38 E0.0758
G1 X-72.311 Y-20.489 E0.1939
G1 X-72.846 Y-19.51 E0.1944
G1 X-72.886 Y-19.402 E0.02
G1 X55.973 Y-19.402 E22.4437
G1 X56.384 Y-18.837 E0.1217
G1 X57.33 Y-17.117 E0.3419
G1 X-73.491 Y-17.117 E22.7854
G1 X-73.541 Y-16.408 E0.1238
G1 X-73.541 Y-14.831 E0.2746
G1 X58.587 Y-14.831 E23.0129
G1 X58.65 Y-14.715 E0.023
G1 X59.51 Y-12.545 E0.4065
G1 X-73.541 Y-12.545 E23.1737
G1 X-73.541 Y-10.26 E0.3981
G1 X60.404 Y-10.26 E23.3294
G1 X60.99 Y-7.974 E0.411
G1 X-73.541 Y-7.974 E23.4316
G1 X-73.541 Y-5.688 E0.3981
G1 X61.565 Y-5.688 E23.5317
G1 X61.853 Y-3.402 E0.4013
G1 X-73.541 Y-3.402 E23.5819
G1 X-73.541 Y-1.117 E0.3981
G1 X62.141 Y-1.117 E23.6321
G1 X62.141 Y1.169 E0.3981
G1 X-73.541 Y1.169 E23.6321
G1 X-73.541 Y3.455 E0.3981
G1 X62.141 Y3.455 E23.6321
G1 X62.141 Y3.585 E0.0227
G1 X61.869 Y5.74 E0.3784
G1 X-73.541 Y5.74 E23.5848
G1 X-73.541 Y8.026 E0.3981
G1 X61.581 Y8.026 E23.5345
G1 X61.553 Y8.252 E0.0397
G1 X61.024 Y10.312 E0.3703
G1 X-73.541 Y10.312 E23.4375
G1 X-73.542 Y12.598 E0.3981
G1 X60.437 Y12.598 E23.3352
G1 X60.382 Y12.809 E0.038
G1 X59.561 Y14.883 E0.3886
G1 X-73.542 Y14.883 E23.1827
G1 X-73.542 Y17.169 E0.3981
G1 X58.656 Y17.169 E23.0251
G1 X58.65 Y17.183 E0.0026
G1 X57.401 Y19.455 E0.4516
G1 X-73.5 Y19.455 E22.7994
G1 X-73.473 Y19.84 E0.0672
G1 X-73.235 Y20.933 E0.1949
G1 X-72.935 Y21.74 E0.1501
G1 X56.067 Y21.74 E22.4685
G1 X54.407 Y24.026 E0.4921
G1 X-71.466 Y24.026 E21.9235
G1 X-70.856 Y24.636 E0.1501
G1 X-69.965 Y25.303 E0.1939
G1 X-68.986 Y25.838 E0.1944
G1 X-67.943 Y26.226 E0.1938
G1 X-67.551 Y26.312 E0.0698
G1 X52.491 Y26.312 E20.9079
G1 X50.399 Y28.539 E0.5322
G1 X50.328 Y28.598 E0.016
G1 X-51.245 Y28.598 E17.6911
G1 X-34.597 Y30.883 E2.9268
G1 X47.565 Y30.883 E14.3104
G1 X46.774 Y31.538 E0.1788
G1 X44.203 Y33.169 E0.5303
G1 X-23.003 Y33.169 E11.7054
G1 X-21.743 Y33.969 E0.2598
G1 X-20.093 Y34.745 E0.3176
G1 X-18.357 Y35.31 E0.318
G1 X-17.598 Y35.455 E0.1346
G1 X-11.886 Y35.455 E0.9948
G1 X-12.922 Y35.652 E0.1836
G1 X-14.741 Y35.766 E0.3176
G1 X-16.562 Y35.652 E0.3178
G1 X-17.598 Y35.455 E0.1836
G0 X-1.301 Y35.455 F9000
G1 X39.834 Y35.455 E7.1646 F600
G1 X38.547 Y36.06 E0.2478
G1 X34.073 Y37.514 E0.8193
G1 X32.887 Y37.74 E0.2103
G1 X15.344 Y37.74 E3.0555
G1 X20.162 Y38.402 E0.847
G1 X24.757 Y38.691 E0.8019
G1 X29.452 Y38.396 E0.8194
G1 X32.887 Y37.74 E0.6091
G1 E-1.2 F1200
; layer 2, Z = 0.95
M105
M105
M105
; tool H0.5 W0.4
G0 X35.519 Y43.143 F9000
G0 Z0.95 F1200
G1 E1.2 F1200
G1 X30.181 Y44.161 E0.4733 F4800
G1 X24.757 Y44.502 E0.4732
G1 X19.585 Y44.177 E0.4513
G1 X-7.995 Y40.39 E2.4243
G1 X-9.681 Y40.939 E0.1545
G1 X-12.195 Y41.418 E0.2229
G1 X-14.741 Y41.577 E0.2222
G1 X-17.289 Y41.418 E0.2223
G1 X-19.803 Y40.939 E0.2229
G1 X-22.234 Y40.148 E0.2226
G1 X-24.543 Y39.061 E0.2223
G1 X-26.438 Y37.858 E0.1955
G1 X-67.994 Y32.152 E3.6529
G1 X-69.582 Y31.804 E0.1416
G1 X-71.401 Y31.128 E0.169
G1 X-73.11 Y30.193 E0.1696
G1 X-74.664 Y29.03 E0.169
G1 X-76.039 Y27.656 E0.1693
G1 X-77.202 Y26.102 E0.169
G1 X-78.136 Y24.393 E0.1696
G1 X-78.815 Y22.569 E0.1694
