; G-Code generated by Simplify3D(TM) Version 2.1.2
; Dec 7, 2014 at 1:24:05 AM
; Settings Summary
;   processName,Cyclone
;   applyToModels,top
;   printMaterial,ABS
;   printQuality,High
;   extruderName,Right Extruder,Left Extruder
;   extruderToolheadNumber,0,1
;   extruderDiameter,0.4,0.4
;   extruderAutoWidth,0,0
;   extruderWidth,0.4,0.4
;   extrusionMultiplier,1,1
;   extruderUseRetract,1,1
;   extruderRetractionDistance,1,1.2
;   extruderExtraRestartDistance,0,0
;   extruderRetractionZLift,0,0
;   extruderRetractionSpeed,1200,1200
;   extruderUseCoasting,0,0
;   extruderCoastingDistance,0.2,0.2
;   extruderUseWipe,0,1
;   extruderWipeDistance,5,7
;   primaryExtruder,1
;   layerHeight,0.25
;   topSolidLayers,3
;   bottomSolidLayers,3
;   perimeterOutlines,2
;   printPerimetersInsideOut,1
;   startPointOption,2
;   startPointOriginX,0
;   startPointOriginY,0
;   startPointOriginZ,300
;   sequentialIslands,0
;   spiralVaseMode,0
;   firstLayerHeightRatio,0.9
;   firstLayerUnderspeed,0.5
;   useRaft,1
;   raftLayers,3
;   raftOffset,3
;   raftSeparationDistance,0.14
;   raftInfill,85
;   disableRaftBaseLayers,0
;   useSkirt,1
;   skirtLayers,2
;   skirtOutlines,2
;   skirtOffset,4
;   infillExtruder,1
;   externalInfillPattern,Rectilinear
;   infillPercentage,20
;   outlineOverlapPercentage,23
;   minInfillLength,2.5
;   infillLayerInterval,1
;   randomInfillStartPoint,1
;   infillAngles,45,-45
;   generateSupport,1
;   supportExtruder,1
;   supportInfill,40
;   supportExtraInflation,0
;   supportLayerInterval,1
;   supportHorizontalPartOffset,0.3
;   supportUpperSeparationLayers,1
;   supportLowerSeparationLayers,1
;   supportGridSpacing,4
;   maxOverhangAngle,45
;   supportAngles,0
;   temperatureName,Right Extruder,Left Extruder,Heated Build Platform
;   temperatureNumber,0,1,0
;   temperatureSetpointCount,1,1,1
;   temperatureSetpointLayers,1,1,1
;   temperatureSetpointTemperatures,0,232,130
;   temperatureStabilizeAtStartup,1,1,1
;   temperatureHeatedBed,0,0,1
;   temperatureRelayBetweenLayers,1,1,1
;   temperatureRelayBetweenLoops,0,0,0
;   fanLayers,1
;   fanSpeeds,0
;   blipFanToFullPower,0
;   adjustSpeedForCooling,1
;   minSpeedLayerTime,15
;   minCoolingSpeedSlowdown,20
;   increaseFanForCooling,0
;   minFanLayerTime,45
;   maxCoolingFanSpeed,100
;   increaseFanForBridging,0
;   bridgingFanSpeed,100
;   use5D,1
;   relativeEdistances,1
;   allowEaxisZeroing,0
;   includeM10123,0
;   stickySupport,1
;   detectArcs,0
;   arcReplaceG2G3,0
;   arcRadialCompensation,1
;   gcodeXoffset,0
;   gcodeYoffset,0
;   gcodeZoffset,0
;   overrideMachineDefinition,1
;   machineTypeOverride,0
;   strokeXoverride,250
;   strokeYoverride,150
;   strokeZoverride,150
;   originOffsetXoverride,125
;   originOffsetYoverride,75
;   originOffsetZoverride,0
;   homeXdirOverride,1
;   homeYdirOverride,1
;   homeZdirOverride,-1
;   flipXoverride,1
;   flipYoverride,-1
;   flipZoverride,1
;   startingGcode,; **** Replicator 2X start.gcode ****,M73 P0 ; enable build progress,G162 X Y F3000 ; home XY maximum,G161 Z F1200 ; home Z minimum,G92 Z-5 ; set Z to -5,G1 Z0 ; move Z to 0,G161 Z F100 ; home Z slowly,M132 X Y Z A B ; recall home offsets,M135 T0 ; load right extruder offsets,G1 X-130 Y-75 Z30 F9000 ; move to wait position off table,G130 X20 Y20 Z20 A20 B20 ; lower stepper Vrefs while heating,M126 S[fan_speed_pwm],M140 S[bed0_temperature] T0,M134 T0 ; stabilize bed temperature,M104 S[extruder1_temperature] T1,M133 T1 ; stabilize extruder temperature,G130 X127 Y127 Z40 A127 B127 ; default stepper Vrefs,G92 A0 B0 ; zero extruders,M135 T1 ; load left extruder offsets,G1 Z0.4 ; position nozzle,G1 E25 F300 ; purge nozzle,G1 X-125 Y-70 Z0.15 F1200 ; slow wipe,G1 X-120 Y-65 Z0.5 F1200 ; lift,G92 A0 B0 ; zero extruders,M73 P1 ;@body (notify GPX body has started),; **** end of start.gcode ****
;   layerChangeGcode,
;   toolChangeGcode,
;   endingGcode,; **** Replicator 2X end.gcode ****,M73 P100 ; end build progress,G0 Z155 F1000 ; send Z axis to bottom of machine,M140 S0 T0 ; cool down HBP,M104 S0 T0 ; cool down right extruder,M104 S0 T1 ; cool down left extruder,M127 ; stop blower fan,G162 X Y F3000 ; home XY maximum,M18 ; disable stepper,M72 P1 ; play Ta-Da song,; **** end of end.gcode ****
;   createX3G,1
;   celebration,0
;   celebrationSong,Entertainer
;   postProcessing,
;   defaultSpeed,4800
;   outlineUnderspeed,0.5
;   supportUnderspeed,0.8
;   rapidXYspeed,9000
;   rapidZspeed,1200
;   minBridgingArea,50
;   bridgingExtrusionMultiplier,1
;   bridgingSpeedMultiplier,0.8
;   filamentDiameter,1.71
;   filamentPricePerKg,46
;   useMinPrintHeight,0
;   minPrintHeight,0
;   useMaxPrintHeight,0
;   maxPrintHeight,0
;   overlapRemoval,0
;   overlapRemovalPercentage,0.3
;   useDiaphragm,0
;   diaphragmLayerInterval,20
;   robustSlicing,1
;   mergeAllIntoSolid,0
;   onlyRetractWhenCrossingOutline,1
;   retractBetweenLayers,1
;   useRetractionMinTravel,0
;   retractionMinTravel,3
;   useRetractionOozeRate,0
;   retractionOozeRate,100
;   onlyWipeOutlines,1
G90 ; use absolute coordinates
M83 ; relative extrusion distances
G21 ; set units to millimeters
; **** Replicator 2X start.gcode ****
M73 P0 ; enable build progress
G162 X Y F3000 ; home XY maximum
G161 Z F1200 ; home Z minimum
G92 Z-5 ; set Z to -5
G1 Z0 ; move Z to 0
G161 Z F100 ; home Z slowly
M132 X Y Z A B ; recall home offsets
M135 T0 ; load right extruder offsets
G1 X-130 Y-75 Z30 F9000 ; move to wait position off table
G130 X20 Y20 Z20 A20 B20 ; lower stepper Vrefs while heating
M127
M140 S130 T0
M134 T0 ; stabilize bed temperature
M104 S232 T1
M133 T1 ; stabilize extruder temperature
G130 X127 Y127 Z40 A127 B127 ; default stepper Vrefs
G92 A0 B0 ; zero extruders
M135 T1 ; load left extruder offsets
G1 Z0.4 ; position nozzle
G1 E25 F300 ; purge nozzle
G1 X-125 Y-70 Z0.15 F1200 ; slow wipe
G1 X-120 Y-65 Z0.5 F1200 ; lift
G92 A0 B0 ; zero extruders
M73 P1 ;@body (notify GPX body has started)
; **** end of start.gcode ****
G1 E-1.2 F1200
; layer 1, Z = 0.45
M105
M105
M105
M135 T1
; tool H0.5 W0.4
G0 X0.35 Y-41.498 F9000
G0 Z0.45 F1200
G1 E1.2 F360
G1 X0.35 Y-56.593 E1.3145 F2400
G1 X39.55 Y-56.593 E3.4138
G1 X39.55 Y-41.29 E1.3326
G1 X44.549 Y-38.938 E0.4811
G1 X49.411 Y-35.851 E0.5016
G1 X53.85 Y-32.181 E0.5016
G1 X57.793 Y-27.981 E0.5017
G1 X61.179 Y-23.321 E0.5016
G1 X63.954 Y-18.273 E0.5016
G1 X66.074 Y-12.917 E0.5017
G1 X67.507 Y-7.338 E0.5016
G1 X68.229 Y-1.624 E0.5016
G1 X68.229 Y4.138 E0.5018
G1 X67.507 Y9.852 E0.5016
G1 X66.074 Y15.431 E0.5016
G1 X63.954 Y20.787 E0.5017
G1 X61.179 Y25.835 E0.5016
G1 X57.793 Y30.494 E0.5016
G1 X53.85 Y34.695 E0.5017
G1 X49.411 Y38.365 E0.5016
G1 X44.549 Y41.452 E0.5016
G1 X39.336 Y43.905 E0.5017
G1 X33.858 Y45.685 E0.5017
G1 X28.199 Y46.765 E0.5017
G1 X22.45 Y47.125 E0.5016
G1 X16.81 Y46.771 E0.4921
G1 X-15.83 Y41.299 E2.8822
G1 X-17.05 Y41.375 E0.1064
G1 X-19.568 Y41.218 E0.2198
G1 X-22.055 Y40.744 E0.2204
G1 X-24.457 Y39.962 E0.22
G1 X-24.817 Y39.793 E0.0347
G1 X-70.439 Y32.145 E4.0284
G1 X-71.892 Y31.828 E0.1295
G1 X-73.711 Y31.15 E0.169
G1 X-75.417 Y30.216 E0.1694
G1 X-76.966 Y29.057 E0.1685
G1 X-78.343 Y27.683 E0.1694
G1 X-79.514 Y26.119 E0.1702
G1 X-80.442 Y24.416 E0.1689
G1 X-81.122 Y22.597 E0.1691
G1 X-81.535 Y20.697 E0.1694
G1 X-81.65 Y19.101 E0.1393
G1 X-81.65 Y-16.587 E3.108
G1 X-81.535 Y-18.183 E0.1393
G1 X-81.122 Y-20.083 E0.1694
G1 X-80.442 Y-21.902 E0.1691
G1 X-79.514 Y-23.605 E0.1689
G1 X-78.347 Y-25.165 E0.1697
G1 X-76.966 Y-26.546 E0.17
G1 X-75.411 Y-27.706 E0.169
G1 X-73.711 Y-28.636 E0.1688
G1 X-71.892 Y-29.314 E0.169
G1 X-70.439 Y-29.631 E0.1295
G1 X-24.817 Y-37.279 E4.0284
G1 X-24.457 Y-37.449 E0.0347
G1 X-22.055 Y-38.23 E0.22
G1 X-19.568 Y-38.704 E0.2204
G1 X-17.05 Y-38.861 E0.2198
G1 X-15.83 Y-38.785 E0.1064
G1 X0.35 Y-41.498 E1.4287
G0 X0.75 Y-41.16 F9000
G1 X0.75 Y-56.193 E1.3092 F2400
G1 X39.15 Y-56.193 E3.3441
G1 X39.15 Y-41.031 E1.3204
G1 X39.189 Y-41.018 E0.0035
G1 X44.356 Y-38.587 E0.4973
G1 X49.176 Y-35.527 E0.4972
G1 X53.575 Y-31.889 E0.4972
G1 X57.484 Y-27.725 E0.4973
G1 X60.84 Y-23.106 E0.4972
G1 X63.591 Y-18.103 E0.4972
G1 X65.693 Y-12.793 E0.4973
G1 X67.113 Y-7.263 E0.4972
G1 X67.829 Y-1.599 E0.4972
G1 X67.829 Y4.113 E0.4974
G1 X67.113 Y9.777 E0.4972
G1 X65.693 Y15.307 E0.4972
G1 X63.591 Y20.616 E0.4973
G1 X60.84 Y25.62 E0.4972
G1 X57.484 Y30.239 E0.4972
G1 X53.575 Y34.402 E0.4973
G1 X49.176 Y38.041 E0.4972
G1 X44.356 Y41.101 E0.4972
G1 X39.189 Y43.532 E0.4973
G1 X33.758 Y45.297 E0.4973
G1 X28.149 Y46.367 E0.4973
G1 X22.45 Y46.724 E0.4972
G1 X16.856 Y46.373 E0.4882
G1 X-15.809 Y40.897 E2.8843
G1 X-17.05 Y40.974 E0.1083
G1 X-19.518 Y40.82 E0.2154
G1 X-21.955 Y40.356 E0.216
G1 X-24.309 Y39.59 E0.2156
G1 X-24.697 Y39.407 E0.0373
G1 X-70.363 Y31.752 E4.0324
G1 X-71.779 Y31.443 E0.1262
G1 X-73.544 Y30.785 E0.1641
G1 X-75.2 Y29.879 E0.1644
G1 X-76.704 Y28.754 E0.1635
G1 X-78.04 Y27.421 E0.1644
G1 X-79.177 Y25.902 E0.1652
G1 X-80.078 Y24.249 E0.1639
G1 X-80.737 Y22.484 E0.1641
G1 X-81.138 Y20.64 E0.1644
G1 X-81.25 Y19.087 E0.1356
G1 X-81.25 Y-16.573 E3.1055
G1 X-81.138 Y-18.126 E0.1356
G1 X-80.737 Y-19.97 E0.1644
G1 X-80.078 Y-21.735 E0.1641
G1 X-79.177 Y-23.388 E0.1639
G1 X-78.044 Y-24.902 E0.1647
G1 X-76.704 Y-26.242 E0.165
G1 X-75.195 Y-27.369 E0.164
G1 X-73.544 Y-28.271 E0.1638
G1 X-71.779 Y-28.929 E0.1641
G1 X-70.363 Y-29.239 E0.1262
G1 X-24.697 Y-36.894 E4.0324
G1 X-24.309 Y-37.076 E0.0373
G1 X-21.955 Y-37.842 E0.2156
G1 X-19.518 Y-38.307 E0.216
G1 X-17.05 Y-38.46 E0.2154
G1 X-15.809 Y-38.383 E0.1083
G1 X0.75 Y-41.16 E1.4622
; tool H0.5 W0.8
G0 X5.35 Y-37.267 F9000
G1 X5.35 Y-51.593 E2.4952 F600
G1 X34.55 Y-51.593 E5.0858
G1 X34.55 Y-37.689 E2.4216
G1 X37.492 Y-36.733 E0.5387
G1 X42.135 Y-34.548 E0.8937
G1 X46.466 Y-31.798 E0.8936
G1 X50.42 Y-28.529 E0.8936
G1 X53.933 Y-24.787 E0.8938
G1 X56.949 Y-20.636 E0.8937
G1 X59.421 Y-16.14 E0.8937
G1 X61.31 Y-11.369 E0.8938
G1 X62.586 Y-6.4 E0.8936
G1 X63.229 Y-1.309 E0.8936
G1 X63.229 Y3.823 E0.8939
G1 X62.586 Y8.913 E0.8936
G1 X61.31 Y13.883 E0.8936
G1 X59.421 Y18.654 E0.8938
G1 X56.949 Y23.15 E0.8937
G1 X53.933 Y27.301 E0.8937
G1 X50.42 Y31.042 E0.8938
G1 X46.466 Y34.312 E0.8936
G1 X42.135 Y37.062 E0.8936
G1 X37.492 Y39.247 E0.8937
G1 X32.612 Y40.833 E0.8938
G1 X27.572 Y41.794 E0.8936
G1 X22.45 Y42.115 E0.8938
G1 X17.381 Y41.797 E0.8846
G1 X-15.569 Y36.273 E5.8191
G1 X-17.05 Y36.365 E0.2585
G1 X-18.942 Y36.247 E0.3302
G1 X-20.808 Y35.892 E0.3308
G1 X-22.612 Y35.305 E0.3304
G1 X-23.312 Y34.975 E0.1347
G1 X-69.491 Y27.234 E8.1553
G1 X-70.478 Y27.019 E0.1759
G1 X-71.627 Y26.59 E0.2137
G1 X-72.706 Y26 E0.2141
G1 X-73.686 Y25.267 E0.2133
G1 X-74.557 Y24.399 E0.2141
G1 X-75.296 Y23.411 E0.2149
G1 X-75.883 Y22.334 E0.2136
G1 X-76.313 Y21.184 E0.2138
G1 X-76.573 Y19.983 E0.214
G1 X-76.65 Y18.922 E0.1853
G1 X-76.65 Y-16.408 E6.1534
G1 X-76.573 Y-17.469 E0.1853
G1 X-76.313 Y-18.67 E0.214
G1 X-75.883 Y-19.82 E0.2138
G1 X-75.296 Y-20.897 E0.2136
G1 X-74.558 Y-21.882 E0.2144
G1 X-73.686 Y-22.754 E0.2148
G1 X-72.703 Y-23.488 E0.2136
G1 X-71.627 Y-24.076 E0.2136
G1 X-70.478 Y-24.505 E0.2137
G1 X-69.491 Y-24.721 E0.1759
G1 X-23.312 Y-32.462 E8.1553
G1 X-22.612 Y-32.791 E0.1347
G1 X-20.808 Y-33.378 E0.3304
G1 X-18.942 Y-33.734 E0.3308
G1 X-17.05 Y-33.852 E0.3302
G1 X-15.569 Y-33.759 E0.2585
G1 X5.35 Y-37.267 E3.6943
G0 X5.35 Y-44.267 F600
G0 X6.15 Y-49.407 F9000
G1 X33.75 Y-49.407 E4.8071 F600
G1 X33.75 Y-47.121 E0.3981
G1 X6.15 Y-47.121 E4.8071
G1 X6.15 Y-44.835 E0.3981
G1 X33.75 Y-44.835 E4.8071
G1 X33.75 Y-42.55 E0.3981
G1 X6.15 Y-42.55 E4.8071
G1 X6.15 Y-40.264 E0.3981
G1 X33.75 Y-40.264 E4.8071
G1 X33.75 Y-37.978 E0.3981
G1 X6.15 Y-37.978 E4.8071
G1 X6.15 Y-36.59 E0.2419
G1 X0.801 Y-35.693 E0.9447
G1 X37.824 Y-35.693 E6.4484
G1 X41.749 Y-33.846 E0.7555
G1 X42.44 Y-33.407 E0.1427
G1 X-12.832 Y-33.407 E9.6269
G1 X-15.527 Y-32.955 E0.4759
G1 X-17.05 Y-33.05 E0.2658
G1 X-18.842 Y-32.938 E0.3127
G1 X-20.608 Y-32.601 E0.3132
G1 X-22.317 Y-32.046 E0.3129
G1 X-23.071 Y-31.691 E0.1451
G1 X-26.469 Y-31.121 E0.6001
G1 X46.03 Y-31.121 E12.6273
G1 X48.794 Y-28.835 E0.6247
G1 X-40.105 Y-28.835 E15.4836
G1 X-53.74 Y-26.55 E2.4081
G1 X51.181 Y-26.55 E18.2742
G1 X53.315 Y-24.276 E0.5431
G1 X53.324 Y-24.264 E0.0027
G1 X-67.375 Y-24.264 E21.0225
G1 X-69.339 Y-23.935 E0.3468
G1 X-70.251 Y-23.735 E0.1626
G1 X-71.294 Y-23.347 E0.1938
G1 X-72.27 Y-22.813 E0.1937
G1 X-73.161 Y-22.148 E0.1938
G1 X-73.331 Y-21.978 E0.0418
G1 X54.985 Y-21.978 E22.349
G1 X56.272 Y-20.207 E0.3814
G1 X56.555 Y-19.693 E0.1022
G1 X-75.041 Y-19.693 E22.9203
G1 X-75.153 Y-19.487 E0.0408
G1 X-75.543 Y-18.444 E0.194
G1 X-75.768 Y-17.407 E0.1848
G1 X57.811 Y-17.407 E23.2658
G1 X58.695 Y-15.799 E0.3196
G1 X58.964 Y-15.121 E0.1269
G1 X-75.85 Y-15.121 E23.4807
G1 X-75.85 Y-12.835 E0.3981
G1 X59.869 Y-12.835 E23.6383
G1 X60.547 Y-11.121 E0.3211
G1 X60.694 Y-10.55 E0.1028
G1 X-75.85 Y-10.55 E23.7821
G1 X-75.85 Y-8.264 E0.3981
G1 X61.281 Y-8.264 E23.8843
G1 X61.798 Y-6.249 E0.3623
G1 X61.832 Y-5.978 E0.0476
G1 X-75.85 Y-5.978 E23.9804
G1 X-75.85 Y-3.693 E0.3981
G1 X62.122 Y-3.693 E24.0307
G1 X62.411 Y-1.407 E0.4013
G1 X-75.85 Y-1.407 E24.081
G1 X-75.85 Y0.879 E0.3981
G1 X62.429 Y0.879 E24.0843
G1 X62.429 Y3.165 E0.3981
G1 X-75.85 Y3.165 E24.0843
G1 X-75.85 Y5.45 E0.3981
G1 X62.217 Y5.45 E24.0474
G1 X61.928 Y7.736 E0.4013
G1 X-75.85 Y7.736 E23.997
G1 X-75.85 Y10.022 E0.3981
G1 X61.475 Y10.022 E23.9181
G1 X60.888 Y12.307 E0.411
G1 X-75.85 Y12.307 E23.8159
G1 X-75.85 Y14.593 E0.3981
G1 X60.168 Y14.593 E23.6905
G1 X59.263 Y16.879 E0.4282
G1 X-75.85 Y16.879 E23.5328
G1 X-75.85 Y18.893 E0.3508
G1 X-75.83 Y19.165 E0.0474
G1 X58.227 Y19.165 E23.349
G1 X56.97 Y21.45 E0.4543
G1 X-75.359 Y21.45 E23.048
G1 X-75.153 Y22.001 E0.1023
G1 X-74.621 Y22.977 E0.1938
G1 X-74.053 Y23.736 E0.165
G1 X55.534 Y23.736 E22.5705
G1 X53.873 Y26.022 E0.4921
G1 X-70.862 Y26.022 E21.7254
G1 X-70.251 Y26.249 E0.1135
G1 X-69.339 Y26.449 E0.1626
G1 X-58.251 Y28.307 E1.9582
G1 X51.891 Y28.307 E19.1836
G1 X49.872 Y30.458 E0.5138
G1 X49.708 Y30.593 E0.0369
G1 X-44.615 Y30.593 E16.4285
G1 X-30.98 Y32.879 E2.408
G1 X46.944 Y32.879 E13.5722
G1 X45.995 Y33.664 E0.2145
G1 X43.631 Y35.165 E0.4877
G1 X-20.349 Y35.165 E11.1437
G1 X-18.842 Y35.452 E0.2673
G1 X-17.05 Y35.564 E0.3127
G1 X-15.527 Y35.469 E0.2658
G1 X-3.709 Y37.45 E2.0871
G1 X39.431 Y37.45 E7.5138
G1 X37.197 Y38.502 E0.4301
G1 X33.398 Y39.736 E0.6957
G1 X9.924 Y39.736 E4.0885
G1 X17.473 Y41.002 E1.3331
G1 X22.45 Y41.314 E0.8686
G1 X27.471 Y40.999 E0.8762
G1 X32.412 Y40.056 E0.8761
G1 X33.398 Y39.736 E0.1805
G1 E-1.2 F1200
; layer 2, Z = 0.95
M105
M105
M105
; tool H0.5 W0.4
G0 X33.858 Y45.685 F9000
G0 Z0.95 F1200
G1 E1.2 F1200
G1 X28.199 Y46.765 E0.5017 F4800
G1 X22.45 Y47.125 E0.5016
G1 X16.81 Y46.771 E0.4921
G1 X-15.83 Y41.299 E2.8822
G1 X-17.05 Y41.375 E0.1064
G1 X-19.568 Y41.218 E0.2198
G1 X-22.055 Y40.744 E0.2204
G1 X-24.457 Y39.962 E0.22
G1 X-24.817 Y39.793 E0.0347
G1 X-70.439 Y32.145 E4.0284
G1 X-71.892 Y31.828 E0.1295
G1 X-73.711 Y31.15 E0.169
G1 X-75.417 Y30.216 E0.1694
G1 X-76.966 Y29.057 E0.1685
G1 X-78.343 Y27.683 E0.1694
G1 X-79.514 Y26.119 E0.1702
G1 X-80.442 Y24.416 E0.1689
G1 X-81.122 Y22.597 E0.1691
G1 X-81.535 Y20.697 E0.1694
G1 X-81.65 Y19.101 E0.1393
G1 X-81.65 Y-16.587 E3.108
G1 X-81.535 Y-18.183 E0.1393
G1 X-81.122 Y-20.083 E0.1694
G1 X-80.442 Y-21.902 E0.1691
G1 X-79.514 Y-23.605 E0.1689
G1 X-78.347 Y-25.165 E0.1697
G1 X-76.966 Y-26.546 E0.17
G1 X-75.411 Y-27.706 E0.169
G1 X-73.711 Y-28.636 E0.1688
G1 X-71.892 Y-29.314 E0.169
G1 X-70.439 Y-29.631 E0.1295
G1 X-24.817 Y-37.279 E4.0284
G1 X-24.457 Y-37.449 E0.0347
G1 X-22.055 Y-38.23 E0.22
G1 X-19.568 Y-38.704 E0.2204
G1 X-17.05 Y-38.861 E0.2198
G1 X-15.83 Y-38.785 E0.1064
G1 X0.35 Y-41.498 E1.4287
G1 X0.35 Y-56.593 E1.3145
G1 X39.55 Y-56.593 E3.4138
G1 X39.55 Y-41.29 E1.3326
G1 X44.549 Y-38.938 E0.4811
G1 X49.411 Y-35.851 E0.5016
G1 X53.85 Y-32.181 E0.5016
G1 X57.793 Y-27.981 E0.5017
G1 X61.179 Y-23.321 E0.5016
G1 X63.954 Y-18.273 E0.5016
G1 X66.074 Y-12.917 E0.5017
G1 X67.507 Y-7.338 E0.5016
