; G-Code generated by Simplify3D(TM) Version 2.1.2
; Dec 7, 2014 at 12:55:38 AM
; Settings Summary
;   processName,Cyclone
;   applyToModels,btm,top
;   printMaterial,ABS
;   printQuality,High
;   extruderName,Right Extruder,Left Extruder
;   extruderToolheadNumber,0,1
;   extruderDiameter,0.4,0.4
;   extruderAutoWidth,0,0
;   extruderWidth,0.4,0.4
;   extrusionMultiplier,1,1
;   extruderUseRetract,1,1
;   extruderRetractionDistance,1,1.2
;   extruderExtraRestartDistance,0,0
;   extruderRetractionZLift,0,0
;   extruderRetractionSpeed,1200,1200
;   extruderUseCoasting,0,0
;   extruderCoastingDistance,0.2,0.2
;   extruderUseWipe,0,1
;   extruderWipeDistance,5,7
;   primaryExtruder,1
;   layerHeight,0.25
;   topSolidLayers,3
;   bottomSolidLayers,3
;   perimeterOutlines,2
;   printPerimetersInsideOut,1
;   startPointOption,2
;   startPointOriginX,0
;   startPointOriginY,0
;   startPointOriginZ,300
;   sequentialIslands,0
;   spiralVaseMode,0
;   firstLayerHeightRatio,0.9
;   firstLayerUnderspeed,0.5
;   useRaft,1
;   raftLayers,3
;   raftOffset,3
;   raftSeparationDistance,0.14
;   raftInfill,85
;   disableRaftBaseLayers,0
;   useSkirt,1
;   skirtLayers,2
;   skirtOutlines,2
;   skirtOffset,4
;   infillExtruder,1
;   externalInfillPattern,Rectilinear
;   infillPercentage,20
;   outlineOverlapPercentage,23
;   minInfillLength,2.5
;   infillLayerInterval,1
;   randomInfillStartPoint,1
;   infillAngles,45,-45
;   generateSupport,1
;   supportExtruder,1
;   supportInfill,40
;   supportExtraInflation,0
;   supportLayerInterval,1
;   supportHorizontalPartOffset,0.3
;   supportUpperSeparationLayers,1
;   supportLowerSeparationLayers,1
;   supportGridSpacing,4
;   maxOverhangAngle,45
;   supportAngles,0
;   temperatureName,Right Extruder,Left Extruder,Heated Build Platform
;   temperatureNumber,0,1,0
;   temperatureSetpointCount,1,1,1
;   temperatureSetpointLayers,1,1,1
;   temperatureSetpointTemperatures,0,232,130
;   temperatureStabilizeAtStartup,1,1,1
;   temperatureHeatedBed,0,0,1
;   temperatureRelayBetweenLayers,1,1,1
;   temperatureRelayBetweenLoops,0,0,0
;   fanLayers,1
;   fanSpeeds,0
;   blipFanToFullPower,0
;   adjustSpeedForCooling,1
;   minSpeedLayerTime,15
;   minCoolingSpeedSlowdown,20
;   increaseFanForCooling,0
;   minFanLayerTime,45
;   maxCoolingFanSpeed,100
;   increaseFanForBridging,0
;   bridgingFanSpeed,100
;   use5D,1
;   relativeEdistances,1
;   allowEaxisZeroing,0
;   includeM10123,0
;   stickySupport,1
;   detectArcs,0
;   arcReplaceG2G3,0
;   arcRadialCompensation,1
;   gcodeXoffset,0
;   gcodeYoffset,0
;   gcodeZoffset,0
;   overrideMachineDefinition,1
;   machineTypeOverride,0
;   strokeXoverride,250
;   strokeYoverride,150
;   strokeZoverride,150
;   originOffsetXoverride,125
;   originOffsetYoverride,75
;   originOffsetZoverride,0
;   homeXdirOverride,1
;   homeYdirOverride,1
;   homeZdirOverride,-1
;   flipXoverride,1
;   flipYoverride,-1
;   flipZoverride,1
;   startingGcode,; **** Replicator 2X start.gcode ****,M73 P0 ; enable build progress,G162 X Y F3000 ; home XY maximum,G161 Z F1200 ; home Z minimum,G92 Z-5 ; set Z to -5,G1 Z0 ; move Z to 0,G161 Z F100 ; home Z slowly,M132 X Y Z A B ; recall home offsets,M135 T0 ; load right extruder offsets,G1 X-130 Y-75 Z30 F9000 ; move to wait position off table,G130 X20 Y20 Z20 A20 B20 ; lower stepper Vrefs while heating,M126 S[fan_speed_pwm],M140 S[bed0_temperature] T0,M134 T0 ; stabilize bed temperature,M104 S[extruder1_temperature] T1,M133 T1 ; stabilize extruder temperature,G130 X127 Y127 Z40 A127 B127 ; default stepper Vrefs,G92 A0 B0 ; zero extruders,M135 T1 ; load left extruder offsets,G1 Z0.4 ; position nozzle,G1 E25 F300 ; purge nozzle,G1 X-125 Y-70 Z0.15 F1200 ; slow wipe,G1 X-120 Y-65 Z0.5 F1200 ; lift,G92 A0 B0 ; zero extruders,M73 P1 ;@body (notify GPX body has started),; **** end of start.gcode ****
;   layerChangeGcode,
;   toolChangeGcode,
;   endingGcode,; **** Replicator 2X end.gcode ****,M73 P100 ; end build progress,G0 Z155 F1000 ; send Z axis to bottom of machine,M140 S0 T0 ; cool down HBP,M104 S0 T0 ; cool down right extruder,M104 S0 T1 ; cool down left extruder,M127 ; stop blower fan,G162 X Y F3000 ; home XY maximum,M18 ; disable stepper,M72 P1 ; play Ta-Da song,; **** end of end.gcode ****
;   createX3G,1
;   celebration,0
;   celebrationSong,Entertainer
;   postProcessing,
;   defaultSpeed,4800
;   outlineUnderspeed,0.5
;   supportUnderspeed,0.8
;   rapidXYspeed,9000
;   rapidZspeed,1200
;   minBridgingArea,50
;   bridgingExtrusionMultiplier,1
;   bridgingSpeedMultiplier,0.8
;   filamentDiameter,1.71
;   filamentPricePerKg,46
;   useMinPrintHeight,0
;   minPrintHeight,0
;   useMaxPrintHeight,0
;   maxPrintHeight,0
;   overlapRemoval,0
;   overlapRemovalPercentage,0.3
;   useDiaphragm,0
;   diaphragmLayerInterval,20
;   robustSlicing,1
;   mergeAllIntoSolid,0
;   onlyRetractWhenCrossingOutline,1
;   retractBetweenLayers,1
;   useRetractionMinTravel,0
;   retractionMinTravel,3
;   useRetractionOozeRate,0
;   retractionOozeRate,100
;   onlyWipeOutlines,1
G90 ; use absolute coordinates
M83 ; relative extrusion distances
G21 ; set units to millimeters
; **** Replicator 2X start.gcode ****
M73 P0 ; enable build progress
G162 X Y F3000 ; home XY maximum
G161 Z F1200 ; home Z minimum
G92 Z-5 ; set Z to -5
G1 Z0 ; move Z to 0
G161 Z F100 ; home Z slowly
M132 X Y Z A B ; recall home offsets
M135 T0 ; load right extruder offsets
G1 X-130 Y-75 Z30 F9000 ; move to wait position off table
G130 X20 Y20 Z20 A20 B20 ; lower stepper Vrefs while heating
M127
M140 S130 T0
M134 T0 ; stabilize bed temperature
M104 S232 T1
M133 T1 ; stabilize extruder temperature
G130 X127 Y127 Z40 A127 B127 ; default stepper Vrefs
G92 A0 B0 ; zero extruders
M135 T1 ; load left extruder offsets
G1 Z0.4 ; position nozzle
G1 E25 F300 ; purge nozzle
G1 X-125 Y-70 Z0.15 F1200 ; slow wipe
G1 X-120 Y-65 Z0.5 F1200 ; lift
G92 A0 B0 ; zero extruders
M73 P1 ;@body (notify GPX body has started)
; **** end of start.gcode ****
G1 E-1.2 F1200
; layer 1, Z = 0.45
M105
M105
M105
M135 T1
; tool H0.5 W0.4
G0 X19.849 Y22.504 F9000
G0 Z0.45 F1200
G1 E1.2 F360
G1 X17.342 Y25.954 E0.3714 F2400
G1 X13.399 Y30.154 E0.5017
G1 X8.96 Y33.825 E0.5016
G1 X4.098 Y36.912 E0.5016
G1 X-1.115 Y39.365 E0.5017
G1 X-6.593 Y41.145 E0.5017
G1 X-12.252 Y42.224 E0.5017
G1 X-18.001 Y42.585 E0.5016
G1 X-23.641 Y42.231 E0.4921
G1 X-56.281 Y36.759 E2.8822
G1 X-57.501 Y36.835 E0.1064
G1 X-60.019 Y36.678 E0.2198
G1 X-62.505 Y36.203 E0.2204
G1 X-64.908 Y35.422 E0.22
G1 X-65.268 Y35.252 E0.0347
G1 X-110.89 Y27.605 E4.0284
G1 X-112.343 Y27.287 E0.1295
G1 X-114.162 Y26.609 E0.1691
G1 X-115.868 Y25.676 E0.1694
G1 X-117.417 Y24.517 E0.1685
G1 X-118.794 Y23.143 E0.1694
G1 X-119.965 Y21.578 E0.1702
G1 X-120.893 Y19.875 E0.1689
G1 X-121.573 Y18.057 E0.1691
G1 X-121.986 Y16.156 E0.1694
G1 X-122.101 Y14.561 E0.1393
G1 X-122.101 Y-21.128 E3.108
G1 X-121.986 Y-22.723 E0.1393
G1 X-121.573 Y-24.624 E0.1694
G1 X-120.893 Y-26.442 E0.1691
G1 X-119.965 Y-28.145 E0.1689
G1 X-118.798 Y-29.705 E0.1697
G1 X-117.417 Y-31.086 E0.1701
G1 X-115.862 Y-32.246 E0.169
G1 X-114.162 Y-33.176 E0.1688
G1 X-112.343 Y-33.854 E0.169
G1 X-110.89 Y-34.172 E0.1295
G1 X-65.268 Y-41.819 E4.0284
G1 X-64.908 Y-41.989 E0.0347
G1 X-62.506 Y-42.77 E0.22
G1 X-60.019 Y-43.245 E0.2204
G1 X-57.501 Y-43.402 E0.2198
G1 X-56.281 Y-43.326 E0.1064
G1 X-40.101 Y-46.038 E1.4287
G1 X-40.101 Y-61.133 E1.3145
G1 X-0.901 Y-61.133 E3.4138
G1 X-0.901 Y-45.831 E1.3326
G1 X4.098 Y-43.479 E0.4811
G1 X8.96 Y-40.392 E0.5016
G1 X13.399 Y-36.721 E0.5016
G1 X17.342 Y-32.521 E0.5017
G1 X20.728 Y-27.861 E0.5016
G1 X22.86 Y-23.982 E0.3855
G1 X25.367 Y-27.432 E0.3714
G1 X29.31 Y-31.632 E0.5017
G1 X33.749 Y-35.303 E0.5016
G1 X38.611 Y-38.39 E0.5016
G1 X43.61 Y-40.742 E0.4811
G1 X43.61 Y-58.044 E1.5068
G1 X82.81 Y-58.044 E3.4138
G1 X82.81 Y-39.133 E1.6469
G1 X91.502 Y-36.289 E0.7965
G1 X92.803 Y-36.901 E0.1252
G1 X95.206 Y-37.682 E0.22
G1 X97.691 Y-38.156 E0.2203
G1 X100.21 Y-38.313 E0.2198
G1 X102.729 Y-38.156 E0.2198
G1 X105.215 Y-37.682 E0.2204
G1 X107.616 Y-36.9 E0.2199
G1 X109.903 Y-35.825 E0.22
G1 X112.035 Y-34.471 E0.22
G1 X113.979 Y-32.863 E0.2197
G1 X115.711 Y-31.02 E0.2202
G1 X117.198 Y-28.973 E0.2203
G1 X118.425 Y-26.74 E0.2219
G1 X119.81 Y-23.194 E0.3315
G1 X119.81 Y-3.682 E1.6991
G1 X111.845 Y-2.693 E0.6989
G1 X111.292 Y-2.551 E0.0497
G1 X110.76 Y-2.34 E0.0498
G1 X110.254 Y-2.062 E0.0503
G1 X109.789 Y-1.724 E0.05
G1 X109.371 Y-1.332 E0.0499
G1 X109.004 Y-0.888 E0.0502
G1 X108.695 Y-0.401 E0.0503
G1 X108.45 Y0.119 E0.05
G1 X108.273 Y0.665 E0.05
G1 X108.165 Y1.231 E0.0502
G1 X108.129 Y1.805 E0.0501
G1 X108.165 Y2.38 E0.0502
G1 X108.273 Y2.945 E0.0501
G1 X108.45 Y3.492 E0.0501
G1 X108.695 Y4.011 E0.05
G1 X109.004 Y4.499 E0.0503
G1 X109.371 Y4.942 E0.0502
G1 X109.789 Y5.335 E0.0499
G1 X110.254 Y5.673 E0.05
G1 X110.758 Y5.95 E0.0501
G1 X111.295 Y6.162 E0.0503
G1 X111.843 Y6.303 E0.0493
G1 X119.81 Y7.293 E0.6991
G1 X119.81 Y26.804 E1.6992
G1 X118.425 Y30.35 E0.3315
G1 X117.197 Y32.586 E0.2221
G1 X115.711 Y34.63 E0.22
G1 X113.981 Y36.472 E0.2201
G1 X112.035 Y38.081 E0.2199
G1 X109.903 Y39.436 E0.22
G1 X107.616 Y40.511 E0.22
G1 X105.215 Y41.292 E0.2199
G1 X102.728 Y41.767 E0.2204
G1 X100.21 Y41.923 E0.2198
G1 X97.691 Y41.767 E0.2198
G1 X95.206 Y41.293 E0.2203
G1 X92.803 Y40.511 E0.22
G1 X91.501 Y39.899 E0.1254
G1 X72.125 Y46.232 E1.7752
G1 X66.458 Y47.313 E0.5025
G1 X60.71 Y47.674 E0.5015
G1 X54.961 Y47.313 E0.5016
G1 X49.303 Y46.234 E0.5017
G1 X43.824 Y44.453 E0.5017
G1 X38.611 Y42.001 E0.5017
G1 X33.749 Y38.914 E0.5016
G1 X29.31 Y35.243 E0.5016
G1 X25.367 Y31.043 E0.5017
G1 X21.981 Y26.383 E0.5016
G1 X19.849 Y22.504 E0.3855
G0 X19.896 Y21.759 F9000
G1 X17.033 Y25.699 E0.4241 F2400
G1 X13.124 Y29.862 E0.4973
G1 X8.725 Y33.5 E0.4972
G1 X3.905 Y36.561 E0.4972
G1 X-1.262 Y38.992 E0.4973
G1 X-6.693 Y40.757 E0.4973
G1 X-12.302 Y41.827 E0.4973
G1 X-18.001 Y42.184 E0.4972
G1 X-23.595 Y41.833 E0.4882
G1 X-56.26 Y36.357 E2.8843
G1 X-57.501 Y36.434 E0.1083
G1 X-59.969 Y36.28 E0.2154
G1 X-62.406 Y35.815 E0.216
G1 X-64.76 Y35.049 E0.2156
G1 X-65.148 Y34.867 E0.0373
G1 X-110.814 Y27.212 E4.0324
G1 X-112.229 Y26.902 E0.1262
G1 X-113.995 Y26.245 E0.1641
G1 X-115.651 Y25.339 E0.1644
G1 X-117.155 Y24.214 E0.1635
G1 X-118.491 Y22.88 E0.1644
G1 X-119.628 Y21.362 E0.1652
G1 X-120.528 Y19.709 E0.1639
G1 X-121.188 Y17.944 E0.1641
G1 X-121.589 Y16.099 E0.1644
G1 X-121.701 Y14.546 E0.1356
G1 X-121.701 Y-21.113 E3.1055
G1 X-121.589 Y-22.666 E0.1356
G1 X-121.188 Y-24.511 E0.1644
G1 X-120.528 Y-26.276 E0.1641
G1 X-119.628 Y-27.929 E0.1639
G1 X-118.495 Y-29.443 E0.1647
G1 X-117.155 Y-30.783 E0.165
G1 X-115.645 Y-31.909 E0.164
G1 X-113.995 Y-32.812 E0.1638
G1 X-112.23 Y-33.469 E0.1641
G1 X-110.814 Y-33.779 E0.1262
G1 X-65.148 Y-41.434 E4.0324
G1 X-64.76 Y-41.616 E0.0373
G1 X-62.406 Y-42.382 E0.2156
G1 X-59.969 Y-42.847 E0.216
G1 X-57.501 Y-43.001 E0.2154
G1 X-56.26 Y-42.924 E0.1083
G1 X-39.701 Y-45.7 E1.4622
G1 X-39.701 Y-60.733 E1.3092
G1 X-1.301 Y-60.733 E3.3441
G1 X-1.301 Y-45.571 E1.3204
G1 X-1.262 Y-45.559 E0.0035
G1 X3.905 Y-43.128 E0.4973
G1 X8.725 Y-40.067 E0.4972
G1 X13.124 Y-36.429 E0.4972
G1 X17.033 Y-32.266 E0.4973
G1 X20.389 Y-27.647 E0.4972
G1 X22.814 Y-23.237 E0.4382
G1 X25.676 Y-27.177 E0.4241
G1 X29.585 Y-31.34 E0.4973
G1 X33.984 Y-34.979 E0.4972
G1 X38.804 Y-38.039 E0.4972
G1 X43.972 Y-40.47 E0.4973
G1 X44.01 Y-40.482 E0.0035
G1 X44.01 Y-57.644 E1.4945
G1 X82.41 Y-57.644 E3.3441
G1 X82.41 Y-38.843 E1.6373
G1 X91.529 Y-35.859 E0.8356
G1 X92.951 Y-36.528 E0.1369
G1 X95.306 Y-37.294 E0.2156
G1 X97.741 Y-37.758 E0.2159
G1 X100.21 Y-37.912 E0.2154
G1 X102.678 Y-37.758 E0.2154
G1 X105.115 Y-37.293 E0.216
G1 X107.469 Y-36.528 E0.2156
G1 X109.71 Y-35.474 E0.2156
G1 X111.8 Y-34.146 E0.2156
G1 X113.705 Y-32.571 E0.2153
G1 X115.402 Y-30.765 E0.2158
G1 X116.859 Y-28.759 E0.2159
G1 X118.062 Y-26.57 E0.2175
G1 X119.41 Y-23.118 E0.3227
G1 X119.41 Y-4.036 E1.6618
G1 X111.771 Y-3.086 E0.6704
G1 X111.169 Y-2.932 E0.0541
G1 X110.589 Y-2.703 E0.0542
G1 X110.039 Y-2.4 E0.0547
G1 X109.533 Y-2.033 E0.0544
G1 X109.079 Y-1.606 E0.0543
G1 X108.68 Y-1.123 E0.0545
G1 X108.344 Y-0.594 E0.0546
G1 X108.078 Y-0.029 E0.0544
G1 X107.885 Y0.566 E0.0544
G1 X107.767 Y1.181 E0.0545
G1 X107.728 Y1.805 E0.0545
G1 X107.767 Y2.43 E0.0546
G1 X107.885 Y3.045 E0.0545
G1 X108.078 Y3.64 E0.0544
G1 X108.344 Y4.205 E0.0544
G1 X108.68 Y4.734 E0.0546
G1 X109.079 Y5.217 E0.0545
G1 X109.533 Y5.644 E0.0543
G1 X110.039 Y6.011 E0.0544
G1 X110.587 Y6.312 E0.0545
G1 X111.171 Y6.543 E0.0547
G1 X111.768 Y6.697 E0.0537
G1 X119.41 Y7.646 E0.6706
G1 X119.41 Y26.729 E1.6618
G1 X118.062 Y30.181 E0.3227
G1 X116.858 Y32.371 E0.2176
G1 X115.402 Y34.374 E0.2157
G1 X113.707 Y36.18 E0.2157
G1 X111.8 Y37.757 E0.2155
G1 X109.709 Y39.085 E0.2156
G1 X107.469 Y40.138 E0.2156
G1 X105.115 Y40.904 E0.2156
G1 X102.678 Y41.369 E0.216
G1 X100.21 Y41.523 E0.2154
G1 X97.741 Y41.369 E0.2154
G1 X95.306 Y40.904 E0.2159
G1 X92.951 Y40.139 E0.2156
G1 X91.527 Y39.469 E0.137
G1 X72.025 Y45.844 E1.7868
G1 X66.407 Y46.916 E0.4981
G1 X60.71 Y47.273 E0.4971
G1 X55.011 Y46.916 E0.4972
G1 X49.402 Y45.845 E0.4973
G1 X43.972 Y44.081 E0.4973
G1 X38.804 Y41.65 E0.4973
G1 X33.985 Y38.589 E0.4972
G1 X29.585 Y34.951 E0.4972
G1 X25.676 Y30.787 E0.4973
G1 X22.32 Y26.168 E0.4972
G1 X19.896 Y21.759 E0.4382
; tool H0.5 W0.8
G0 X23.739 Y19.202 F9000
G1 X21.85 Y14.431 E0.8938 F600
G1 X20.668 Y9.825 E0.8283
G1 X18.97 Y14.113 E0.8033
G1 X16.498 Y18.61 E0.8937
G1 X13.482 Y22.761 E0.8937
G1 X9.969 Y26.502 E0.8938
G1 X6.016 Y29.772 E0.8936
G1 X1.684 Y32.522 E0.8936
G1 X-2.959 Y34.706 E0.8938
G1 X-7.839 Y36.292 E0.8938
G1 X-12.879 Y37.254 E0.8936
G1 X-18.001 Y37.575 E0.8937
G1 X-23.069 Y37.257 E0.8846
G1 X-56.02 Y31.733 E5.8191
G1 X-57.501 Y31.825 E0.2585
G1 X-59.393 Y31.707 E0.3302
G1 X-61.259 Y31.351 E0.3308
G1 X-63.063 Y30.764 E0.3304
G1 X-63.763 Y30.435 E0.1347
G1 X-109.942 Y22.694 E8.1553
G1 X-110.929 Y22.478 E0.1759
G1 X-112.078 Y22.05 E0.2137
G1 X-113.157 Y21.46 E0.2141
G1 X-114.137 Y20.726 E0.2133
G1 X-115.007 Y19.858 E0.2141
G1 X-115.747 Y18.87 E0.2149
G1 X-116.334 Y17.793 E0.2136
G1 X-116.763 Y16.643 E0.2139
G1 X-117.024 Y15.443 E0.214
G1 X-117.101 Y14.381 E0.1853
G1 X-117.101 Y-20.948 E6.1534
G1 X-117.024 Y-22.01 E0.1853
G1 X-116.763 Y-23.21 E0.214
G1 X-116.334 Y-24.36 E0.2139
G1 X-115.747 Y-25.437 E0.2136
G1 X-115.009 Y-26.423 E0.2144
G1 X-114.137 Y-27.295 E0.2148
G1 X-113.154 Y-28.028 E0.2136
G1 X-112.078 Y-28.617 E0.2135
G1 X-110.929 Y-29.045 E0.2137
G1 X-109.942 Y-29.261 E0.1759
G1 X-63.763 Y-37.002 E8.1553
G1 X-63.063 Y-37.331 E0.1347
G1 X-61.259 Y-37.918 E0.3304
G1 X-59.393 Y-38.274 E0.3308
G1 X-57.501 Y-38.392 E0.3302
G1 X-56.02 Y-38.3 E0.2585
G1 X-35.101 Y-41.807 E3.6943
G1 X-35.101 Y-56.133 E2.4952
G1 X-5.901 Y-56.133 E5.0858
G1 X-5.901 Y-42.229 E2.4216
G1 X-2.959 Y-41.273 E0.5387
G1 X1.684 Y-39.089 E0.8937
G1 X6.016 Y-36.339 E0.8936
G1 X9.969 Y-33.069 E0.8936
G1 X13.482 Y-29.328 E0.8938
G1 X16.498 Y-25.177 E0.8937
G1 X18.97 Y-20.681 E0.8937
G1 X20.859 Y-15.909 E0.8938
G1 X22.041 Y-11.303 E0.8283
G1 X23.739 Y-15.592 E0.8033
G1 X26.211 Y-20.088 E0.8937
G1 X29.227 Y-24.239 E0.8937
G1 X32.74 Y-27.98 E0.8938
G1 X36.694 Y-31.25 E0.8936
G1 X41.025 Y-34 E0.8936
G1 X45.668 Y-36.185 E0.8937
G1 X48.61 Y-37.14 E0.5387
G1 X48.61 Y-53.044 E2.77
G1 X77.81 Y-53.044 E5.0858
G1 X77.81 Y-35.508 E3.0543
G1 X92.022 Y-30.858 E2.6044
G1 X92.93 Y-31.435 E0.1874
G1 X94.647 Y-32.243 E0.3305
G1 X96.452 Y-32.829 E0.3306
G1 X98.318 Y-33.185 E0.3307
G1 X100.21 Y-33.303 E0.3302
G1 X102.102 Y-33.185 E0.3302
G1 X103.968 Y-32.829 E0.3308
G1 X105.772 Y-32.242 E0.3304
G1 X107.489 Y-31.435 E0.3304
G1 X109.09 Y-30.418 E0.3305
G1 X110.551 Y-29.21 E0.3301
G1 X111.851 Y-27.826 E0.3307
G1 X112.967 Y-26.29 E0.3308
G1 X113.886 Y-24.618 E0.3323
G1 X114.81 Y-22.252 E0.4424
G1 X114.81 Y-8.099 E2.4649
G1 X110.913 Y-7.615 E0.6839
G1 X109.745 Y-7.316 E0.21
G1 X108.627 Y-6.873 E0.2096
G1 X107.57 Y-6.292 E0.21
G1 X106.596 Y-5.585 E0.2097
G1 X105.718 Y-4.761 E0.2096
G1 X104.951 Y-3.832 E0.2098
