; G-Code generated by Simplify3D(TM) Version 2.1.2
; Dec 7, 2014 at 1:25:09 AM
; Settings Summary
;   processName,Cyclone
;   applyToModels,btm
;   printMaterial,ABS
;   printQuality,High
;   extruderName,Right Extruder,Left Extruder
;   extruderToolheadNumber,0,1
;   extruderDiameter,0.4,0.4
;   extruderAutoWidth,0,0
;   extruderWidth,0.4,0.4
;   extrusionMultiplier,1,1
;   extruderUseRetract,1,1
;   extruderRetractionDistance,1,1.2
;   extruderExtraRestartDistance,0,0
;   extruderRetractionZLift,0,0
;   extruderRetractionSpeed,1200,1200
;   extruderUseCoasting,0,0
;   extruderCoastingDistance,0.2,0.2
;   extruderUseWipe,0,1
;   extruderWipeDistance,5,7
;   primaryExtruder,1
;   layerHeight,0.25
;   topSolidLayers,3
;   bottomSolidLayers,3
;   perimeterOutlines,2
;   printPerimetersInsideOut,1
;   startPointOption,2
;   startPointOriginX,0
;   startPointOriginY,0
;   startPointOriginZ,300
;   sequentialIslands,0
;   spiralVaseMode,0
;   firstLayerHeightRatio,0.9
;   firstLayerUnderspeed,0.5
;   useRaft,1
;   raftLayers,3
;   raftOffset,3
;   raftSeparationDistance,0.14
;   raftInfill,85
;   disableRaftBaseLayers,0
;   useSkirt,1
;   skirtLayers,2
;   skirtOutlines,2
;   skirtOffset,4
;   infillExtruder,1
;   externalInfillPattern,Rectilinear
;   infillPercentage,20
;   outlineOverlapPercentage,23
;   minInfillLength,2.5
;   infillLayerInterval,1
;   randomInfillStartPoint,1
;   infillAngles,45,-45
;   generateSupport,1
;   supportExtruder,1
;   supportInfill,40
;   supportExtraInflation,0
;   supportLayerInterval,1
;   supportHorizontalPartOffset,0.3
;   supportUpperSeparationLayers,1
;   supportLowerSeparationLayers,1
;   supportGridSpacing,4
;   maxOverhangAngle,45
;   supportAngles,0
;   temperatureName,Right Extruder,Left Extruder,Heated Build Platform
;   temperatureNumber,0,1,0
;   temperatureSetpointCount,1,1,1
;   temperatureSetpointLayers,1,1,1
;   temperatureSetpointTemperatures,0,232,130
;   temperatureStabilizeAtStartup,1,1,1
;   temperatureHeatedBed,0,0,1
;   temperatureRelayBetweenLayers,1,1,1
;   temperatureRelayBetweenLoops,0,0,0
;   fanLayers,1
;   fanSpeeds,0
;   blipFanToFullPower,0
;   adjustSpeedForCooling,1
;   minSpeedLayerTime,15
;   minCoolingSpeedSlowdown,20
;   increaseFanForCooling,0
;   minFanLayerTime,45
;   maxCoolingFanSpeed,100
;   increaseFanForBridging,0
;   bridgingFanSpeed,100
;   use5D,1
;   relativeEdistances,1
;   allowEaxisZeroing,0
;   includeM10123,0
;   stickySupport,1
;   detectArcs,0
;   arcReplaceG2G3,0
;   arcRadialCompensation,1
;   gcodeXoffset,0
;   gcodeYoffset,0
;   gcodeZoffset,0
;   overrideMachineDefinition,1
;   machineTypeOverride,0
;   strokeXoverride,250
;   strokeYoverride,150
;   strokeZoverride,150
;   originOffsetXoverride,125
;   originOffsetYoverride,75
;   originOffsetZoverride,0
;   homeXdirOverride,1
;   homeYdirOverride,1
;   homeZdirOverride,-1
;   flipXoverride,1
;   flipYoverride,-1
;   flipZoverride,1
;   startingGcode,; **** Replicator 2X start.gcode ****,M73 P0 ; enable build progress,G162 X Y F3000 ; home XY maximum,G161 Z F1200 ; home Z minimum,G92 Z-5 ; set Z to -5,G1 Z0 ; move Z to 0,G161 Z F100 ; home Z slowly,M132 X Y Z A B ; recall home offsets,M135 T0 ; load right extruder offsets,G1 X-130 Y-75 Z30 F9000 ; move to wait position off table,G130 X20 Y20 Z20 A20 B20 ; lower stepper Vrefs while heating,M126 S[fan_speed_pwm],M140 S[bed0_temperature] T0,M134 T0 ; stabilize bed temperature,M104 S[extruder1_temperature] T1,M133 T1 ; stabilize extruder temperature,G130 X127 Y127 Z40 A127 B127 ; default stepper Vrefs,G92 A0 B0 ; zero extruders,M135 T1 ; load left extruder offsets,G1 Z0.4 ; position nozzle,G1 E25 F300 ; purge nozzle,G1 X-125 Y-70 Z0.15 F1200 ; slow wipe,G1 X-120 Y-65 Z0.5 F1200 ; lift,G92 A0 B0 ; zero extruders,M73 P1 ;@body (notify GPX body has started),; **** end of start.gcode ****
;   layerChangeGcode,
;   toolChangeGcode,
;   endingGcode,; **** Replicator 2X end.gcode ****,M73 P100 ; end build progress,G0 Z155 F1000 ; send Z axis to bottom of machine,M140 S0 T0 ; cool down HBP,M104 S0 T0 ; cool down right extruder,M104 S0 T1 ; cool down left extruder,M127 ; stop blower fan,G162 X Y F3000 ; home XY maximum,M18 ; disable stepper,M72 P1 ; play Ta-Da song,; **** end of end.gcode ****
;   createX3G,1
;   celebration,0
;   celebrationSong,Entertainer
;   postProcessing,
;   defaultSpeed,4800
;   outlineUnderspeed,0.5
;   supportUnderspeed,0.8
;   rapidXYspeed,9000
;   rapidZspeed,1200
;   minBridgingArea,50
;   bridgingExtrusionMultiplier,1
;   bridgingSpeedMultiplier,0.8
;   filamentDiameter,1.71
;   filamentPricePerKg,46
;   useMinPrintHeight,0
;   minPrintHeight,0
;   useMaxPrintHeight,0
;   maxPrintHeight,0
;   overlapRemoval,0
;   overlapRemovalPercentage,0.3
;   useDiaphragm,0
;   diaphragmLayerInterval,20
;   robustSlicing,1
;   mergeAllIntoSolid,0
;   onlyRetractWhenCrossingOutline,1
;   retractBetweenLayers,1
;   useRetractionMinTravel,0
;   retractionMinTravel,3
;   useRetractionOozeRate,0
;   retractionOozeRate,100
;   onlyWipeOutlines,1
G90 ; use absolute coordinates
M83 ; relative extrusion distances
G21 ; set units to millimeters
; **** Replicator 2X start.gcode ****
M73 P0 ; enable build progress
G162 X Y F3000 ; home XY maximum
G161 Z F1200 ; home Z minimum
G92 Z-5 ; set Z to -5
G1 Z0 ; move Z to 0
G161 Z F100 ; home Z slowly
M132 X Y Z A B ; recall home offsets
M135 T0 ; load right extruder offsets
G1 X-130 Y-75 Z30 F9000 ; move to wait position off table
G130 X20 Y20 Z20 A20 B20 ; lower stepper Vrefs while heating
M127
M140 S130 T0
M134 T0 ; stabilize bed temperature
M104 S232 T1
M133 T1 ; stabilize extruder temperature
G130 X127 Y127 Z40 A127 B127 ; default stepper Vrefs
G92 A0 B0 ; zero extruders
M135 T1 ; load left extruder offsets
G1 Z0.4 ; position nozzle
G1 E25 F300 ; purge nozzle
G1 X-125 Y-70 Z0.15 F1200 ; slow wipe
G1 X-120 Y-65 Z0.5 F1200 ; lift
G92 A0 B0 ; zero extruders
M73 P1 ;@body (notify GPX body has started)
; **** end of start.gcode ****
G1 E-1.2 F1200
; layer 1, Z = 0.45
M105
M105
M105
M135 T1
; tool H0.5 W0.4
G0 X20.07 Y-34.592 F9000
G0 Z0.45 F1200
G1 E1.2 F360
G1 X28.762 Y-31.748 E0.7965 F2400
G1 X30.063 Y-32.36 E0.1252
G1 X32.466 Y-33.141 E0.22
G1 X34.951 Y-33.615 E0.2203
G1 X37.47 Y-33.772 E0.2198
G1 X39.988 Y-33.615 E0.2198
G1 X42.475 Y-33.141 E0.2204
G1 X44.876 Y-32.36 E0.2199
G1 X47.162 Y-31.285 E0.22
G1 X49.295 Y-29.93 E0.22
G1 X51.239 Y-28.323 E0.2197
G1 X52.971 Y-26.48 E0.2202
G1 X54.458 Y-24.433 E0.2203
G1 X55.685 Y-22.199 E0.2219
G1 X57.07 Y-18.653 E0.3315
G1 X57.07 Y0.858 E1.6991
G1 X49.105 Y1.848 E0.6989
G1 X48.552 Y1.989 E0.0497
G1 X48.02 Y2.2 E0.0499
G1 X47.514 Y2.479 E0.0503
G1 X47.049 Y2.816 E0.05
G1 X46.631 Y3.209 E0.0499
G1 X46.264 Y3.652 E0.0501
G1 X45.955 Y4.14 E0.0503
G1 X45.71 Y4.659 E0.05
G1 X45.533 Y5.206 E0.05
G1 X45.425 Y5.772 E0.0502
G1 X45.389 Y6.345 E0.0501
G1 X45.425 Y6.92 E0.0502
G1 X45.533 Y7.486 E0.0501
G1 X45.71 Y8.032 E0.0501
G1 X45.955 Y8.552 E0.05
G1 X46.264 Y9.039 E0.0503
G1 X46.631 Y9.483 E0.0502
G1 X47.049 Y9.875 E0.0499
G1 X47.514 Y10.213 E0.05
G1 X48.018 Y10.49 E0.0501
G1 X48.555 Y10.702 E0.0503
G1 X49.103 Y10.843 E0.0493
G1 X57.07 Y11.834 E0.6991
G1 X57.07 Y31.345 E1.6991
G1 X55.685 Y34.891 E0.3315
G1 X54.457 Y37.126 E0.2221
G1 X52.971 Y39.17 E0.22
G1 X51.241 Y41.013 E0.2201
G1 X49.295 Y42.622 E0.2199
G1 X47.162 Y43.976 E0.22
G1 X44.876 Y45.051 E0.22
G1 X42.475 Y45.833 E0.2199
G1 X39.988 Y46.307 E0.2204
G1 X37.47 Y46.464 E0.2198
G1 X34.951 Y46.307 E0.2198
G1 X32.466 Y45.833 E0.2203
G1 X30.063 Y45.052 E0.22
G1 X28.76 Y44.439 E0.1254
G1 X9.385 Y50.772 E1.7752
G1 X3.717 Y51.854 E0.5025
G1 X-2.03 Y52.214 E0.5015
G1 X-7.779 Y51.854 E0.5016
G1 X-13.438 Y50.774 E0.5017
G1 X-18.916 Y48.994 E0.5017
G1 X-24.129 Y46.541 E0.5017
G1 X-28.991 Y43.454 E0.5016
G1 X-33.43 Y39.783 E0.5016
G1 X-37.373 Y35.583 E0.5017
G1 X-40.759 Y30.924 E0.5016
G1 X-43.534 Y25.876 E0.5016
G1 X-45.654 Y20.52 E0.5017
G1 X-47.087 Y14.941 E0.5016
G1 X-47.809 Y9.227 E0.5016
G1 X-47.809 Y3.465 E0.5018
G1 X-47.087 Y-2.25 E0.5016
G1 X-45.654 Y-7.828 E0.5016
G1 X-43.534 Y-13.184 E0.5017
G1 X-40.759 Y-18.232 E0.5016
G1 X-37.373 Y-22.892 E0.5016
G1 X-33.43 Y-27.092 E0.5017
G1 X-28.991 Y-30.762 E0.5016
G1 X-24.129 Y-33.85 E0.5016
G1 X-19.13 Y-36.202 E0.4811
G1 X-19.13 Y-53.504 E1.5068
G1 X7.57 Y-53.504 E2.3252
G1 X7.57 Y-53.504 E0
G1 X20.07 Y-53.504 E1.0886
G1 X20.07 Y-34.592 E1.6469
G0 X19.67 Y-34.303 F9000
G1 X28.789 Y-31.319 E0.8356 F2400
G1 X30.211 Y-31.988 E0.1369
G1 X32.566 Y-32.753 E0.2156
G1 X35.001 Y-33.218 E0.2159
G1 X37.47 Y-33.372 E0.2154
G1 X39.938 Y-33.218 E0.2154
G1 X42.375 Y-32.753 E0.216
G1 X44.729 Y-31.987 E0.2156
G1 X46.969 Y-30.933 E0.2156
G1 X49.059 Y-29.606 E0.2156
G1 X50.965 Y-28.03 E0.2153
G1 X52.662 Y-26.224 E0.2158
G1 X54.119 Y-24.218 E0.2159
G1 X55.321 Y-22.029 E0.2175
G1 X56.67 Y-18.578 E0.3227
G1 X56.67 Y0.505 E1.6618
G1 X49.031 Y1.454 E0.6704
G1 X48.428 Y1.608 E0.0542
G1 X47.849 Y1.838 E0.0543
G1 X47.299 Y2.14 E0.0547
G1 X46.793 Y2.507 E0.0544
G1 X46.339 Y2.934 E0.0543
G1 X45.94 Y3.417 E0.0545
G1 X45.603 Y3.947 E0.0547
G1 X45.338 Y4.512 E0.0544
G1 X45.145 Y5.106 E0.0544
G1 X45.027 Y5.721 E0.0545
G1 X44.988 Y6.345 E0.0545
G1 X45.027 Y6.97 E0.0545
G1 X45.145 Y7.585 E0.0545
G1 X45.338 Y8.18 E0.0544
G1 X45.603 Y8.745 E0.0544
G1 X45.94 Y9.275 E0.0546
G1 X46.339 Y9.757 E0.0545
G1 X46.793 Y10.184 E0.0543
G1 X47.299 Y10.551 E0.0544
G1 X47.847 Y10.853 E0.0545
G1 X48.431 Y11.084 E0.0546
G1 X49.029 Y11.237 E0.0538
G1 X56.67 Y12.187 E0.6706
G1 X56.67 Y31.269 E1.6618
G1 X55.321 Y34.721 E0.3227
G1 X54.118 Y36.911 E0.2176
G1 X52.662 Y38.914 E0.2157
G1 X50.967 Y40.72 E0.2157
G1 X49.059 Y42.297 E0.2155
G1 X46.969 Y43.625 E0.2156
G1 X44.729 Y44.679 E0.2156
G1 X42.375 Y45.445 E0.2156
G1 X39.938 Y45.909 E0.216
G1 X37.47 Y46.063 E0.2154
G1 X35.001 Y45.909 E0.2154
G1 X32.566 Y45.445 E0.2159
G1 X30.211 Y44.679 E0.2156
G1 X28.787 Y44.01 E0.137
G1 X9.285 Y50.384 E1.7868
G1 X3.667 Y51.456 E0.4981
G1 X-2.03 Y51.813 E0.4971
G1 X-7.729 Y51.456 E0.4972
G1 X-13.338 Y50.386 E0.4973
G1 X-18.769 Y48.621 E0.4973
G1 X-23.936 Y46.19 E0.4973
G1 X-28.756 Y43.13 E0.4972
G1 X-33.155 Y39.491 E0.4972
G1 X-37.064 Y35.328 E0.4973
G1 X-40.42 Y30.709 E0.4972
G1 X-43.171 Y25.705 E0.4972
G1 X-45.273 Y20.396 E0.4973
G1 X-46.693 Y14.866 E0.4972
G1 X-47.409 Y9.202 E0.4972
G1 X-47.409 Y3.49 E0.4974
G1 X-46.693 Y-2.174 E0.4972
G1 X-45.273 Y-7.704 E0.4972
G1 X-43.171 Y-13.014 E0.4973
G1 X-40.42 Y-18.017 E0.4972
G1 X-37.064 Y-22.636 E0.4972
G1 X-33.155 Y-26.8 E0.4973
G1 X-28.756 Y-30.438 E0.4972
G1 X-23.936 Y-33.498 E0.4972
G1 X-18.769 Y-35.93 E0.4973
G1 X-18.73 Y-35.942 E0.0035
G1 X-18.73 Y-53.104 E1.4945
G1 X7.17 Y-53.104 E2.2555
G1 X7.17 Y-53.104 E0
G1 X19.67 Y-53.104 E1.0886
G1 X19.67 Y-34.303 E1.6373
; tool H0.5 W0.8
G0 X15.07 Y-30.968 F9000
G1 X29.282 Y-26.318 E2.6044 F600
G1 X30.19 Y-26.895 E0.1874
G1 X31.907 Y-27.702 E0.3306
G1 X33.712 Y-28.289 E0.3305
G1 X35.577 Y-28.645 E0.3307
G1 X37.47 Y-28.763 E0.3302
G1 X39.362 Y-28.645 E0.3302
G1 X41.228 Y-28.289 E0.3308
G1 X43.032 Y-27.702 E0.3304
G1 X44.749 Y-26.895 E0.3304
G1 X46.35 Y-25.877 E0.3305
G1 X47.811 Y-24.67 E0.3301
G1 X49.111 Y-23.286 E0.3307
G1 X50.227 Y-21.749 E0.3308
G1 X51.146 Y-20.077 E0.3323
G1 X52.07 Y-17.711 E0.4424
G1 X52.07 Y-3.559 E2.4649
G1 X48.173 Y-3.075 E0.6839
G1 X47.005 Y-2.776 E0.21
G1 X45.886 Y-2.332 E0.2096
G1 X44.83 Y-1.752 E0.21
G1 X43.856 Y-1.044 E0.2097
G1 X42.978 Y-0.22 E0.2096
G1 X42.211 Y0.708 E0.2098
G1 X41.565 Y1.726 E0.21
G1 X41.052 Y2.815 E0.2096
G1 X40.68 Y3.96 E0.2097
G1 X40.454 Y5.144 E0.2099
G1 X40.379 Y6.345 E0.2097
G1 X40.454 Y7.548 E0.2099
G1 X40.68 Y8.731 E0.2099
G1 X41.052 Y9.877 E0.2097
G1 X41.565 Y10.966 E0.2096
G1 X42.211 Y11.983 E0.21
G1 X42.978 Y12.912 E0.2098
G1 X43.856 Y13.736 E0.2096
G1 X44.83 Y14.443 E0.2097
G1 X45.885 Y15.023 E0.2098
G1 X47.006 Y15.467 E0.2099
G1 X48.169 Y15.766 E0.2091
G1 X52.07 Y16.251 E0.6847
G1 X52.07 Y30.403 E2.4649
G1 X51.146 Y32.769 E0.4424
G1 X50.226 Y34.442 E0.3325
G1 X49.111 Y35.976 E0.3304
G1 X47.812 Y37.36 E0.3306
G1 X46.35 Y38.569 E0.3303
G1 X44.749 Y39.586 E0.3305
G1 X43.032 Y40.393 E0.3304
G1 X41.228 Y40.98 E0.3304
G1 X39.362 Y41.336 E0.3308
G1 X37.47 Y41.454 E0.3302
G1 X35.578 Y41.336 E0.3302
G1 X33.712 Y40.98 E0.3308
G1 X31.907 Y40.394 E0.3306
G1 X30.19 Y39.586 E0.3305
G1 X29.281 Y39.009 E0.1876
G1 X8.135 Y45.921 E3.8748
G1 X3.09 Y46.883 E0.8945
G1 X-2.03 Y47.204 E0.8935
G1 X-7.152 Y46.883 E0.8938
G1 X-12.192 Y45.922 E0.8937
G1 X-17.072 Y44.336 E0.8938
G1 X-21.715 Y42.151 E0.8938
G1 X-26.046 Y39.401 E0.8936
G1 X-30 Y36.131 E0.8936
G1 X-33.513 Y32.39 E0.8938
G1 X-36.529 Y28.239 E0.8937
G1 X-39.001 Y23.743 E0.8937
G1 X-40.89 Y18.972 E0.8938
G1 X-42.166 Y14.002 E0.8936
G1 X-42.809 Y8.912 E0.8936
G1 X-42.809 Y3.78 E0.8939
G1 X-42.166 Y-1.311 E0.8936
G1 X-40.89 Y-6.28 E0.8936
G1 X-39.001 Y-11.051 E0.8938
G1 X-36.529 Y-15.547 E0.8937
G1 X-33.513 Y-19.698 E0.8937
G1 X-30 Y-23.44 E0.8938
G1 X-26.046 Y-26.709 E0.8936
G1 X-21.715 Y-29.46 E0.8936
G1 X-17.072 Y-31.644 E0.8938
G1 X-14.13 Y-32.6 E0.5387
G1 X-14.13 Y-48.504 E2.77
G1 X2.57 Y-48.504 E2.9087
G1 X2.57 Y-48.504 E0
G1 X15.07 Y-48.504 E2.1771
G1 X15.07 Y-30.968 E3.0543
G0 X21.723 Y-28.791 F600
G0 X29.875 Y-25.747 F9000
G1 X45.064 Y-25.747 E2.6455 F600
G1 X45.879 Y-25.229 E0.1682
G1 X47.262 Y-24.085 E0.3126
G1 X47.849 Y-23.461 E0.1492
G0 X35.668 Y40.539 F9000
G1 X35.678 Y40.541 E0.0017 F600
G1 X37.47 Y40.653 E0.3127
G1 X39.262 Y40.541 E0.3127
G1 X39.271 Y40.539 E0.0017
G1 X35.668 Y40.539 E0.6276
G1 X33.912 Y40.204 E0.3115
G1 X32.202 Y39.648 E0.313
G1 X30.576 Y38.884 E0.313
G1 X29.584 Y38.253 E0.2048
G1 X45.355 Y38.253 E2.7468
G1 X45.879 Y37.92 E0.1082
G1 X47.263 Y36.776 E0.3128
G1 X48.022 Y35.968 E0.1931
G1 X-28.943 Y35.968 E13.4051
G1 X-29.452 Y35.547 E0.115
G1 X-31.203 Y33.682 E0.4455
G1 X49.731 Y33.682 E14.0964
G1 X50.419 Y32.429 E0.249
G1 X50.823 Y31.396 E0.1931
G1 X-33.246 Y31.396 E14.6424
G1 X-34.907 Y29.111 E0.4921
G1 X51.27 Y29.111 E15.0095
G1 X51.27 Y26.825 E0.3981
G1 X-36.393 Y26.825 E15.2684
G1 X-37.65 Y24.539 E0.4543
G1 X51.27 Y24.539 E15.4873
G1 X51.27 Y22.253 E0.3981
G1 X-38.73 Y22.253 E15.6754
G1 X-39.635 Y19.968 E0.4282
G1 X51.27 Y19.968 E15.833
G1 X51.27 Y17.682 E0.3981
G1 X-40.395 Y17.682 E15.9654
G1 X-40.982 Y15.396 E0.411
G1 X44.903 Y15.396 E14.9587
G1 X44.4 Y15.12 E0.0998
G1 X43.345 Y14.353 E0.2273
G1 X42.394 Y13.46 E0.2272
G1 X42.105 Y13.111 E0.0791
G1 X-41.472 Y13.111 E14.5567
G1 X-41.761 Y10.825 E0.4013
G1 X40.614 Y10.825 E14.3475
G1 X40.307 Y10.172 E0.1257
G1 X39.904 Y8.931 E0.2273
G1 X39.829 Y8.539 E0.0694
G1 X-42.009 Y8.539 E14.2539
G1 X-42.009 Y6.253 E0.3981
G1 X39.583 Y6.253 E14.2111
G1 X39.659 Y5.043 E0.2112
G1 X39.864 Y3.968 E0.1907
G1 X-42.009 Y3.968 E14.2601
G1 X-42.009 Y3.83 E0.024
G1 X-41.738 Y1.682 E0.3771
G1 X40.701 Y1.682 E14.3585
G1 X40.862 Y1.34 E0.0659
G1 X41.562 Y0.237 E0.2275
G1 X42.257 Y-0.604 E0.19
G1 X-41.449 Y-0.604 E14.5792
G1 X-41.378 Y-1.16 E0.0977
G1 X-40.934 Y-2.889 E0.3109
G1 X45.239 Y-2.889 E15.009
G1 X45.545 Y-3.058 E0.0609
G1 X46.758 Y-3.538 E0.2271
G1 X48.024 Y-3.862 E0.2277
G1 X51.27 Y-4.266 E0.5696
G1 X51.27 Y-5.175 E0.1584
G1 X-40.348 Y-5.175 E15.9571
G1 X-40.127 Y-6.032 E0.1541
G1 X-39.562 Y-7.461 E0.2676
G1 X51.27 Y-7.461 E15.8203
G1 X51.27 Y-9.747 E0.3981
G1 X-38.657 Y-9.747 E15.6627
G1 X-38.275 Y-10.71 E0.1805
G1 X-37.548 Y-12.032 E0.2628
G1 X51.27 Y-12.032 E15.4696
G1 X51.27 Y-14.318 E0.3981
G1 X-36.292 Y-14.318 E15.2507
G1 X-35.852 Y-15.118 E0.159
G1 X-34.772 Y-16.604 E0.3199
G1 X51.27 Y-16.604 E14.9861
G1 X51.27 Y-17.561 E0.1666
G1 X50.751 Y-18.889 E0.2485
G1 X-33.112 Y-18.889 E14.6065
G1 X-32.895 Y-19.188 E0.0642
G1 X-31.029 Y-21.175 E0.4748
G1 X49.63 Y-21.175 E14.0485
G1 X49.55 Y-21.32 E0.0288
G1 X48.493 Y-22.775 E0.3132
G1 X47.849 Y-23.461 E0.1639
G1 X-28.719 Y-23.461 E13.336
G1 X-25.955 Y-25.747 E0.6247
G1 X28.454 Y-25.747 E9.4766
G1 X21.468 Y-28.032 E1.2802
G1 X-22.47 Y-28.032 E7.6529
G1 X-21.329 Y-28.757 E0.2355
G1 X-18.011 Y-30.318 E0.6386
G1 X14.482 Y-30.318 E5.6595
G1 X14.27 Y-30.388 E0.039
G1 X14.27 Y-32.604 E0.386
