; G-Code generated by Simplify3D(TM) Version 2.1.2
; Dec 2, 2014 at 7:30:08 PM
; Settings Summary
;   processName,Process1
;   applyToModels,yframeback,yframefront
;   printMaterial,ABS
;   printQuality,High
;   extruderName,Right Extruder,Left Extruder
;   extruderToolheadNumber,0,1
;   extruderDiameter,0.4,0.4
;   extruderAutoWidth,0,0
;   extruderWidth,0.4,0.4
;   extrusionMultiplier,1,1
;   extruderUseRetract,1,1
;   extruderRetractionDistance,1,1.2
;   extruderExtraRestartDistance,0,0
;   extruderRetractionZLift,0,0
;   extruderRetractionSpeed,1200,1200
;   extruderUseCoasting,0,0
;   extruderCoastingDistance,0.2,0.2
;   extruderUseWipe,0,1
;   extruderWipeDistance,5,7
;   primaryExtruder,1
;   layerHeight,0.25
;   topSolidLayers,3
;   bottomSolidLayers,3
;   perimeterOutlines,2
;   printPerimetersInsideOut,1
;   startPointOption,2
;   startPointOriginX,0
;   startPointOriginY,0
;   startPointOriginZ,300
;   sequentialIslands,0
;   spiralVaseMode,0
;   firstLayerHeightRatio,0.9
;   firstLayerUnderspeed,0.5
;   useRaft,1
;   raftLayers,3
;   raftOffset,3
;   raftSeparationDistance,0.14
;   raftInfill,85
;   disableRaftBaseLayers,0
;   useSkirt,1
;   skirtLayers,2
;   skirtOutlines,2
;   skirtOffset,4
;   infillExtruder,1
;   externalInfillPattern,Rectilinear
;   infillPercentage,20
;   outlineOverlapPercentage,23
;   minInfillLength,2.5
;   infillLayerInterval,1
;   randomInfillStartPoint,1
;   infillAngles,45,-45
;   generateSupport,1
;   supportExtruder,1
;   supportInfill,40
;   supportExtraInflation,0
;   supportLayerInterval,1
;   supportHorizontalPartOffset,0.3
;   supportUpperSeparationLayers,1
;   supportLowerSeparationLayers,1
;   supportGridSpacing,4
;   maxOverhangAngle,45
;   supportAngles,0
;   temperatureName,Right Extruder,Left Extruder,Heated Build Platform
;   temperatureNumber,0,1,0
;   temperatureSetpointCount,1,1,1
;   temperatureSetpointLayers,1,1,1
;   temperatureSetpointTemperatures,0,232,130
;   temperatureStabilizeAtStartup,1,1,1
;   temperatureHeatedBed,0,0,1
;   temperatureRelayBetweenLayers,1,1,1
;   temperatureRelayBetweenLoops,0,0,0
;   fanLayers,1
;   fanSpeeds,0
;   blipFanToFullPower,0
;   adjustSpeedForCooling,1
;   minSpeedLayerTime,15
;   minCoolingSpeedSlowdown,20
;   increaseFanForCooling,0
;   minFanLayerTime,45
;   maxCoolingFanSpeed,100
;   increaseFanForBridging,0
;   bridgingFanSpeed,100
;   use5D,1
;   relativeEdistances,1
;   allowEaxisZeroing,0
;   includeM10123,0
;   stickySupport,1
;   detectArcs,0
;   arcReplaceG2G3,0
;   arcRadialCompensation,1
;   gcodeXoffset,0
;   gcodeYoffset,0
;   gcodeZoffset,0
;   overrideMachineDefinition,1
;   machineTypeOverride,0
;   strokeXoverride,250
;   strokeYoverride,150
;   strokeZoverride,150
;   originOffsetXoverride,125
;   originOffsetYoverride,75
;   originOffsetZoverride,0
;   homeXdirOverride,1
;   homeYdirOverride,1
;   homeZdirOverride,-1
;   flipXoverride,1
;   flipYoverride,-1
;   flipZoverride,1
;   startingGcode,; **** Replicator 2X start.gcode ****,M73 P0 ; enable build progress,G162 X Y F3000 ; home XY maximum,G161 Z F1200 ; home Z minimum,G92 Z-5 ; set Z to -5,G1 Z0 ; move Z to 0,G161 Z F100 ; home Z slowly,M132 X Y Z A B ; recall home offsets,M135 T0 ; load right extruder offsets,G1 X-130 Y-75 Z30 F9000 ; move to wait position off table,G130 X20 Y20 Z20 A20 B20 ; lower stepper Vrefs while heating,M126 S[fan_speed_pwm],M140 S[bed0_temperature] T0,M134 T0 ; stabilize bed temperature,M104 S[extruder1_temperature] T1,M133 T1 ; stabilize extruder temperature,G130 X127 Y127 Z40 A127 B127 ; default stepper Vrefs,G92 A0 B0 ; zero extruders,M135 T1 ; load left extruder offsets,G1 Z0.4 ; position nozzle,G1 E25 F300 ; purge nozzle,G1 X-125 Y-70 Z0.15 F1200 ; slow wipe,G1 X-120 Y-65 Z0.5 F1200 ; lift,G92 A0 B0 ; zero extruders,M73 P1 ;@body (notify GPX body has started),; **** end of start.gcode ****
;   layerChangeGcode,
;   toolChangeGcode,
;   endingGcode,; **** Replicator 2X end.gcode ****,M73 P100 ; end build progress,G0 Z155 F1000 ; send Z axis to bottom of machine,M140 S0 T0 ; cool down HBP,M104 S0 T0 ; cool down right extruder,M104 S0 T1 ; cool down left extruder,M127 ; stop blower fan,G162 X Y F3000 ; home XY maximum,M18 ; disable stepper,M72 P1 ; play Ta-Da song,; **** end of end.gcode ****
;   createX3G,1
;   celebration,0
;   celebrationSong,Entertainer
;   postProcessing,
;   defaultSpeed,4800
;   outlineUnderspeed,0.5
;   supportUnderspeed,0.8
;   rapidXYspeed,9000
;   rapidZspeed,1200
;   minBridgingArea,50
;   bridgingExtrusionMultiplier,1
;   bridgingSpeedMultiplier,0.8
;   filamentDiameter,1.71
;   filamentPricePerKg,46
;   useMinPrintHeight,0
;   minPrintHeight,0
;   useMaxPrintHeight,0
;   maxPrintHeight,0
;   overlapRemoval,0
;   overlapRemovalPercentage,0.3
;   useDiaphragm,0
;   diaphragmLayerInterval,20
;   robustSlicing,1
;   mergeAllIntoSolid,0
;   onlyRetractWhenCrossingOutline,1
;   retractBetweenLayers,1
;   useRetractionMinTravel,0
;   retractionMinTravel,3
;   useRetractionOozeRate,0
;   retractionOozeRate,100
;   onlyWipeOutlines,1
G90 ; use absolute coordinates
M83 ; relative extrusion distances
G21 ; set units to millimeters
; **** Replicator 2X start.gcode ****
M73 P0 ; enable build progress
G162 X Y F3000 ; home XY maximum
G161 Z F1200 ; home Z minimum
G92 Z-5 ; set Z to -5
G1 Z0 ; move Z to 0
G161 Z F100 ; home Z slowly
M132 X Y Z A B ; recall home offsets
M135 T0 ; load right extruder offsets
G1 X-130 Y-75 Z30 F9000 ; move to wait position off table
G130 X20 Y20 Z20 A20 B20 ; lower stepper Vrefs while heating
M127
M140 S130 T0
M134 T0 ; stabilize bed temperature
M104 S232 T1
M133 T1 ; stabilize extruder temperature
G130 X127 Y127 Z40 A127 B127 ; default stepper Vrefs
G92 A0 B0 ; zero extruders
M135 T1 ; load left extruder offsets
G1 Z0.4 ; position nozzle
G1 E25 F300 ; purge nozzle
G1 X-125 Y-70 Z0.15 F1200 ; slow wipe
G1 X-120 Y-65 Z0.5 F1200 ; lift
G92 A0 B0 ; zero extruders
M73 P1 ;@body (notify GPX body has started)
; **** end of start.gcode ****
G1 E-1.2 F1200
; layer 1, Z = 0.45
M105
M105
M105
M135 T1
; tool H0.5 W0.4
G0 X-24.349 Y11.246 F9000
G0 Z0.45 F1200
G1 E1.2 F360
G1 X-24.349 Y-50.795 E5.4028 F2400
G1 X-24.297 Y-51.989 E0.1041
G1 X-24.113 Y-53.383 E0.1225
G1 X-23.809 Y-54.755 E0.1224
G1 X-23.386 Y-56.095 E0.1223
G1 X-22.849 Y-57.393 E0.1224
G1 X-22.2 Y-58.64 E0.1224
G1 X-21.444 Y-59.826 E0.1224
G1 X-20.589 Y-60.94 E0.1224
G1 X-19.64 Y-61.976 E0.1224
G1 X-18.603 Y-62.926 E0.1224
G1 X-17.489 Y-63.781 E0.1223
G1 X-16.303 Y-64.536 E0.1224
G1 X-15.056 Y-65.185 E0.1224
G1 X-13.758 Y-65.723 E0.1224
G1 X-12.418 Y-66.145 E0.1223
G1 X-11.046 Y-66.45 E0.1224
G1 X-9.652 Y-66.633 E0.1225
G1 X-8.249 Y-66.695 E0.1223
G1 X-6.86 Y-66.634 E0.1211
G1 X-5.457 Y-66.451 E0.1232
G1 X-4.079 Y-66.145 E0.1229
G1 X-2.739 Y-65.723 E0.1223
G1 X-1.441 Y-65.185 E0.1224
G1 X-0.194 Y-64.536 E0.1224
G1 X0.991 Y-63.781 E0.1224
G1 X2.106 Y-62.926 E0.1223
G1 X3.142 Y-61.976 E0.1224
G1 X4.091 Y-60.94 E0.1224
G1 X4.947 Y-59.826 E0.1224
G1 X5.702 Y-58.64 E0.1225
G1 X6.351 Y-57.393 E0.1224
G1 X6.889 Y-56.095 E0.1224
G1 X7.311 Y-54.755 E0.1223
G1 X7.616 Y-53.383 E0.1224
G1 X7.799 Y-51.989 E0.1225
G1 X7.851 Y-50.795 E0.1041
G1 X7.851 Y-37.215 E1.1826
G1 X8.09 Y-37.225 E0.0208
G1 X9.494 Y-37.164 E0.1223
G1 X10.888 Y-36.981 E0.1225
G1 X12.26 Y-36.676 E0.1224
G1 X13.589 Y-36.257 E0.1214
G1 X14.894 Y-35.718 E0.1229
G1 X16.145 Y-35.067 E0.1228
G1 X17.33 Y-34.312 E0.1224
G1 X18.445 Y-33.457 E0.1223
G1 X19.481 Y-32.507 E0.1224
G1 X20.436 Y-31.465 E0.1231
G1 X40.79 Y-4.85 E2.9179
G1 X41.541 Y-3.671 E0.1217
G1 X42.19 Y-2.424 E0.1224
G1 X42.728 Y-1.126 E0.1224
G1 X43.151 Y0.214 E0.1224
G1 X43.455 Y1.586 E0.1224
G1 X43.638 Y2.98 E0.1224
G1 X43.7 Y4.384 E0.1224
G1 X43.638 Y5.788 E0.1224
G1 X43.455 Y7.181 E0.1224
G1 X43.151 Y8.553 E0.1224
G1 X42.728 Y9.893 E0.1224
G1 X42.19 Y11.192 E0.1224
G1 X41.541 Y12.438 E0.1224
G1 X40.79 Y13.617 E0.1217
G1 X20.436 Y40.233 E2.9179
G1 X19.481 Y41.275 E0.1231
G1 X18.445 Y42.224 E0.1224
G1 X17.33 Y43.079 E0.1223
G1 X16.145 Y43.835 E0.1224
G1 X14.898 Y44.484 E0.1224
G1 X13.6 Y45.021 E0.1224
G1 X12.26 Y45.444 E0.1223
G1 X10.902 Y45.745 E0.1211
G1 X9.5 Y45.931 E0.1232
G1 X8.09 Y45.993 E0.1229
G1 X7.851 Y45.982 E0.0208
G1 X7.851 Y46.083 E0.0088
G1 X7.799 Y47.277 E0.1041
G1 X7.616 Y48.672 E0.1225
G1 X7.311 Y50.043 E0.1224
G1 X6.889 Y51.383 E0.1223
G1 X6.351 Y52.681 E0.1224
G1 X5.702 Y53.928 E0.1224
G1 X4.947 Y55.114 E0.1224
G1 X4.092 Y56.228 E0.1223
G1 X3.142 Y57.265 E0.1224
G1 X2.106 Y58.214 E0.1224
G1 X0.991 Y59.069 E0.1223
G1 X-0.194 Y59.825 E0.1224
G1 X-1.441 Y60.474 E0.1224
G1 X-2.739 Y61.011 E0.1224
G1 X-4.079 Y61.434 E0.1223
G1 X-5.44 Y61.736 E0.1214
G1 X-6.841 Y61.922 E0.123
G1 X-8.249 Y61.983 E0.1227
G1 X-9.64 Y61.922 E0.1213
G1 X-11.042 Y61.739 E0.1231
G1 X-12.418 Y61.434 E0.1228
G1 X-13.758 Y61.011 E0.1223
G1 X-15.056 Y60.474 E0.1224
G1 X-16.303 Y59.825 E0.1224
G1 X-17.337 Y59.166 E0.1067
G1 X-37.178 Y45.091 E2.1185
G1 X-38.103 Y44.381 E0.1015
G1 X-39.14 Y43.431 E0.1224
G1 X-40.089 Y42.395 E0.1224
G1 X-40.944 Y41.28 E0.1223
G1 X-41.7 Y40.095 E0.1224
G1 X-42.349 Y38.848 E0.1224
G1 X-42.881 Y37.564 E0.1211
G1 X-43.307 Y36.216 E0.1231
G1 X-43.613 Y34.838 E0.1229
G1 X-43.797 Y33.444 E0.1225
G1 X-43.858 Y32.04 E0.1223
G1 X-43.797 Y30.637 E0.1223
G1 X-43.613 Y29.243 E0.1224
G1 X-43.309 Y27.871 E0.1224
G1 X-42.891 Y26.545 E0.1211
G1 X-42.351 Y25.238 E0.1231
G1 X-41.7 Y23.986 E0.1229
G1 X-40.944 Y22.8 E0.1224
G1 X-40.089 Y21.686 E0.1224
G1 X-39.14 Y20.649 E0.1224
G1 X-38.103 Y19.7 E0.1224
G1 X-36.989 Y18.845 E0.1224
G1 X-36.043 Y18.242 E0.0976
G1 X-24.349 Y11.246 E1.1868
G0 X-23.949 Y11.472 F9000
G1 X-23.949 Y-50.786 E5.4218 F2400
G1 X-23.898 Y-51.954 E0.1018
G1 X-23.719 Y-53.314 E0.1194
G1 X-23.422 Y-54.652 E0.1194
G1 X-23.01 Y-55.958 E0.1193
G1 X-22.486 Y-57.224 E0.1193
G1 X-21.853 Y-58.44 E0.1193
G1 X-21.116 Y-59.596 E0.1194
G1 X-20.282 Y-60.683 E0.1193
G1 X-19.357 Y-61.693 E0.1193
G1 X-18.346 Y-62.619 E0.1194
G1 X-17.259 Y-63.453 E0.1193
G1 X-16.103 Y-64.19 E0.1194
G1 X-14.887 Y-64.823 E0.1194
G1 X-13.621 Y-65.347 E0.1193
G1 X-12.315 Y-65.759 E0.1193
G1 X-10.977 Y-66.056 E0.1193
G1 X-9.617 Y-66.234 E0.1194
G1 X-8.249 Y-66.294 E0.1193
G1 X-6.895 Y-66.235 E0.118
G1 X-5.526 Y-66.057 E0.1202
G1 X-4.183 Y-65.759 E0.1199
G1 X-2.876 Y-65.347 E0.1193
G1 X-1.61 Y-64.823 E0.1193
G1 X-0.394 Y-64.19 E0.1194
G1 X0.762 Y-63.453 E0.1194
G1 X1.848 Y-62.619 E0.1193
G1 X2.859 Y-61.693 E0.1194
G1 X3.785 Y-60.683 E0.1193
G1 X4.619 Y-59.596 E0.1193
G1 X5.356 Y-58.439 E0.1194
G1 X5.988 Y-57.224 E0.1193
G1 X6.513 Y-55.958 E0.1193
G1 X6.925 Y-54.651 E0.1193
G1 X7.221 Y-53.314 E0.1193
G1 X7.4 Y-51.954 E0.1194
G1 X7.451 Y-50.786 E0.1018
G1 X7.451 Y-36.797 E1.2182
G1 X8.09 Y-36.825 E0.0557
G1 X9.459 Y-36.765 E0.1193
G1 X10.819 Y-36.586 E0.1194
G1 X12.157 Y-36.29 E0.1193
G1 X13.453 Y-35.881 E0.1183
G1 X14.725 Y-35.355 E0.1199
G1 X15.945 Y-34.72 E0.1198
G1 X17.101 Y-33.984 E0.1194
G1 X18.188 Y-33.15 E0.1193
G1 X19.198 Y-32.224 E0.1194
G1 X20.129 Y-31.208 E0.12
G1 X40.462 Y-4.62 E2.9149
G1 X41.195 Y-3.471 E0.1187
G1 X41.828 Y-2.255 E0.1194
G1 X42.352 Y-0.989 E0.1193
G1 X42.764 Y0.318 E0.1193
G1 X43.061 Y1.656 E0.1194
G1 X43.239 Y3.015 E0.1194
G1 X43.299 Y4.384 E0.1193
G1 X43.239 Y5.753 E0.1193
G1 X43.061 Y7.112 E0.1194
G1 X42.764 Y8.45 E0.1194
G1 X42.352 Y9.756 E0.1193
G1 X41.828 Y11.022 E0.1193
G1 X41.195 Y12.238 E0.1194
G1 X40.462 Y13.388 E0.1187
G1 X20.129 Y39.976 E2.9149
G1 X19.198 Y40.992 E0.12
G1 X18.188 Y41.918 E0.1194
G1 X17.101 Y42.752 E0.1193
G1 X15.945 Y43.488 E0.1194
G1 X14.729 Y44.121 E0.1194
G1 X13.463 Y44.645 E0.1193
G1 X12.157 Y45.057 E0.1193
G1 X10.833 Y45.351 E0.1181
G1 X9.465 Y45.533 E0.1201
G1 X8.09 Y45.593 E0.1198
G1 X7.451 Y45.565 E0.0557
G1 X7.451 Y46.074 E0.0444
G1 X7.4 Y47.242 E0.1018
G1 X7.221 Y48.602 E0.1194
G1 X6.925 Y49.94 E0.1193
G1 X6.513 Y51.246 E0.1193
G1 X5.988 Y52.512 E0.1193
G1 X5.356 Y53.728 E0.1194
G1 X4.619 Y54.884 E0.1194
G1 X3.785 Y55.971 E0.1193
G1 X2.859 Y56.982 E0.1194
G1 X1.848 Y57.908 E0.1194
G1 X0.762 Y58.741 E0.1193
G1 X-0.394 Y59.478 E0.1194
G1 X-1.61 Y60.111 E0.1194
G1 X-2.876 Y60.635 E0.1193
G1 X-4.183 Y61.047 E0.1193
G1 X-5.51 Y61.342 E0.1184
G1 X-6.876 Y61.523 E0.12
G1 X-8.249 Y61.583 E0.1197
G1 X-9.606 Y61.523 E0.1183
G1 X-10.972 Y61.345 E0.12
G1 X-12.315 Y61.047 E0.1198
G1 X-13.621 Y60.635 E0.1193
G1 X-14.887 Y60.111 E0.1193
G1 X-16.103 Y59.478 E0.1194
G1 X-17.114 Y58.834 E0.1043
G1 X-36.941 Y44.769 E2.117
G1 X-37.846 Y44.074 E0.0994
G1 X-38.856 Y43.148 E0.1194
G1 X-39.783 Y42.138 E0.1194
G1 X-40.616 Y41.051 E0.1193
G1 X-41.353 Y39.895 E0.1193
G1 X-41.986 Y38.679 E0.1194
G1 X-42.505 Y37.426 E0.1181
G1 X-42.921 Y36.112 E0.12
G1 X-43.219 Y34.769 E0.1199
G1 X-43.398 Y33.409 E0.1194
G1 X-43.457 Y32.04 E0.1193
G1 X-43.398 Y30.672 E0.1193
G1 X-43.219 Y29.312 E0.1194
G1 X-42.922 Y27.974 E0.1194
G1 X-42.515 Y26.682 E0.118
G1 X-41.989 Y25.407 E0.1201
G1 X-41.353 Y24.186 E0.1199
G1 X-40.616 Y23.03 E0.1194
G1 X-39.782 Y21.943 E0.1193
G1 X-38.856 Y20.933 E0.1194
G1 X-37.846 Y20.007 E0.1194
G1 X-36.759 Y19.173 E0.1193
G1 X-35.833 Y18.583 E0.0956
G1 X-23.949 Y11.472 E1.2061
; tool H0.5 W0.8
G0 X-19.349 Y14.081 F9000
G1 X-19.349 Y-50.686 E11.2805 F600
G1 X-19.311 Y-51.553 E0.1512
G1 X-19.184 Y-52.514 E0.1688
G1 X-18.975 Y-53.46 E0.1687
G1 X-18.683 Y-54.383 E0.1687
G1 X-18.313 Y-55.278 E0.1687
G1 X-17.866 Y-56.137 E0.1687
G1 X-17.345 Y-56.955 E0.1688
G1 X-16.755 Y-57.723 E0.1687
G1 X-16.101 Y-58.437 E0.1687
G1 X-15.386 Y-59.092 E0.1688
G1 X-14.618 Y-59.682 E0.1687
G1 X-13.801 Y-60.202 E0.1688
G1 X-12.941 Y-60.65 E0.1688
G1 X-12.047 Y-61.02 E0.1687
G1 X-11.123 Y-61.311 E0.1687
G1 X-10.177 Y-61.521 E0.1687
G1 X-9.216 Y-61.648 E0.1688
G1 X-8.249 Y-61.69 E0.1687
G1 X-7.293 Y-61.648 E0.1667
G1 X-6.323 Y-61.522 E0.1703
G1 X-5.374 Y-61.311 E0.1692
G1 X-4.451 Y-61.02 E0.1687
G1 X-3.556 Y-60.65 E0.1687
G1 X-2.697 Y-60.202 E0.1688
G1 X-1.879 Y-59.681 E0.1688
G1 X-1.111 Y-59.092 E0.1687
G1 X-0.397 Y-58.437 E0.1688
G1 X0.258 Y-57.723 E0.1687
G1 X0.847 Y-56.955 E0.1687
G1 X1.368 Y-56.137 E0.1688
G1 X1.815 Y-55.278 E0.1687
G1 X2.186 Y-54.383 E0.1687
G1 X2.477 Y-53.46 E0.1687
G1 X2.687 Y-52.514 E0.1687
G1 X2.813 Y-51.553 E0.1688
G1 X2.851 Y-50.686 E0.1512
G1 X2.851 Y-30.954 E3.4367
G1 X4.293 Y-31.551 E0.2717
G1 X5.216 Y-31.842 E0.1687
G1 X6.162 Y-32.052 E0.1688
G1 X7.123 Y-32.178 E0.1688
G1 X8.09 Y-32.221 E0.1687
G1 X9.058 Y-32.178 E0.1687
G1 X10.019 Y-32.052 E0.1688
G1 X10.965 Y-31.842 E0.1688
G1 X11.88 Y-31.554 E0.1671
G1 X12.781 Y-31.181 E0.1698
G1 X13.643 Y-30.733 E0.1691
G1 X14.46 Y-30.212 E0.1687
G1 X15.228 Y-29.623 E0.1687
G1 X15.943 Y-28.968 E0.1688
G1 X16.599 Y-28.251 E0.1694
G1 X36.689 Y-1.982 E5.7599
G1 X37.207 Y-1.168 E0.1681
G1 X37.654 Y-0.309 E0.1687
G1 X38.025 Y0.586 E0.1687
G1 X38.316 Y1.51 E0.1687
G1 X38.526 Y2.456 E0.1687
G1 X38.653 Y3.416 E0.1687
G1 X38.695 Y4.384 E0.1687
G1 X38.653 Y5.351 E0.1687
G1 X38.526 Y6.312 E0.1687
G1 X38.316 Y7.258 E0.1688
G1 X38.025 Y8.182 E0.1687
G1 X37.654 Y9.077 E0.1687
G1 X37.207 Y9.936 E0.1687
G1 X36.689 Y10.75 E0.1681
G1 X16.599 Y37.019 E5.7599
G1 X15.942 Y37.736 E0.1694
G1 X15.228 Y38.39 E0.1687
G1 X14.46 Y38.98 E0.1687
G1 X13.643 Y39.5 E0.1687
G1 X12.783 Y39.948 E0.1688
G1 X11.888 Y40.318 E0.1687
G1 X10.965 Y40.61 E0.1687
G1 X10.03 Y40.817 E0.1667
G1 X9.061 Y40.946 E0.1703
G1 X8.09 Y40.988 E0.1692
G1 X7.123 Y40.946 E0.1687
G1 X6.162 Y40.819 E0.1688
G1 X5.216 Y40.61 E0.1687
G1 X4.293 Y40.318 E0.1687
G1 X2.851 Y39.721 E0.2717
G1 X2.851 Y45.974 E1.089
G1 X2.813 Y46.841 E0.1512
G1 X2.687 Y47.802 E0.1688
G1 X2.477 Y48.748 E0.1687
G1 X2.186 Y49.672 E0.1687
G1 X1.815 Y50.566 E0.1687
G1 X1.368 Y51.426 E0.1688
G1 X0.847 Y52.243 E0.1687
G1 X0.258 Y53.011 E0.1687
G1 X-0.397 Y53.726 E0.1687
G1 X-1.111 Y54.38 E0.1688
G1 X-1.879 Y54.97 E0.1687
G1 X-2.696 Y55.49 E0.1687
G1 X-3.556 Y55.938 E0.1688
G1 X-4.451 Y56.309 E0.1687
G1 X-5.374 Y56.6 E0.1687
G1 X-6.312 Y56.808 E0.1672
G1 X-7.279 Y56.936 E0.1699
G1 X-8.249 Y56.978 E0.1691
G1 X-9.207 Y56.936 E0.1671
G1 X-10.175 Y56.81 E0.17
G1 X-11.123 Y56.6 E0.1692
G1 X-12.047 Y56.309 E0.1687
