; G-Code generated by Simplify3D(TM) Version 2.1.2
; Dec 3, 2014 at 4:49:41 PM
; Settings Summary
;   processName,Process1
;   applyToModels,zcarraigebottom
;   printMaterial,ABS
;   printQuality,High
;   extruderName,Right Extruder,Left Extruder
;   extruderToolheadNumber,0,1
;   extruderDiameter,0.4,0.4
;   extruderAutoWidth,0,0
;   extruderWidth,0.4,0.4
;   extrusionMultiplier,1,1
;   extruderUseRetract,1,1
;   extruderRetractionDistance,1,1.2
;   extruderExtraRestartDistance,0,0
;   extruderRetractionZLift,0,0
;   extruderRetractionSpeed,1200,1200
;   extruderUseCoasting,0,0
;   extruderCoastingDistance,0.2,0.2
;   extruderUseWipe,0,1
;   extruderWipeDistance,5,7
;   primaryExtruder,1
;   layerHeight,0.25
;   topSolidLayers,3
;   bottomSolidLayers,3
;   perimeterOutlines,2
;   printPerimetersInsideOut,1
;   startPointOption,2
;   startPointOriginX,0
;   startPointOriginY,0
;   startPointOriginZ,300
;   sequentialIslands,0
;   spiralVaseMode,0
;   firstLayerHeightRatio,0.9
;   firstLayerUnderspeed,0.5
;   useRaft,1
;   raftLayers,3
;   raftOffset,3
;   raftSeparationDistance,0.14
;   raftInfill,85
;   disableRaftBaseLayers,0
;   useSkirt,1
;   skirtLayers,2
;   skirtOutlines,2
;   skirtOffset,4
;   infillExtruder,1
;   externalInfillPattern,Rectilinear
;   infillPercentage,20
;   outlineOverlapPercentage,23
;   minInfillLength,2.5
;   infillLayerInterval,1
;   randomInfillStartPoint,1
;   infillAngles,45,-45
;   generateSupport,0
;   supportExtruder,1
;   supportInfill,40
;   supportExtraInflation,0
;   supportLayerInterval,1
;   supportHorizontalPartOffset,0.3
;   supportUpperSeparationLayers,1
;   supportLowerSeparationLayers,1
;   supportGridSpacing,4
;   maxOverhangAngle,45
;   supportAngles,0
;   temperatureName,Right Extruder,Left Extruder,Heated Build Platform
;   temperatureNumber,0,1,0
;   temperatureSetpointCount,1,1,1
;   temperatureSetpointLayers,1,1,1
;   temperatureSetpointTemperatures,0,232,130
;   temperatureStabilizeAtStartup,1,1,1
;   temperatureHeatedBed,0,0,1
;   temperatureRelayBetweenLayers,1,1,1
;   temperatureRelayBetweenLoops,0,0,0
;   fanLayers,1
;   fanSpeeds,0
;   blipFanToFullPower,0
;   adjustSpeedForCooling,1
;   minSpeedLayerTime,15
;   minCoolingSpeedSlowdown,20
;   increaseFanForCooling,0
;   minFanLayerTime,45
;   maxCoolingFanSpeed,100
;   increaseFanForBridging,0
;   bridgingFanSpeed,100
;   use5D,1
;   relativeEdistances,1
;   allowEaxisZeroing,0
;   includeM10123,0
;   stickySupport,1
;   detectArcs,0
;   arcReplaceG2G3,0
;   arcRadialCompensation,1
;   gcodeXoffset,0
;   gcodeYoffset,0
;   gcodeZoffset,0
;   overrideMachineDefinition,1
;   machineTypeOverride,0
;   strokeXoverride,250
;   strokeYoverride,150
;   strokeZoverride,150
;   originOffsetXoverride,125
;   originOffsetYoverride,75
;   originOffsetZoverride,0
;   homeXdirOverride,1
;   homeYdirOverride,1
;   homeZdirOverride,-1
;   flipXoverride,1
;   flipYoverride,-1
;   flipZoverride,1
;   startingGcode,; **** Replicator 2X start.gcode ****,M73 P0 ; enable build progress,G162 X Y F3000 ; home XY maximum,G161 Z F1200 ; home Z minimum,G92 Z-5 ; set Z to -5,G1 Z0 ; move Z to 0,G161 Z F100 ; home Z slowly,M132 X Y Z A B ; recall home offsets,M135 T0 ; load right extruder offsets,G1 X-130 Y-75 Z30 F9000 ; move to wait position off table,G130 X20 Y20 Z20 A20 B20 ; lower stepper Vrefs while heating,M126 S[fan_speed_pwm],M140 S[bed0_temperature] T0,M134 T0 ; stabilize bed temperature,M104 S[extruder1_temperature] T1,M133 T1 ; stabilize extruder temperature,G130 X127 Y127 Z40 A127 B127 ; default stepper Vrefs,G92 A0 B0 ; zero extruders,M135 T1 ; load left extruder offsets,G1 Z0.4 ; position nozzle,G1 E25 F300 ; purge nozzle,G1 X-125 Y-70 Z0.15 F1200 ; slow wipe,G1 X-120 Y-65 Z0.5 F1200 ; lift,G92 A0 B0 ; zero extruders,M73 P1 ;@body (notify GPX body has started),; **** end of start.gcode ****
;   layerChangeGcode,
;   toolChangeGcode,
;   endingGcode,; **** Replicator 2X end.gcode ****,M73 P100 ; end build progress,G0 Z155 F1000 ; send Z axis to bottom of machine,M140 S0 T0 ; cool down HBP,M104 S0 T0 ; cool down right extruder,M104 S0 T1 ; cool down left extruder,M127 ; stop blower fan,G162 X Y F3000 ; home XY maximum,M18 ; disable stepper,M72 P1 ; play Ta-Da song,; **** end of end.gcode ****
;   createX3G,1
;   celebration,0
;   celebrationSong,Entertainer
;   postProcessing,
;   defaultSpeed,4800
;   outlineUnderspeed,0.5
;   supportUnderspeed,0.8
;   rapidXYspeed,9000
;   rapidZspeed,1200
;   minBridgingArea,50
;   bridgingExtrusionMultiplier,1
;   bridgingSpeedMultiplier,0.8
;   filamentDiameter,1.71
;   filamentPricePerKg,46
;   useMinPrintHeight,0
;   minPrintHeight,0
;   useMaxPrintHeight,0
;   maxPrintHeight,0
;   overlapRemoval,0
;   overlapRemovalPercentage,0.3
;   useDiaphragm,0
;   diaphragmLayerInterval,20
;   robustSlicing,1
;   mergeAllIntoSolid,0
;   onlyRetractWhenCrossingOutline,1
;   retractBetweenLayers,1
;   useRetractionMinTravel,0
;   retractionMinTravel,3
;   useRetractionOozeRate,0
;   retractionOozeRate,100
;   onlyWipeOutlines,1
G90 ; use absolute coordinates
M83 ; relative extrusion distances
G21 ; set units to millimeters
; **** Replicator 2X start.gcode ****
M73 P0 ; enable build progress
G162 X Y F3000 ; home XY maximum
G161 Z F1200 ; home Z minimum
G92 Z-5 ; set Z to -5
G1 Z0 ; move Z to 0
G161 Z F100 ; home Z slowly
M132 X Y Z A B ; recall home offsets
M135 T0 ; load right extruder offsets
G1 X-130 Y-75 Z30 F9000 ; move to wait position off table
G130 X20 Y20 Z20 A20 B20 ; lower stepper Vrefs while heating
M127
M140 S130 T0
M134 T0 ; stabilize bed temperature
M104 S232 T1
M133 T1 ; stabilize extruder temperature
G130 X127 Y127 Z40 A127 B127 ; default stepper Vrefs
G92 A0 B0 ; zero extruders
M135 T1 ; load left extruder offsets
G1 Z0.4 ; position nozzle
G1 E25 F300 ; purge nozzle
G1 X-125 Y-70 Z0.15 F1200 ; slow wipe
G1 X-120 Y-65 Z0.5 F1200 ; lift
G92 A0 B0 ; zero extruders
M73 P1 ;@body (notify GPX body has started)
; **** end of start.gcode ****
G1 E-1.2 F1200
; layer 1, Z = 0.45
M105
M105
M105
M135 T1
; tool H0.5 W0.4
G0 X34.512 Y14.676 F9000
G0 Z0.45 F1200
G1 E1.2 F360
G1 X33.36 Y19.965 E0.4714 F2400
G1 X33.487 Y20.119 E0.0173
G1 X34.855 Y22.274 E0.2224
G1 X35.942 Y24.584 E0.2223
G1 X36.733 Y27.014 E0.2226
G1 X37.212 Y29.529 E0.2229
G1 X37.371 Y32.075 E0.2222
G1 X37.212 Y34.622 E0.2223
G1 X36.733 Y37.136 E0.2229
G1 X35.942 Y39.567 E0.2226
G1 X34.855 Y41.877 E0.2223
G1 X33.487 Y44.032 E0.2224
G1 X31.86 Y46 E0.2224
G1 X29.996 Y47.75 E0.2227
G1 X27.929 Y49.252 E0.2224
G1 X25.687 Y50.485 E0.2229
G1 X22.674 Y51.675 E0.2821
G1 X2.522 Y51.675 E1.755
G1 X1.526 Y43.71 E0.6991
G1 X1.385 Y43.159 E0.0495
G1 X1.174 Y42.626 E0.0499
G1 X0.896 Y42.121 E0.0503
G1 X0.558 Y41.655 E0.0501
G1 X0.164 Y41.236 E0.0501
G1 X-0.279 Y40.869 E0.05
G1 X-0.764 Y40.562 E0.05
G1 X-1.285 Y40.316 E0.0502
G1 X-1.835 Y40.138 E0.0503
G1 X-2.398 Y40.03 E0.0499
G1 X-2.972 Y39.994 E0.0501
G1 X-3.547 Y40.03 E0.0502
G1 X-4.11 Y40.138 E0.0499
G1 X-4.659 Y40.316 E0.0503
G1 X-5.18 Y40.562 E0.0502
G1 X-5.665 Y40.869 E0.05
G1 X-6.108 Y41.236 E0.05
G1 X-6.502 Y41.655 E0.0501
G1 X-6.84 Y42.121 E0.0501
G1 X-7.117 Y42.624 E0.05
G1 X-7.328 Y43.158 E0.05
G1 X-7.471 Y43.713 E0.0499
G1 X-8.465 Y51.675 E0.6987
G1 X-28.618 Y51.675 E1.7551
G1 X-31.631 Y50.485 E0.2821
G1 X-33.874 Y49.252 E0.2229
G1 X-35.94 Y47.75 E0.2224
G1 X-37.804 Y46 E0.2227
G1 X-39.431 Y44.032 E0.2224
G1 X-40.799 Y41.877 E0.2224
G1 X-41.886 Y39.567 E0.2223
G1 X-42.677 Y37.136 E0.2226
G1 X-43.156 Y34.622 E0.2229
G1 X-43.315 Y32.075 E0.2223
G1 X-43.156 Y29.529 E0.2222
G1 X-42.677 Y27.014 E0.2229
G1 X-41.886 Y24.584 E0.2226
G1 X-40.799 Y22.274 E0.2223
G1 X-39.431 Y20.119 E0.2224
G1 X-39.304 Y19.965 E0.0173
G1 X-43.131 Y2.392 E1.5663
G1 X-44.015 Y-2.24 E0.4107
G1 X-44.34 Y-7.424 E0.4524
G1 X-44.015 Y-12.609 E0.4524
G1 X-43.041 Y-17.712 E0.4524
G1 X-41.436 Y-22.653 E0.4524
G1 X-39.224 Y-27.354 E0.4524
G1 X-36.441 Y-31.741 E0.4525
G1 X-33.128 Y-35.744 E0.4525
G1 X-29.342 Y-39.3 E0.4523
G1 X-25.139 Y-42.354 E0.4525
G1 X-20.586 Y-44.857 E0.4525
G1 X-15.756 Y-46.768 E0.4524
G1 X-10.724 Y-48.061 E0.4525
G1 X-5.56 Y-48.712 E0.4532
G1 X-0.372 Y-48.712 E0.4518
G1 X4.781 Y-48.061 E0.4523
G1 X9.812 Y-46.768 E0.4524
G1 X14.646 Y-44.854 E0.4528
G1 X19.195 Y-42.354 E0.452
G1 X23.398 Y-39.3 E0.4525
G1 X27.184 Y-35.744 E0.4523
G1 X30.497 Y-31.741 E0.4525
G1 X33.28 Y-27.354 E0.4525
G1 X34.611 Y-24.524 E0.2723
G1 X52.378 Y-24.524 E1.5473
G1 X52.378 Y14.676 E3.4138
G1 X34.512 Y14.676 E1.5559
G0 X34.189 Y14.276 F9000
G1 X32.928 Y20.07 E0.5164 F2400
G1 X33.162 Y20.354 E0.0321
G1 X34.504 Y22.467 E0.218
G1 X35.569 Y24.732 E0.2179
G1 X36.345 Y27.114 E0.2182
G1 X36.814 Y29.579 E0.2185
G1 X36.97 Y32.075 E0.2178
G1 X36.814 Y34.572 E0.2179
G1 X36.345 Y37.036 E0.2185
G1 X35.569 Y39.419 E0.2182
G1 X34.504 Y41.684 E0.2179
G1 X33.162 Y43.797 E0.218
G1 X31.567 Y45.726 E0.218
G1 X29.74 Y47.442 E0.2183
G1 X27.715 Y48.913 E0.218
G1 X25.517 Y50.122 E0.2185
G1 X22.598 Y51.275 E0.2732
G1 X2.875 Y51.275 E1.7176
G1 X1.92 Y43.635 E0.6705
G1 X1.766 Y43.035 E0.0539
G1 X1.536 Y42.456 E0.0543
G1 X1.234 Y41.906 E0.0546
G1 X0.866 Y41.399 E0.0545
G1 X0.438 Y40.943 E0.0545
G1 X-0.043 Y40.545 E0.0544
G1 X-0.571 Y40.21 E0.0544
G1 X-1.138 Y39.944 E0.0546
G1 X-1.735 Y39.75 E0.0547
G1 X-2.347 Y39.633 E0.0543
G1 X-2.972 Y39.594 E0.0545
G1 X-3.597 Y39.633 E0.0545
G1 X-4.209 Y39.75 E0.0543
G1 X-4.806 Y39.944 E0.0547
G1 X-5.373 Y40.211 E0.0546
G1 X-5.901 Y40.545 E0.0544
G1 X-6.382 Y40.943 E0.0544
G1 X-6.811 Y41.399 E0.0545
G1 X-7.178 Y41.906 E0.0545
G1 X-7.479 Y42.453 E0.0544
G1 X-7.709 Y43.034 E0.0544
G1 X-7.864 Y43.638 E0.0543
G1 X-8.818 Y51.275 E0.6702
G1 X-28.542 Y51.275 E1.7177
G1 X-31.461 Y50.122 E0.2732
G1 X-33.659 Y48.913 E0.2185
G1 X-35.684 Y47.442 E0.218
G1 X-37.511 Y45.726 E0.2183
G1 X-39.106 Y43.796 E0.218
G1 X-40.448 Y41.683 E0.218
G1 X-41.513 Y39.419 E0.2179
G1 X-42.289 Y37.037 E0.2182
G1 X-42.759 Y34.572 E0.2185
G1 X-42.914 Y32.075 E0.2179
G1 X-42.758 Y29.579 E0.2178
G1 X-42.289 Y27.114 E0.2185
G1 X-41.513 Y24.731 E0.2182
G1 X-40.448 Y22.467 E0.2179
G1 X-39.106 Y20.354 E0.218
G1 X-38.872 Y20.07 E0.0321
G1 X-42.739 Y2.312 E1.5827
G1 X-43.617 Y-2.29 E0.408
G1 X-43.94 Y-7.424 E0.448
G1 X-43.617 Y-12.559 E0.4481
G1 X-42.653 Y-17.613 E0.448
G1 X-41.063 Y-22.506 E0.4481
G1 X-38.873 Y-27.161 E0.448
G1 X-36.116 Y-31.505 E0.4481
G1 X-32.836 Y-35.47 E0.4481
G1 X-29.087 Y-38.991 E0.4479
G1 X-24.924 Y-42.015 E0.4481
G1 X-20.415 Y-44.494 E0.4481
G1 X-15.632 Y-46.387 E0.448
G1 X-10.648 Y-47.667 E0.4481
G1 X-5.535 Y-48.312 E0.4488
G1 X-0.397 Y-48.312 E0.4474
G1 X4.705 Y-47.667 E0.4479
G1 X9.688 Y-46.387 E0.448
G1 X14.476 Y-44.492 E0.4484
G1 X18.98 Y-42.015 E0.4477
G1 X23.143 Y-38.991 E0.4481
G1 X26.892 Y-35.47 E0.4479
G1 X30.172 Y-31.505 E0.4481
G1 X32.929 Y-27.161 E0.4481
G1 X34.358 Y-24.124 E0.2922
G1 X51.978 Y-24.124 E1.5345
G1 X51.978 Y14.276 E3.3441
G1 X34.189 Y14.276 E1.5492
; tool H0.5 W0.8
G0 X30.483 Y9.676 F9000
G1 X27.945 Y21.333 E2.0779 F600
G1 X28.207 Y21.579 E0.0626
G1 X29.433 Y23.063 E0.3353
G1 X30.465 Y24.688 E0.3353
G1 X31.284 Y26.429 E0.3351
G1 X31.881 Y28.261 E0.3355
G1 X32.241 Y30.155 E0.3358
G1 X32.361 Y32.075 E0.3351
G1 X32.241 Y33.996 E0.3353
G1 X31.881 Y35.89 E0.3358
G1 X31.284 Y37.721 E0.3355
G1 X30.465 Y39.463 E0.3351
G1 X29.433 Y41.088 E0.3353
G1 X28.207 Y42.571 E0.3353
G1 X26.802 Y43.89 E0.3356
G1 X25.245 Y45.022 E0.3354
G1 X23.555 Y45.951 E0.3357
G1 X21.723 Y46.675 E0.3432
G1 X6.936 Y46.675 E2.5755
G1 X6.448 Y42.775 E0.6846
G1 X6.15 Y41.611 E0.2093
G1 X5.706 Y40.492 E0.2096
G1 X5.126 Y39.436 E0.2099
G1 X4.418 Y38.462 E0.2098
G1 X3.593 Y37.584 E0.2098
G1 X2.666 Y36.816 E0.2097
G1 X1.649 Y36.171 E0.2097
G1 X0.559 Y35.658 E0.2098
G1 X-0.588 Y35.286 E0.21
G1 X-1.77 Y35.06 E0.2096
G1 X-2.972 Y34.985 E0.2097
G1 X-4.174 Y35.06 E0.2099
G1 X-5.356 Y35.286 E0.2096
G1 X-6.503 Y35.658 E0.21
G1 X-7.593 Y36.171 E0.2098
G1 X-8.61 Y36.816 E0.2097
G1 X-9.537 Y37.584 E0.2097
G1 X-10.362 Y38.462 E0.2098
G1 X-11.07 Y39.436 E0.2098
G1 X-11.65 Y40.491 E0.2097
G1 X-12.093 Y41.611 E0.2097
G1 X-12.393 Y42.778 E0.2098
G1 X-12.879 Y46.675 E0.6841
G1 X-27.667 Y46.675 E2.5756
G1 X-29.5 Y45.951 E0.3432
G1 X-31.189 Y45.022 E0.3357
G1 X-32.746 Y43.89 E0.3354
G1 X-34.151 Y42.571 E0.3356
G1 X-35.377 Y41.088 E0.3353
G1 X-36.409 Y39.463 E0.3353
G1 X-37.228 Y37.722 E0.3351
G1 X-37.825 Y35.89 E0.3355
G1 X-38.186 Y33.996 E0.3358
G1 X-38.306 Y32.075 E0.3352
G1 X-38.186 Y30.155 E0.335
G1 X-37.825 Y28.261 E0.3358
G1 X-37.229 Y26.429 E0.3355
G1 X-36.409 Y24.688 E0.3352
G1 X-35.378 Y23.063 E0.3353
G1 X-34.151 Y21.579 E0.3353
G1 X-33.889 Y21.333 E0.0626
G1 X-38.232 Y1.391 E3.5547
G1 X-39.044 Y-2.868 E0.7552
G1 X-39.331 Y-7.424 E0.7952
G1 X-39.044 Y-11.982 E0.7953
G1 X-38.189 Y-16.466 E0.7952
G1 X-36.778 Y-20.809 E0.7953
G1 X-34.834 Y-24.94 E0.7953
G1 X-32.387 Y-28.796 E0.7953
G1 X-29.476 Y-32.315 E0.7954
G1 X-26.149 Y-35.439 E0.7951
G1 X-22.454 Y-38.124 E0.7954
G1 X-18.453 Y-40.324 E0.7954
G1 X-14.208 Y-42.004 E0.7952
G1 X-9.785 Y-43.14 E0.7953
G1 X-5.246 Y-43.712 E0.7968
G1 X-0.687 Y-43.712 E0.7941
G1 X3.841 Y-43.14 E0.795
G1 X8.264 Y-42.004 E0.7953
G1 X12.513 Y-40.321 E0.796
G1 X16.51 Y-38.124 E0.7945
G1 X20.204 Y-35.439 E0.7953
G1 X23.532 Y-32.315 E0.7951
G1 X26.443 Y-28.796 E0.7954
G1 X28.89 Y-24.94 E0.7953
G1 X30.834 Y-20.809 E0.7953
G1 X31.251 Y-19.524 E0.2352
G1 X47.378 Y-19.524 E2.8089
G1 X47.378 Y9.676 E5.0858
G1 X30.483 Y9.676 E2.9426
G0 X28.994 Y16.515 F600
G0 X1.837 Y35.376 F9000
G1 X31.164 Y35.376 E5.1079 F600
G1 X31.104 Y35.69 E0.0557
G1 X30.539 Y37.426 E0.318
G1 X30.429 Y37.662 E0.0453
G1 X4.764 Y37.662 E4.47
G1 X5.036 Y37.951 E0.0691
G1 X5.803 Y39.007 E0.2273
G1 X6.32 Y39.947 E0.1869
G1 X29.21 Y39.947 E3.9868
G1 X28.785 Y40.617 E0.1381
G1 X27.622 Y42.023 E0.3178
G1 X27.399 Y42.233 E0.0535
G1 X7.135 Y42.233 E3.5293
G1 X7.236 Y42.625 E0.0705
G1 X7.472 Y44.519 E0.3323
G1 X24.5 Y44.519 E2.9657
G1 X23.214 Y45.226 E0.2555
G1 X21.571 Y45.875 E0.3078
G1 X7.642 Y45.875 E2.426
G1 X7.472 Y44.519 E0.238
G0 X-30.444 Y44.519 F9000
G1 X-29.159 Y45.226 E0.2555 F600
G1 X-27.515 Y45.875 E0.3078
G1 X-13.586 Y45.875 E2.426
G1 X-13.416 Y44.519 E0.238
G1 X-30.444 Y44.519 E2.9657
G1 X-30.759 Y44.345 E0.0626
G1 X-32.235 Y43.273 E0.3178
G1 X-33.343 Y42.233 E0.2646
G1 X-13.079 Y42.233 E3.5294
G1 X-12.855 Y41.363 E0.1564
G1 X-12.375 Y40.15 E0.2272
G1 X-12.264 Y39.947 E0.0403
G1 X-35.154 Y39.947 E3.9868
G1 X-35.707 Y39.076 E0.1797
G1 X-36.373 Y37.662 E0.2723
G1 X-10.708 Y37.662 E4.47
G1 X-10.086 Y36.999 E0.1582
G1 X-9.081 Y36.167 E0.2273
G1 X-7.979 Y35.469 E0.2273
G1 X-7.782 Y35.376 E0.038
G1 X-37.108 Y35.376 E5.1079
G1 X-37.39 Y33.896 E0.2624
G1 X-37.441 Y33.09 E0.1406
G1 X31.496 Y33.09 E12.0069
G1 X31.56 Y32.075 E0.1772
G1 X31.48 Y30.804 E0.2217
G1 X-37.425 Y30.804 E12.0013
G1 X-37.39 Y30.255 E0.0959
G1 X-37.06 Y28.519 E0.3079
G1 X31.115 Y28.519 E11.8741
G1 X31.104 Y28.46 E0.0103
G1 X30.539 Y26.724 E0.318
G1 X30.308 Y26.233 E0.0946
G1 X-36.252 Y26.233 E11.5929
G1 X-35.707 Y25.074 E0.223
G1 X-34.991 Y23.947 E0.2325
G1 X29.047 Y23.947 E11.1537
G1 X28.785 Y23.534 E0.0852
G1 X27.622 Y22.128 E0.3178
G1 X27.126 Y21.662 E0.1186
G1 X-33.07 Y21.662 E10.4844
G1 X-33.011 Y21.606 E0.0142
G1 X-33.496 Y19.376 E0.3975
G1 X27.552 Y19.376 E10.6329
G1 X28.05 Y17.09 E0.4074
G1 X-33.994 Y17.09 E10.8063
G1 X-34.492 Y14.804 E0.4074
G1 X28.548 Y14.804 E10.9797
G1 X29.046 Y12.519 E0.4074
G1 X-34.99 Y12.519 E11.1531
G1 X-35.488 Y10.233 E0.4074
G1 X29.543 Y10.233 E11.3266
G1 X29.839 Y8.876 E0.2419
G1 X46.578 Y8.876 E2.9156
G1 X46.578 Y7.947 E0.1617
G1 X-35.985 Y7.947 E14.3803
G1 X-36.483 Y5.662 E0.4074
G1 X46.578 Y5.662 E14.467
G1 X46.578 Y3.376 E0.3981
G1 X-36.981 Y3.376 E14.5537
G1 X-37.448 Y1.232 E0.3822
G1 X-37.475 Y1.09 E0.0251
G1 X46.578 Y1.09 E14.6397
G1 X46.578 Y-1.196 E0.3981
G1 X-37.911 Y-1.196 E14.7157
G1 X-38.249 Y-2.968 E0.3143
G1 X-38.281 Y-3.481 E0.0896
G1 X46.578 Y-3.481 E14.7802
G1 X46.578 Y-5.767 E0.3981
G1 X-38.425 Y-5.767 E14.8052
G1 X-38.529 Y-7.424 E0.2892
G1 X-38.49 Y-8.053 E0.1097
G1 X46.578 Y-8.053 E14.8164
G1 X46.578 Y-10.338 E0.3981
